TKDRYU104/lerobot/motor_logs/motor_log_20250617_145409.csv
timestamp,elapsed_time,shoulder_pan.pos,shoulder_lift.pos,elbow_flex.pos,wrist_flex.pos,wrist_roll.pos,gripper.pos
14:54:09.871,0.004,1.7595307917888476,-95.79759862778731,99.8187584956955,-99.83291562238931,0.0,0.271985494106981
14:54:09.888,0.020,1.7595307917888476,-95.79759862778731,99.8187584956955,-99.83291562238931,0.0,0.271985494106981
14:54:09.904,0.037,1.7595307917888476,-95.79759862778731,99.8187584956955,-99.83291562238931,0.0,0.271985494106981
14:54:09.921,0.054,1.7595307917888476,-95.79759862778731,99.8187584956955,-99.83291562238931,0.0,0.271985494106981
14:54:09.938,0.070,1.7595307917888476,-95.79759862778731,99.8187584956955,-99.83291562238931,0.0,0.271985494106981
14:54:09.954,0.087,1.7595307917888476,-95.79759862778731,99.8187584956955,-99.83291562238931,0.0,0.271985494106981
14:54:09.971,0.104,1.7595307917888476,-95.79759862778731,99.8187584956955,-99.83291562238931,0.0,0.271985494106981
14:54:09.988,0.120,1.7595307917888476,-95.79759862778731,99.8187584956955,-99.83291562238931,0.0,0.271985494106981
14:54:10.004,0.137,1.7595307917888476,-95.79759862778731,99.8187584956955,-99.83291562238931,0.0,0.271985494106981
14:54:10.021,0.154,1.7595307917888476,-95.79759862778731,99.8187584956955,-99.83291562238931,0.0,0.271985494106981
14:54:10.038,0.170,1.7595307917888476,-95.79759862778731,99.8187584956955,-99.83291562238931,0.0,0.271985494106981
14:54:10.054,0.187,1.7595307917888476,-95.79759862778731,99.8187584956955,-99.83291562238931,0.0,0.271985494106981
14:54:10.071,0.204,1.7595307917888476,-95.79759862778731,99.8187584956955,-99.83291562238931,0.0,0.271985494106981
14:54:10.088,0.221,1.7595307917888476,-95.79759862778731,99.8187584956955,-99.83291562238931,0.0,0.271985494106981
14:54:10.104,0.237,1.7595307917888476,-95.79759862778731,99.8187584956955,-99.83291562238931,0.0,0.271985494106981
14:54:10.121,0.254,1.7595307917888476,-95.79759862778731,99.8187584956955,-99.83291562238931,0.0,0.271985494106981
14:54:10.138,0.271,1.7595307917888476,-95.79759862778731,99.8187584956955,-99.83291562238931,0.0,0.271985494106981
14:54:10.155,0.287,1.7595307917888476,-95.79759862778731,99.8187584956955,-99.83291562238931,0.0,0.271985494106981
14:54:10.171,0.304,1.7595307917888476,-95.79759862778731,99.8187584956955,-99.83291562238931,0.0,0.271985494106981
14:54:10.188,0.321,1.7595307917888476,-95.79759862778731,99.8187584956955,-99.83291562238931,0.0,0.271985494106981
14:54:10.205,0.338,1.7595307917888476,-95.88336192109777,99.8187584956955,-99.83291562238931,0.0,0.271985494106981
14:54:10.222,0.354,1.7595307917888476,-95.88336192109777,99.8187584956955,-99.83291562238931,0.0,0.271985494106981
14:54:10.238,0.371,1.7595307917888476,-95.88336192109777,99.8187584956955,-99.83291562238931,0.0,0.271985494106981
14:54:10.255,0.388,1.7595307917888476,-95.88336192109777,99.8187584956955,-99.83291562238931,0.0,0.271985494106981
14:54:10.272,0.404,1.7595307917888476,-95.88336192109777,99.8187584956955,-99.83291562238931,0.0,0.271985494106981
14:54:10.288,0.421,1.7595307917888476,-95.88336192109777,99.8187584956955,-99.83291562238931,0.0,0.271985494106981
14:54:10.305,0.438,1.7595307917888476,-95.88336192109777,99.8187584956955,-99.83291562238931,0.0,0.271985494106981
14:54:10.322,0.454,1.7595307917888476,-95.88336192109777,99.8187584956955,-99.83291562238931,0.0,0.271985494106981
14:54:10.338,0.471,1.7595307917888476,-95.88336192109777,99.8187584956955,-99.83291562238931,0.0,0.271985494106981
14:54:10.355,0.488,1.7595307917888476,-95.88336192109777,99.8187584956955,-99.83291562238931,0.0,0.271985494106981
14:54:10.372,0.504,1.7595307917888476,-95.88336192109777,99.8187584956955,-99.83291562238931,0.0,0.271985494106981
14:54:10.389,0.521,1.7595307917888476,-95.88336192109777,99.8187584956955,-99.83291562238931,0.0,0.271985494106981
14:54:10.405,0.538,1.7595307917888476,-95.88336192109777,99.8187584956955,-99.83291562238931,0.0,0.271985494106981
14:54:10.422,0.555,1.7595307917888476,-95.88336192109777,99.8187584956955,-99.83291562238931,0.0,0.271985494106981
14:54:10.439,0.571,1.7595307917888476,-95.88336192109777,99.8187584956955,-99.83291562238931,0.0,0.271985494106981
14:54:10.455,0.588,1.7595307917888476,-95.88336192109777,99.8187584956955,-99.83291562238931,0.0,0.271985494106981
14:54:10.472,0.605,1.7595307917888476,-95.88336192109777,99.8187584956955,-99.83291562238931,0.0,0.271985494106981
14:54:10.489,0.621,1.7595307917888476,-95.88336192109777,99.8187584956955,-99.83291562238931,0.0,0.271985494106981
14:54:10.505,0.638,1.7595307917888476,-95.88336192109777,99.8187584956955,-99.83291562238931,0.0,0.271985494106981
14:54:10.522,0.655,1.7595307917888476,-95.88336192109777,99.8187584956955,-99.83291562238931,0.0,0.271985494106981
14:54:10.539,0.671,1.7595307917888476,-95.88336192109777,99.8187584956955,-99.83291562238931,0.0,0.271985494106981
14:54:10.555,0.688,1.7595307917888476,-95.88336192109777,99.8187584956955,-99.83291562238931,0.0,0.271985494106981
14:54:10.572,0.705,1.7595307917888476,-95.88336192109777,99.8187584956955,-99.83291562238931,0.0,0.271985494106981
14:54:10.589,0.722,1.7595307917888476,-95.88336192109777,99.8187584956955,-99.83291562238931,0.0,0.271985494106981
14:54:10.606,0.738,1.7595307917888476,-95.88336192109777,99.8187584956955,-99.83291562238931,0.0,0.271985494106981
14:54:10.622,0.755,1.7595307917888476,-95.88336192109777,99.8187584956955,-99.83291562238931,0.0,0.271985494106981
14:54:10.639,0.772,1.7595307917888476,-95.88336192109777,99.8187584956955,-99.83291562238931,0.0,0.271985494106981
14:54:10.656,0.788,1.7595307917888476,-95.88336192109777,99.8187584956955,-99.83291562238931,0.0,0.271985494106981
14:54:10.672,0.805,1.8328445747800544,-95.88336192109777,99.8187584956955,-99.83291562238931,0.0,0.271985494106981
14:54:10.689,0.822,2.126099706744867,-95.88336192109777,99.8187584956955,-99.83291562238931,0.0,0.271985494106981
14:54:10.706,0.838,2.2727272727272663,-95.88336192109777,99.8187584956955,-99.83291562238931,0.0,0.271985494106981
14:54:10.722,0.855,2.4926686217008722,-95.88336192109777,99.8187584956955,-99.83291562238931,0.0,0.271985494106981
14:54:10.739,0.872,2.712609970674478,-95.88336192109777,99.8187584956955,-99.83291562238931,0.0,0.271985494106981
14:54:10.756,0.888,3.005865102639291,-95.88336192109777,99.8187584956955,-99.83291562238931,0.0,0.271985494106981
14:54:10.772,0.905,3.2991202346041035,-95.88336192109777,99.8187584956955,-99.83291562238931,0.0,0.271985494106981
14:54:10.789,0.922,3.7390029325513154,-95.88336192109777,99.8187584956955,-99.83291562238931,0.0,0.271985494106981
14:54:10.806,0.939,4.032258064516128,-95.88336192109777,99.8187584956955,-99.83291562238931,0.0,0.271985494106981
14:54:10.823,0.955,4.325513196480941,-95.88336192109777,99.8187584956955,-99.83291562238931,0.0,0.271985494106981
14:54:10.839,0.972,4.765395894428153,-95.88336192109777,99.8187584956955,-99.83291562238931,0.0,0.271985494106981
14:54:10.856,0.989,5.131964809384158,-95.88336192109777,99.8187584956955,-99.83291562238931,0.0,0.271985494106981
14:54:10.873,1.005,5.425219941348971,-95.79759862778731,99.8187584956955,-99.83291562238931,0.0,0.271985494106981
14:54:10.889,1.022,5.57184750733137,-95.79759862778731,99.8187584956955,-99.83291562238931,0.0,0.271985494106981
14:54:10.906,1.039,5.791788856304976,-95.71183533447685,99.8187584956955,-99.83291562238931,0.0,0.271985494106981
14:54:10.923,1.055,6.304985337243394,-95.71183533447685,99.8187584956955,-99.83291562238931,0.0,0.271985494106981
14:54:10.940,1.072,6.89149560117302,-95.71183533447685,99.8187584956955,-99.83291562238931,0.0,0.271985494106981
14:54:10.956,1.089,7.697947214076237,-95.71183533447685,99.8187584956955,-99.83291562238931,0.0,0.271985494106981
14:54:10.973,1.106,8.504398826979468,-95.71183533447685,99.8187584956955,-99.83291562238931,0.0,0.09066183136899365
14:54:10.990,1.122,9.384164222873892,-95.71183533447685,99.8187584956955,-99.49874686716792,0.0,0.09066183136899365
14:54:11.006,1.139,10.190615835777123,-95.71183533447685,99.63751699139104,-98.66332497911445,0.0,0.09066183136899365
14:54:11.023,1.156,10.99706744868034,-95.71183533447685,99.09379247847755,-97.1595655806182,0.0,0.09066183136899365
14:54:11.040,1.172,11.876832844574764,-95.71183533447685,98.2782057091074,-95.40517961570593,0.0,0.09066183136899365
14:54:11.056,1.189,12.829912023460423,-95.71183533447685,97.10013593112822,-93.06599832915623,0.0,0.09066183136899365
14:54:11.073,1.206,13.63636363636364,-95.71183533447685,95.55958314454008,-90.30910609857978,0.0,0.09066183136899365
14:54:11.090,1.223,14.442815249266872,-95.71183533447685,93.74716810149525,-86.80033416875523,0.0,0.09066183136899365
14:54:11.106,1.239,15.175953079178896,-95.71183533447685,91.66289080199365,-83.04093567251462,0.0,0.09066183136899365
14:54:11.123,1.256,15.762463343108507,-95.62607204116638,89.48799275033983,-79.36507936507937,0.0,0.09066183136899365
14:54:11.140,1.273,16.348973607038133,-95.28301886792453,86.95061169007704,-75.43859649122807,0.0,0.09066183136899365
14:54:11.157,1.289,16.86217008797655,-94.68267581475129,84.23198912550973,-71.51211361737677,0.0,0.09066183136899365
14:54:11.173,1.306,17.448680351906162,-93.82504288164665,81.51336656094244,-67.75271512113618,0.0,0.09066183136899365
14:54:11.190,1.323,18.10850439882698,-92.7958833619211,78.6135024920707,-64.16040100250626,0.0,0.09066183136899365
14:54:11.207,1.339,18.548387096774206,-91.68096054888508,75.80425917535115,-60.8187134502924,0.0,0.09066183136899365
14:54:11.225,1.358,18.91495601173021,-90.39451114922814,73.26687811508836,-57.47702589807853,0.0,0.09066183136899365
14:54:11.240,1.373,19.281524926686217,-89.19382504288164,70.54825555052108,-54.30242272347536,0.0,0.09066183136899365
14:54:11.257,1.389,19.648093841642236,-87.9073756432247,68.01087449025826,-51.46198830409357,0.0,0.09066183136899365
14:54:11.273,1.406,20.01466275659824,-86.62092624356775,65.47349342999547,-48.955722639933164,0.0,0.09066183136899365
14:54:11.290,1.423,20.307917888563054,-85.3344768439108,63.11735387403715,-46.783625730994146,0.0,0.09066183136899365
14:54:11.307,1.440,20.821114369501473,-84.04802744425386,61.12369732668782,-44.77861319966583,0.0,0.09066183136899365
14:54:11.324,1.456,21.62756598240469,-82.84734133790738,59.039420027186225,-42.9406850459482,0.0,0.09066183136899365
14:54:11.340,1.473,22.507331378299128,-81.56089193825042,57.22700498414136,-41.52046783625731,0.0,0.09066183136899365
14:54:11.357,1.490,23.240469208211152,-80.18867924528303,55.59583144540099,-40.18379281537177,0.0,0.09066183136899365
14:54:11.374,1.506,23.753665689149557,-78.98799313893653,54.05527865881288,-38.847117794486216,0.0,0.09066183136899365
14:54:11.390,1.523,24.340175953079182,-77.87307032590051,52.60534662437698,-37.51044277360067,0.0,0.09066183136899365
14:54:11.407,1.540,24.926686217008793,-76.7581475128645,51.33665609424557,-36.17376775271512,0.0,0.09066183136899365
14:54:11.424,1.556,25.586510263929625,-75.64322469982847,50.15858631626642,-34.920634920634924,0.0,0.09066183136899365
14:54:11.441,1.573,26.53958944281524,-74.52830188679245,49.07113729043951,-33.751044277360066,0.0,0.09066183136899365
14:54:11.457,1.590,27.272727272727266,-73.2418524871355,47.983688264612596,-32.58145363408521,0.0,0.09066183136899365
14:54:11.474,1.606,27.9325513196481,-72.04116638078902,46.80561848663345,-31.161236424394318,0.0,0.09066183136899365
14:54:11.491,1.623,28.445747800586503,-70.75471698113208,45.53692795650204,-29.741019214703428,0.0,0.09066183136899365
14:54:11.507,1.640,28.885630498533715,-69.63979416809605,44.1776166742184,-28.070175438596493,0.0,0.09066183136899365
14:54:11.524,1.657,29.398826979472148,-68.35334476843911,42.727684639782524,-26.232247284878866,0.0,0.09066183136899365
14:54:11.541,1.673,29.83870967741936,-67.23842195540308,41.27775260534662,-23.976608187134502,0.0,0.09066183136899365
14:54:11.557,1.690,30.27859237536657,-66.0377358490566,39.64657906660625,-21.6374269005848,0.0,0.09066183136899365
14:54:11.574,1.707,30.645161290322562,-64.83704974271012,38.01540552786588,-19.298245614035096,0.0,0.09066183136899365
14:54:11.591,1.723,31.01173020527858,-63.63636363636363,36.38423198912551,-16.791979949874687,0.0,0.09066183136899365
14:54:11.607,1.740,31.3782991202346,-62.521440823327616,34.75305845038514,-14.452798663324984,0.0,0.09066183136899365
14:54:11.624,1.757,31.818181818181813,-61.23499142367067,33.03126415949251,-12.11361737677528,0.0,0.09066183136899365
14:54:11.641,1.774,32.18475073313783,-60.03430531732418,31.218849116447643,-9.523809523809518,0.0,0.09066183136899365
14:54:11.658,1.790,32.69794721407624,-58.74785591766724,29.22519256909831,-6.766917293233092,0.0,0.09066183136899365
14:54:11.674,1.807,33.21114369501464,-57.54716981132076,27.41277752605346,-4.093567251461991,0.0,0.09066183136899365
14:54:11.691,1.824,33.724340175953074,-56.34648370497427,25.32850022655188,-1.4202172096909038,-5.054945054945065,0.09066183136899365
14:54:11.708,1.841,34.3108504398827,-55.14579759862779,23.51608518350703,1.2531328320801975,-5.445665445665455,0.09066183136899365
14:54:11.725,1.857,35.04398826979471,-53.85934819897084,21.613049388309918,3.84294068504596,-5.98290598290599,0.09066183136899365
14:54:11.741,1.874,35.41055718475073,-52.5728987993139,19.619392840960572,6.432748538011708,-6.275946275946282,0.09066183136899365
14:54:11.758,1.891,35.77712609970675,-51.20068610634648,17.716357045763488,8.855472013366764,-6.373626373626379,0.09066183136899365
14:54:11.775,1.907,36.14369501466274,-49.82847341337907,15.813321250566375,11.027568922305761,-6.568986568986574,0.09066183136899365
14:54:11.792,1.924,36.51026392961876,-48.3704974271012,14.091526959673772,13.116123642439433,-6.71550671550672,0.09066183136899365
14:54:11.808,1.941,36.95014662756597,-46.99828473413379,12.27911191662892,15.204678362573105,-6.959706959706963,0.09066183136899365
14:54:11.825,1.957,37.39002932551318,-45.54030874785592,10.376076121431808,17.376775271512116,-7.155067155067158,0.09066183136899365
14:54:11.842,1.974,37.903225806451616,-44.082332761578044,8.47304032623471,19.54887218045114,-7.350427350427353,0.09066183136899365
14:54:11.858,1.991,38.41642228739005,-42.53859348198971,6.570004531037597,21.720969089390138,-7.44810744810745,0.09066183136899365
14:54:11.875,2.008,38.85630498533726,-40.99485420240138,4.576347983688265,23.976608187134502,-7.545787545787547,0.09066183136899365
14:54:11.892,2.024,39.44281524926686,-39.451114922813034,2.4014499320344385,26.39933166248956,-7.594627594627596,0.09066183136899365
14:54:11.908,2.041,39.95601173020529,-37.82161234991423,0.3171726325328592,28.822055137844615,-7.643467643467645,0.09066183136899365
14:54:11.925,2.058,40.542521994134916,-36.19210977701543,-1.8577254191209818,31.411862990810363,-7.692307692307693,0.09066183136899365
14:54:11.942,2.074,41.12903225806451,-34.56260720411663,-4.0326234707748085,33.91812865497076,-7.741147741147742,0.09066183136899365
14:54:11.958,2.091,41.71554252199414,-32.93310463121783,-5.935659265971907,36.42439431913115,-7.741147741147742,0.09066183136899365
14:54:11.975,2.108,42.375366568914956,-31.21783876500858,-7.929315813321253,38.93065998329158,-7.741147741147742,0.09066183136899365
14:54:11.992,2.124,42.88856304985339,-29.674099485420243,-9.832351608518351,41.18629908103594,-7.789987789987791,0.09066183136899365
14:54:12.008,2.141,43.475073313782985,-28.044596912521442,-11.73538740371545,43.35839598997492,-7.838827838827839,0.09066183136899365
14:54:12.025,2.158,44.06158357771261,-26.329331046312177,-13.5478024467603,45.363408521303256,-7.936507936507937,0.09066183136899365
14:54:12.042,2.174,44.648093841642236,-24.699828473413376,-15.269596737652918,46.95071010860485,-7.985347985347985,0.09066183136899365
14:54:12.058,2.191,45.23460410557186,-22.98456260720411,-16.81014952424104,48.6215538847118,-8.083028083028083,0.09066183136899365
14:54:12.075,2.208,45.67448680351907,-21.440823327615774,-18.622564567285906,50.20885547201337,-8.131868131868131,0.09066183136899365
14:54:12.092,2.224,46.114369501466285,-19.63979416809606,-20.434979610330757,51.71261487050961,-8.18070818070818,0.09066183136899365
14:54:12.109,2.241,46.480938416422305,-17.924528301886795,-22.33801540552787,53.38345864661653,-8.229548229548229,0.09066183136899365
14:54:12.125,2.258,46.92082111436952,-16.123499142367066,-24.42229270502945,54.97076023391813,-8.376068376068375,0.09066183136899365
14:54:12.142,2.274,47.28739002932551,-14.408233276157802,-26.2347077480743,56.558061821219724,-8.424908424908423,0.09066183136899365
14:54:12.159,2.291,47.580645161290334,-12.778730703259,-28.047122791119165,57.97827903091061,-8.424908424908423,0.09066183136899365
14:54:12.175,2.308,47.87390029325513,-11.234991423670664,-29.768917082011782,59.31495405179618,-8.473748473748472,0.09066183136899365
14:54:12.192,2.325,48.24046920821115,-9.691252144082327,-31.400090620752152,60.48454469507101,-8.473748473748472,0.09066183136899365
14:54:12.209,2.341,48.46041055718476,-8.233276157804454,-32.759401903035794,61.31996658312448,-8.473748473748472,0.09066183136899365
14:54:12.225,2.358,48.680351906158364,-6.861063464837045,-33.937471681014955,61.821219715956545,-8.473748473748472,0.09066183136899365
14:54:12.242,2.375,48.82697947214075,-5.488850771869636,-34.934299954689635,62.071846282372576,-8.473748473748472,0.09066183136899365
14:54:12.259,2.392,49.046920821114384,-4.288164665523155,-35.65926597190757,62.071846282372576,-8.473748473748472,0.09066183136899365
14:54:12.276,2.408,49.19354838709677,-3.087478559176674,-36.38423198912552,61.821219715956545,-8.473748473748472,0.09066183136899365
14:54:12.292,2.425,49.26686217008799,-1.8867924528301927,-37.01857725419121,61.31996658312448,-8.473748473748472,0.09066183136899365
14:54:12.309,2.442,49.413489736070375,-0.6861063464837116,-37.74354327140915,60.902255639097746,-8.473748473748472,0.09066183136899365
14:54:12.326,2.458,49.486803519061596,0.6003430531732477,-38.559130040779344,60.401002506265655,-8.473748473748472,0.09066183136899365
14:54:12.342,2.475,49.56011730205279,1.8010291595197145,-39.46533756230177,59.81620718462824,-8.473748473748472,0.09066183136899365
14:54:12.359,2.492,49.7067448680352,3.087478559176688,-40.3715450838242,59.06432748538012,-8.473748473748472,0.09066183136899365
14:54:12.376,2.508,49.780058651026394,4.288164665523155,-41.18713185319438,58.06182121971594,-8.473748473748472,0.09066183136899365
14:54:12.392,2.525,49.85337243401759,5.403087478559172,-41.912097870412325,56.97577276524646,-8.57142857142857,0.09066183136899365
14:54:12.409,2.542,49.92668621700881,6.603773584905667,-42.54644313547803,55.55555555555557,-8.717948717948715,0.09066183136899365
14:54:12.426,2.558,50.0,7.71869639794167,-43.180788400543726,53.968253968253975,-8.91330891330891,0.09066183136899365
14:54:12.442,2.575,50.0,8.747855917667252,-43.81513366560943,52.297410192147055,-9.108669108669105,0.09066183136899365
14:54:12.459,2.592,50.07331378299119,9.862778730703269,-44.44947893067513,50.4594820384294,-9.352869352869348,0.09066183136899365
14:54:12.476,2.609,50.07331378299119,10.977701543739272,-45.26506570004531,48.78863826232248,-9.597069597069591,0.09066183136899365
14:54:12.493,2.625,50.07331378299119,12.178387650085767,-46.171273221567745,46.95071010860485,-9.841269841269835,0.09066183136899365
14:54:12.509,2.642,50.07331378299119,13.293310463121784,-47.16810149524241,45.19632414369258,-10.183150183150175,0.09066183136899365
14:54:12.526,2.659,50.07331378299119,14.408233276157816,-48.255550521069324,43.35839598997492,-10.525030525030516,0.09066183136899365
14:54:12.543,2.675,50.07331378299119,15.608919382504283,-49.34299954689624,41.43692564745197,-10.915750915750905,0.09066183136899365
14:54:12.560,2.693,50.07331378299119,16.7238421955403,-50.43044857272315,39.598997493734345,-11.208791208791212,0.09066183136899365
14:54:12.587,2.720,50.0,18.010291595197245,-51.60851835070231,37.25981620718463,-11.64835164835165,0.09066183136899365
14:54:12.602,2.735,49.85337243401759,19.382504288164654,-52.877208880833706,34.586466165413555,-12.136752136752136,0.09066183136899365
14:54:12.618,2.751,49.7067448680352,20.240137221269293,-53.6927956502039,32.664995822890546,-12.576312576312574,0.09066183136899365
14:54:12.634,2.767,49.56011730205279,21.183533447684397,-54.50838241957408,30.65998329156224,-13.015873015873012,0.09066183136899365
14:54:12.651,2.784,49.56011730205279,22.126929674099486,-55.41458994109651,28.571428571428584,-13.406593406593402,0.09066183136899365
14:54:12.668,2.800,49.486803519061596,23.07032590051459,-56.41141821477118,26.48287385129491,-13.797313797313791,0.09066183136899365
14:54:12.685,2.817,49.486803519061596,23.9279588336192,-57.22700498414137,24.477861319966593,-14.188034188034194,0.09066183136899365
14:54:12.701,2.834,49.34017595307918,24.871355060034304,-57.95197100135931,22.556390977443613,-14.432234432234438,0.09066183136899365
14:54:12.718,2.851,49.046920821114384,25.557461406518,-58.58631626642501,20.551378446115294,-14.627594627594632,0.09066183136899365
14:54:12.735,2.867,48.680351906158364,26.15780445969125,-59.130040779338465,18.546365914786975,-14.822954822954827,0.09066183136899365
14:54:12.751,2.884,48.313782991202345,26.758147512864497,-59.58314454009968,16.541353383458656,-15.018315018315022,0.09066183136899365
14:54:12.768,2.901,48.020527859237546,27.186963979416802,-59.76438604440417,14.452798663324984,-15.311355311355314,0.09066183136899365
14:54:12.785,2.917,47.65395894428153,27.530017152658658,-59.85500679655641,12.197159565580634,-15.506715506715508,0.09066183136899365
14:54:12.801,2.934,47.36070381231673,27.78730703259005,-59.85500679655641,10.192147034252315,-15.604395604395606,0.09066183136899365
14:54:12.818,2.951,46.99413489736071,27.958833619210992,-59.85500679655641,8.187134502923982,-15.702075702075703,0.09066183136899365
14:54:12.835,2.968,46.70087976539591,28.13036020583189,-59.85500679655641,6.265664160401002,-15.750915750915752,0.09066183136899365
14:54:12.852,2.984,46.33431085043989,28.216123499142384,-59.85500679655641,4.427736006683375,-15.897435897435898,0.09066183136899365
14:54:12.868,3.001,46.041055718475064,28.216123499142384,-59.85500679655641,2.7568922305764403,-16.043956043956044,0.09066183136899365
14:54:12.885,3.018,45.747800586510266,28.216123499142384,-59.85500679655641,1.1695906432748586,-16.19047619047619,0.09066183136899365
14:54:12.904,3.037,45.45454545454547,28.216123499142384,-59.85500679655641,-0.6683375104427682,-16.336996336996336,0.09066183136899365
14:54:12.921,3.054,45.23460410557186,28.044596912521428,-59.85500679655641,-2.339181286549703,-16.434676434676433,0.09066183136899365
14:54:12.939,3.072,44.941348973607035,27.873070325900514,-59.58314454009968,-4.511278195488728,-16.58119658119658,0.09066183136899365
14:54:12.955,3.087,44.86803519061584,27.7015437392796,-59.40190303579519,-6.349206349206355,-16.678876678876676,0.09066183136899365
14:54:12.971,3.104,44.648093841642236,27.615780445969136,-59.31128228364295,-8.020050125313276,-16.825396825396822,0.09066183136899365
14:54:12.988,3.121,44.35483870967744,27.358490566037744,-59.31128228364295,-9.774436090225564,-17.020757020757017,0.09066183136899365
14:54:13.005,3.138,44.1348973607038,27.186963979416802,-59.22066153149071,-11.61236424394319,-17.167277167277163,0.09066183136899365
14:54:13.022,3.154,43.9149560117302,27.101200686106353,-59.22066153149071,-13.617376775271524,-17.313797313797323,0.09066183136899365
14:54:13.038,3.171,43.69501466275659,26.92967409948541,-59.130040779338465,-15.622389306599842,-17.41147741147742,0.09066183136899365
14:54:13.055,3.188,43.475073313782985,26.67238421955402,-59.039420027186225,-17.54385964912281,-17.46031746031747,0.09066183136899365
14:54:13.072,3.204,43.18181818181819,26.500857632933105,-58.85817852288174,-19.381787802840435,-17.509157509157518,0.09066183136899365
14:54:13.088,3.221,42.96187683284458,26.243567753001713,-58.67693701857725,-21.303258145363415,-17.606837606837615,0.09066183136899365
14:54:13.105,3.238,42.66862170087978,25.900514579759857,-58.40507476212052,-23.308270676691734,-17.655677655677664,0.09066183136899365
14:54:13.122,3.254,42.44868035190618,25.47169811320755,-57.77072949705482,-25.647451963241437,-17.704517704517713,0.09066183136899365
14:54:13.138,3.271,42.15542521994135,24.871355060034304,-57.04576347983688,-28.070175438596493,-17.75335775335776,0.09066183136899365
14:54:13.155,3.288,41.86217008797655,24.356775300171535,-56.230176710466694,-30.49289891395155,-17.80219780219781,0.09066183136899365
14:54:13.172,3.304,41.642228739002945,23.756432246998287,-55.50521069324875,-33.0827067669173,-17.85103785103786,0.09066183136899365
14:54:13.188,3.321,41.34897360703812,23.15608919382504,-54.599003171726324,-35.672514619883046,-17.85103785103786,0.09066183136899365
14:54:13.205,3.338,41.05571847507332,22.555746140651806,-53.6927956502039,-38.095238095238095,-17.85103785103786,0.09066183136899365
14:54:13.222,3.354,40.76246334310852,21.869639794168094,-52.786588128681466,-40.51796157059315,-17.85103785103786,0.09066183136899365
14:54:13.238,3.371,40.542521994134916,21.183533447684397,-52.06162211146352,-42.69005847953217,-17.85103785103786,0.09066183136899365
14:54:13.255,3.388,40.24926686217009,20.58319039451115,-51.427276846397824,-44.86215538847118,-17.85103785103786,0.09066183136899365
14:54:13.272,3.405,40.02932551319648,19.897084048027438,-50.70231082917988,-46.950710108604845,-17.85103785103786,0.09066183136899365
14:54:13.289,3.421,39.736070381231684,19.21097770154374,-49.97734481196194,-49.122807017543856,-17.75335775335776,0.09066183136899365
14:54:13.305,3.438,39.51612903225808,18.43910806174958,-49.34299954689624,-51.12781954887218,-17.704517704517713,0.09066183136899365
14:54:13.322,3.455,39.29618768328447,17.667238421955417,-48.52741277752606,-53.216374269005854,-17.655677655677664,0.09066183136899365
14:54:13.339,3.471,39.14956011730206,16.809605488850778,-47.802446760308115,-55.22138680033417,-17.655677655677664,0.09066183136899365
14:54:13.355,3.488,38.92961876832845,16.037735849056617,-47.16810149524241,-57.393483709273184,-17.655677655677664,0.09066183136899365
14:54:13.372,3.505,38.78299120234604,15.265866209262441,-46.352514725872226,-59.64912280701755,-17.655677655677664,0.09066183136899365
14:54:13.389,3.521,38.636363636363654,14.408233276157816,-45.62754870865429,-61.82121971595656,-17.606837606837615,0.09066183136899365
14:54:13.406,3.538,38.636363636363654,13.550600343053176,-44.90258269143634,-63.99331662489558,-17.557997557997567,0.09066183136899365
14:54:13.422,3.555,38.56304985337243,12.607204116638073,-44.1776166742184,-65.99832915622389,-17.557997557997567,0.09066183136899365
14:54:13.439,3.572,38.48973607038124,11.749571183533462,-43.543271409152695,-68.08688387635756,-17.509157509157518,0.09066183136899365
14:54:13.456,3.588,38.48973607038124,10.806174957118358,-42.908926144087,-70.17543859649123,-17.41147741147742,0.09066183136899365
14:54:13.472,3.605,38.41642228739005,9.948542024013719,-42.45582238332578,-72.0969089390142,-17.362637362637372,0.09066183136899365
14:54:13.489,3.622,38.41642228739005,9.00514579759863,-42.00271862256457,-73.85129490392649,-17.313797313797323,0.09066183136899365
14:54:13.506,3.638,38.41642228739005,8.061749571183526,-41.54961486180335,-75.35505430242273,-17.216117216117226,0.09066183136899365
14:54:13.522,3.655,38.41642228739005,7.118353344768451,-41.18713185319438,-76.69172932330827,-17.118437118437114,0.09066183136899365
14:54:13.539,3.672,38.41642228739005,6.00343053173242,-40.55278658812868,-78.11194653299917,-17.020757020757017,0.09066183136899365
14:54:13.556,3.688,38.41642228739005,4.9742710120068665,-39.91844132306298,-79.44862155388472,-16.92307692307692,0.09066183136899365
14:54:13.573,3.705,38.41642228739005,3.773584905660371,-39.1028545536928,-80.61821219715956,-16.87423687423687,0.09066183136899365
14:54:13.589,3.722,38.41642228739005,2.4871355060034404,-38.10602628001812,-81.70426065162907,-16.776556776556774,0.09066183136899365
14:54:13.606,3.739,38.41642228739005,1.0291595197255532,-37.01857725419121,-82.62322472848788,-16.678876678876676,0.09066183136899365
14:54:13.623,3.755,38.34310850439883,-0.42881646655231975,-35.749886724059806,-83.62573099415205,-16.483516483516482,0.09066183136899365
14:54:13.639,3.772,38.269794721407635,-1.9725557461406424,-34.29995468962392,-84.54469507101086,-16.336996336996336,0.09066183136899365
14:54:13.656,3.789,38.04985337243403,-3.6878216123499215,-32.487539646579066,-85.46365914786968,-16.14163614163614,0.09066183136899365
14:54:13.673,3.805,37.903225806451616,-5.5746140651801,-30.49388309922972,-86.38262322472849,-15.946275946275946,0.09066183136899365
14:54:13.689,3.822,37.60997067448682,-7.6329331046312205,-28.228364295423646,-87.21804511278195,-15.750915750915752,0.09066183136899365
14:54:13.706,3.839,37.31671554252199,-9.777015437392805,-25.872224739465338,-88.13700918964076,-15.653235653235654,0.09066183136899365
14:54:13.724,3.857,36.80351906158356,-12.00686106346484,-23.062981422745807,-89.05597326649958,-15.555555555555557,0.09066183136899365
14:54:13.740,3.873,36.21700879765396,-14.322469982847338,-20.253738106026276,-89.89139515455305,-15.45787545787546,0.09066183136899365
14:54:13.757,3.890,35.55718475073314,-16.63807890222985,-17.535115541458993,-90.64327485380117,-15.360195360195362,0.09066183136899365
14:54:13.774,3.906,34.897360703812296,-19.039451114922812,-14.99773448119619,-91.3951545530493,-15.213675213675216,0.09066183136899365
14:54:13.790,3.923,34.164222873900286,-21.355060034305325,-12.279111916628906,-91.97994987468672,-15.11599511599512,0.09066183136899365
14:54:13.807,3.940,33.50439882697947,-23.58490566037736,-9.65111010421387,-92.39766081871345,-15.018315018315022,0.09066183136899365
14:54:13.824,3.956,32.77126099706743,-25.986277873070335,-7.113729043951068,-92.4812030075188,-15.018315018315022,0.09066183136899365
14:54:13.840,3.973,31.891495601173006,-28.301886792452834,-4.6669687358404985,-92.4812030075188,-15.018315018315022,0.09066183136899365
14:54:13.857,3.990,30.865102639296197,-30.617495711835332,-2.310829179882191,-92.23057644110276,-15.018315018315022,0.09066183136899365
14:54:13.874,4.006,29.985337243401744,-32.84734133790738,-0.045310376076130865,-91.81286549707602,-15.018315018315022,0.09066183136899365
14:54:13.891,4.023,29.032258064516128,-34.90566037735849,2.2202084277299434,-91.31161236424394,-15.018315018315022,0.09066183136899365
14:54:13.907,4.040,28.079178885630483,-37.04974271012007,4.39510647938377,-90.72681704260651,-15.018315018315022,0.09066183136899365
14:54:13.924,4.056,27.199413489736074,-39.02229845626072,6.38876302673313,-90.1420217209691,-15.018315018315022,0.09066183136899365
14:54:13.941,4.073,26.319648093841636,-40.90909090909091,8.110557317625734,-89.55722639933167,-15.11599511599512,0.09066183136899365
14:54:13.957,4.090,25.659824046920818,-42.62435677530018,9.560489352061623,-89.05597326649958,-15.262515262515265,0.09066183136899365
14:54:13.974,4.107,25.219941348973606,-44.25385934819898,11.010421386497498,-88.5547201336675,-15.360195360195362,0.09066183136899365
14:54:13.991,4.123,24.780058651026394,-45.711835334476845,12.27911191662892,-88.13700918964076,-15.604395604395606,0.09066183136899365
14:54:14.007,4.140,24.560117302052788,-47.16981132075472,13.5478024467603,-87.71929824561404,-15.946275946275946,0.09066183136899365
14:54:14.024,4.157,24.413489736070375,-48.54202401372213,14.635251472587214,-87.3015873015873,-16.288156288156287,0.09066183136899365
14:54:14.041,4.174,24.266862170087975,-49.82847341337907,15.722700498414127,-86.96741854636592,-16.678876678876676,0.09066183136899365
14:54:14.057,4.190,24.04692082111437,-51.11492281303602,16.900770276393303,-86.71679197994987,-17.118437118437114,0.09066183136899365
14:54:14.074,4.207,23.973607038123163,-52.22984562607204,18.169460806524683,-86.63324979114452,-17.557997557997567,0.09066183136899365
14:54:14.091,4.223,23.90029325513197,-53.516295025728986,19.52877208880834,-86.54970760233918,-18.095238095238102,0.09066183136899365
14:54:14.108,4.240,23.90029325513197,-54.8885077186964,21.06932487539646,-86.54970760233918,-18.58363858363859,0.09066183136899365
14:54:14.124,4.257,23.90029325513197,-56.260720411663804,22.609877661984584,-86.54970760233918,-19.169719169719173,0.09066183136899365
14:54:14.141,4.274,23.826979472140764,-57.718696397941684,24.512913457181696,-86.71679197994987,-19.560439560439562,0.09066183136899365
14:54:14.158,4.290,23.53372434017595,-59.090909090909086,26.506570004531028,-86.88387635756057,-19.804639804639805,0.09066183136899365
14:54:14.174,4.307,23.020527859237532,-60.548885077186966,28.59084730403262,-86.96741854636592,-19.804639804639805,0.09066183136899365
14:54:14.191,4.324,22.214076246334315,-62.00686106346483,30.85636610783868,-87.05096073517126,-19.755799755799757,0.09066183136899365
14:54:14.208,4.340,21.260997067448685,-63.55060034305317,33.12188491164477,-87.05096073517126,-19.560439560439562,0.09066183136899365
14:54:14.224,4.357,20.52785923753666,-65.09433962264151,35.20616221114636,-87.05096073517126,-19.560439560439562,0.09066183136899365
14:54:14.241,4.374,19.868035190615842,-66.46655231560891,37.47168101495242,-87.05096073517126,-19.511599511599513,0.09066183136899365
14:54:14.258,4.390,19.42815249266863,-67.9245283018868,39.55595831445402,-87.05096073517126,-19.462759462759465,0.09066183136899365
14:54:14.274,4.407,19.134897360703818,-69.21097770154374,41.54961486180335,-87.05096073517126,-19.462759462759465,0.09066183136899365
14:54:14.291,4.424,18.91495601173021,-70.41166380789022,43.45265065700045,-87.05096073517126,-19.462759462759465,0.09066183136899365
14:54:14.308,4.441,18.695014662756606,-71.44082332761579,44.993203443588584,-87.05096073517126,-19.462759462759465,0.09066183136899365
14:54:14.325,4.457,18.401759530791793,-72.38421955403088,46.53375623017669,-87.05096073517126,-19.31623931623932,0.09066183136899365
14:54:14.341,4.474,18.10850439882698,-73.15608919382504,47.983688264612596,-87.13450292397661,-19.169719169719173,0.09066183136899365
14:54:14.358,4.491,17.815249266862182,-73.84219554030875,49.34299954689624,-87.21804511278195,-19.072039072039075,0.09066183136899365
14:54:14.375,4.507,17.741935483870975,-74.52830188679245,50.521069324875384,-87.21804511278195,-19.072039072039075,0.09066183136899365
14:54:14.391,4.524,17.741935483870975,-75.1286449399657,51.69913910285456,-87.21804511278195,-19.072039072039075,0.09066183136899365
14:54:14.408,4.541,17.741935483870975,-75.557461406518,52.78658812868147,-87.38512949039264,-19.072039072039075,0.09066183136899365
14:54:14.425,4.557,17.595307917888576,-75.90051457975986,53.69279565020392,-87.71929824561404,-19.023199023199027,0.09066183136899365
14:54:14.442,4.574,17.595307917888576,-76.15780445969125,54.68962392387857,-88.13700918964076,-19.023199023199027,0.09066183136899365
14:54:14.458,4.591,17.595307917888576,-76.32933104631218,55.505210693248756,-88.63826232247285,-19.023199023199027,0.09066183136899365
14:54:14.475,4.608,17.52199413489737,-76.58662092624357,56.411418214771174,-89.13951545530493,-19.023199023199027,0.09066183136899365
14:54:14.492,4.624,17.52199413489737,-76.92967409948542,57.22700498414136,-89.55722639933167,-19.023199023199027,0.09066183136899365
14:54:14.508,4.641,17.52199413489737,-77.27272727272728,58.13321250566378,-89.97493734335839,-19.023199023199027,0.09066183136899365
14:54:14.525,4.658,17.52199413489737,-77.61578044596912,59.130040779338486,-90.30910609857978,-19.023199023199027,0.09066183136899365
14:54:14.542,4.674,17.52199413489737,-78.04459691252144,60.036248300860905,-90.55973266499582,-19.072039072039075,0.09066183136899365
14:54:14.558,4.691,17.52199413489737,-78.64493996569468,61.12369732668782,-90.64327485380117,-19.21855921855922,0.09066183136899365
14:54:14.575,4.708,17.52199413489737,-79.24528301886792,62.029904848210236,-90.64327485380117,-19.26739926739927,0.09066183136899365
14:54:14.592,4.724,17.375366568914956,-79.7598627787307,63.11735387403715,-90.64327485380117,-19.26739926739927,0.09066183136899365
14:54:14.609,4.741,17.15542521994135,-80.27444253859349,64.11418214771183,-90.64327485380117,-19.26739926739927,0.09066183136899365
14:54:14.625,4.758,16.788856304985345,-80.78902229845626,65.11101042138648,-90.64327485380117,-19.26739926739927,0.09066183136899365
14:54:14.642,4.775,16.42228739002934,-81.30360205831904,66.1984594472134,-90.64327485380117,-19.26739926739927,0.09066183136899365
14:54:14.659,4.791,16.129032258064527,-81.73241852487135,67.19528772088808,-90.64327485380117,-19.26739926739927,0.09066183136899365
14:54:14.675,4.808,15.835777126099714,-82.24699828473413,68.37335749886725,-90.64327485380117,-19.26739926739927,0.09066183136899365
14:54:14.692,4.825,15.615835777126108,-82.67581475128645,69.5514272768464,-90.64327485380117,-19.26739926739927,0.09066183136899365
14:54:14.709,4.841,15.395894428152502,-83.19039451114924,70.82011780697778,-90.72681704260651,-19.26739926739927,0.09066183136899365
14:54:14.725,4.858,15.249266862170103,-83.704974271012,72.08880833710921,-90.81035923141187,-19.26739926739927,0.09066183136899365
14:54:14.742,4.875,15.175953079178896,-83.9622641509434,73.44811961939283,-91.2280701754386,-19.26739926739927,0.09066183136899365
14:54:14.759,4.891,15.175953079178896,-84.04802744425386,74.53556864521974,-91.97994987468672,-19.31623931623932,0.09066183136899365
14:54:14.775,4.908,15.10263929618769,-84.04802744425386,75.89487992750338,-92.89891395154552,-19.365079365079367,0.09066183136899365
14:54:14.792,4.925,15.029325513196483,-84.04802744425386,77.16357045763479,-93.81787802840435,-19.365079365079367,0.09066183136899365
14:54:14.809,4.941,15.029325513196483,-84.04802744425386,78.6135024920707,-94.73684210526316,-19.462759462759465,0.09066183136899365
14:54:14.825,4.958,15.029325513196483,-84.04802744425386,79.97281377435434,-95.57226399331662,-19.60927960927961,0.09066183136899365
14:54:14.842,4.975,15.029325513196483,-84.04802744425386,81.24150430448574,-96.4076858813701,-19.65811965811966,0.09066183136899365
14:54:14.859,4.991,15.029325513196483,-84.04802744425386,82.60081558676939,-96.99248120300751,-19.755799755799757,0.09066183136899365
14:54:14.876,5.008,15.029325513196483,-84.13379073756433,83.960126869053,-97.3266499582289,-19.902319902319903,0.09066183136899365
14:54:14.892,5.025,15.029325513196483,-84.30531732418525,85.31943815133664,-97.57727652464494,-20.146520146520146,0.09066183136899365
14:54:14.909,5.042,15.029325513196483,-84.39108061749572,86.58812868146805,-97.91144527986633,-20.293040293040292,0.09066183136899365
14:54:14.926,5.058,15.029325513196483,-84.39108061749572,87.76619845944722,-98.16207184628237,-20.488400488400487,0.09066183136899365
14:54:14.942,5.075,15.029325513196483,-84.47684391080617,88.94426823742637,-98.41269841269842,-20.537240537240535,0.09066183136899365
14:54:14.959,5.092,15.029325513196483,-84.6483704974271,90.21295876755778,-98.41269841269842,-20.73260073260073,0.09066183136899365
14:54:14.976,5.108,14.95601173020529,-84.99142367066895,91.3004077933847,-98.41269841269842,-20.78144078144078,0.09066183136899365
14:54:14.992,5.125,14.882697947214083,-85.3344768439108,92.47847757136384,-98.41269841269842,-20.927960927960925,0.09066183136899365
14:54:15.009,5.142,14.882697947214083,-85.84905660377359,93.56592659719075,-98.41269841269842,-21.07448107448107,0.09066183136899365
14:54:15.026,5.158,14.882697947214083,-86.53516295025729,94.56275487086543,-98.24561403508773,-21.12332112332112,0.09066183136899365
14:54:15.042,5.175,14.882697947214083,-87.56432246998284,95.74082464884458,-97.74436090225564,-21.12332112332112,0.09066183136899365
14:54:15.059,5.192,14.882697947214083,-89.10806174957118,96.91889442682373,-96.82539682539682,-21.172161172161168,0.09066183136899365
14:54:15.076,5.209,14.882697947214083,-90.9090909090909,98.0969642048029,-95.82289055973267,-21.269841269841265,0.09066183136899365
14:54:15.093,5.225,15.029325513196483,-92.7958833619211,99.36565473493431,-94.8203842940685,-21.46520146520146,0.09066183136899365
14:54:15.109,5.242,15.615835777126108,-94.16809605488851,99.90937924784774,-94.48621553884712,-22.051282051282044,0.09066183136899365
14:54:15.126,5.259,16.275659824046926,-94.08233276157804,99.90937924784774,-94.40267335004177,-22.490842490842482,0.09066183136899365
14:54:15.143,5.275,16.42228739002934,-93.99656946826758,99.8187584956955,-94.73684210526316,-22.53968253968253,0.09066183136899365
14:54:15.159,5.292,16.129032258064527,-93.73927958833619,99.8187584956955,-94.9874686716792,-22.344322344322336,0.09066183136899365
14:54:15.176,5.309,15.615835777126108,-93.73927958833619,99.72813774354327,-95.07101086048455,-22.24664224664224,0.09066183136899365
14:54:15.193,5.325,15.395894428152502,-93.73927958833619,99.72813774354327,-95.07101086048455,-22.19780219780219,0.09066183136899365
14:54:15.210,5.342,15.322580645161295,-93.65351629502572,99.8187584956955,-94.90392648287386,-22.19780219780219,0.09066183136899365
14:54:15.226,5.359,15.029325513196483,-93.73927958833619,99.8187584956955,-94.40267335004177,-22.14896214896214,0.09066183136899365
14:54:15.243,5.376,14.95601173020529,-94.25385934819897,99.8187584956955,-93.65079365079364,-22.100122100122093,0.09066183136899365
14:54:15.260,5.392,14.95601173020529,-94.51114922813036,99.8187584956955,-92.98245614035088,-22.100122100122093,0.09066183136899365
14:54:15.276,5.409,14.95601173020529,-94.76843910806176,99.8187584956955,-92.81537176274018,-22.051282051282044,0.09066183136899365
14:54:15.293,5.426,14.95601173020529,-94.93996569468267,99.8187584956955,-92.56474519632414,-22.002442002441995,0.09066183136899365
14:54:15.310,5.442,14.95601173020529,-95.1114922813036,99.8187584956955,-92.31411862990811,-22.002442002441995,0.09066183136899365
14:54:15.326,5.459,14.95601173020529,-95.45454545454545,99.8187584956955,-92.06349206349206,-21.953601953601947,0.09066183136899365
14:54:15.343,5.476,14.809384164222877,-95.79759862778731,99.8187584956955,-91.89640768588137,-21.85592185592185,0.09066183136899365
14:54:15.360,5.492,14.809384164222877,-96.0548885077187,99.8187584956955,-91.81286549707602,-21.8070818070818,0.09066183136899365
14:54:15.376,5.509,14.736070381231684,-96.0548885077187,99.8187584956955,-92.06349206349206,-21.8070818070818,0.09066183136899365
14:54:15.393,5.526,14.662756598240478,-96.0548885077187,99.8187584956955,-92.39766081871345,-21.758241758241752,0.09066183136899365
14:54:15.410,5.542,14.58944281524927,-96.0548885077187,99.8187584956955,-92.73182957393483,-21.709401709401703,0.09066183136899365
14:54:15.427,5.559,14.442815249266872,-96.0548885077187,99.8187584956955,-93.14954051796157,-21.562881562881557,0.09066183136899365
14:54:15.443,5.576,14.296187683284472,-96.0548885077187,99.8187584956955,-93.5672514619883,-21.46520146520146,0.09066183136899365
14:54:15.460,5.593,14.149560117302059,-96.0548885077187,99.8187584956955,-93.98496240601504,-21.269841269841265,0.09066183136899365
14:54:15.477,5.609,14.00293255131966,-96.0548885077187,99.8187584956955,-94.40267335004177,-21.12332112332112,0.09066183136899365
14:54:15.493,5.626,13.85630498533726,-96.0548885077187,99.8187584956955,-94.90392648287386,-20.927960927960925,0.09066183136899365
14:54:15.510,5.643,13.782991202346054,-96.0548885077187,99.8187584956955,-95.32163742690058,-20.73260073260073,0.09066183136899365
14:54:15.527,5.659,13.563049853372448,-96.0548885077187,99.8187584956955,-95.82289055973267,-20.488400488400487,0.09066183136899365
14:54:15.543,5.676,13.416422287390034,-96.0548885077187,99.8187584956955,-96.15705931495405,-20.244200244200243,0.09066183136899365
14:54:15.560,5.693,13.269794721407635,-96.0548885077187,99.8187584956955,-96.49122807017544,-19.902319902319903,0.09066183136899365
14:54:15.577,5.709,13.049853372434029,-96.0548885077187,99.8187584956955,-96.82539682539682,-19.462759462759465,0.09066183136899365
14:54:15.593,5.726,12.756598240469216,-96.0548885077187,99.8187584956955,-97.07602339181287,-18.974358974358978,0.09066183136899365
14:54:15.610,5.743,12.53665689149561,-96.0548885077187,99.8187584956955,-97.3266499582289,-18.48595848595849,0.09066183136899365
14:54:15.627,5.759,12.243401759530784,-96.0548885077187,99.8187584956955,-97.41019214703425,-17.997557997558005,0.09066183136899365
14:54:15.643,5.776,11.876832844574764,-96.0548885077187,99.8187584956955,-97.57727652464494,-17.557997557997567,0.09066183136899365
14:54:15.660,5.793,11.510263929618759,-96.0548885077187,99.8187584956955,-97.57727652464494,-17.069597069597066,0.09066183136899365
14:54:15.677,5.809,11.070381231671547,-96.0548885077187,99.8187584956955,-97.57727652464494,-16.58119658119658,0.09066183136899365
14:54:15.693,5.826,10.557184750733128,-96.0548885077187,99.8187584956955,-97.57727652464494,-15.897435897435898,0.09066183136899365
14:54:15.710,5.843,9.824046920821104,-96.0548885077187,99.8187584956955,-97.57727652464494,-15.164835164835168,0.09066183136899365
14:54:15.727,5.860,9.017595307917887,-95.96912521440824,99.8187584956955,-97.57727652464494,-14.578754578754584,0.09066183136899365
14:54:15.744,5.876,8.137829912023449,-95.79759862778731,99.8187584956955,-97.57727652464494,-13.943833943833937,0.09066183136899365
14:54:15.760,5.893,7.038123167155419,-95.54030874785592,99.8187584956955,-97.57727652464494,-13.308913308913304,0.09066183136899365
14:54:15.777,5.910,5.8651026392961825,-95.1114922813036,99.8187584956955,-97.57727652464494,-12.527472527472526,0.09066183136899365
14:54:15.794,5.926,4.765395894428153,-94.76843910806176,99.8187584956955,-97.41019214703425,-11.746031746031747,0.09066183136899365
14:54:15.811,5.943,3.7390029325513154,-94.4253859348199,99.8187584956955,-96.99248120300751,-11.208791208791212,0.09066183136899365
14:54:15.827,5.960,2.8592375366568916,-93.82504288164665,99.8187584956955,-96.49122807017544,-10.72039072039071,0.09066183136899365
14:54:15.844,5.977,1.906158357771261,-93.13893653516296,99.8187584956955,-96.15705931495405,-10.183150183150175,0.09066183136899365
14:54:15.861,5.993,0.8064516129032313,-92.28130360205832,99.8187584956955,-95.82289055973267,-9.499389499389494,0.09066183136899365
14:54:15.877,6.010,-0.4398826979472119,-91.50943396226415,99.8187584956955,-95.23809523809524,-8.815628815628813,0.09066183136899365
14:54:15.894,6.027,-1.8328445747800544,-90.9090909090909,99.8187584956955,-94.48621553884712,-7.985347985347985,0.09066183136899365
14:54:15.911,6.043,-3.3724340175953103,-90.39451114922814,99.8187584956955,-93.48370927318295,-7.057387057387061,0.09066183136899365
14:54:15.927,6.060,-4.985337243401759,-90.05145797598628,99.8187584956955,-92.23057644110276,-6.031746031746039,0.09066183136899365
14:54:15.944,6.077,-6.7448680351906205,-89.79416809605489,99.8187584956955,-90.81035923141187,0.0,0.09066183136899365
14:54:15.961,6.093,-8.431085043988276,-89.62264150943396,99.8187584956955,-89.39014202172098,0.0,0.09066183136899365
14:54:15.977,6.110,-9.970674486803517,-89.45111492281303,99.90937924784774,-87.63575605680869,0.0,0.09066183136899365
14:54:15.994,6.127,-11.36363636363636,-89.45111492281303,99.90937924784774,-85.79782790309106,0.0,0.09066183136899365
14:54:16.011,6.143,-12.68328445747801,-89.5368782161235,99.90937924784774,-83.79281537176274,0.0,0.09066183136899365
14:54:16.027,6.160,-13.709677419354833,-89.70840480274443,99.90937924784774,-81.87134502923976,0.0,0.09066183136899365
14:54:16.044,6.177,-14.73607038123167,-89.96569468267582,99.90937924784774,-80.03341687552214,0.0,0.09066183136899365
14:54:16.061,6.194,-15.6891495601173,-90.22298456260721,99.90937924784774,-78.27903091060986,0.0,0.09066183136899365
14:54:16.078,6.210,-16.78885630498533,-90.39451114922814,99.90937924784774,-76.60818713450293,0.0,0.09066183136899365
14:54:16.094,6.227,-18.10850439882698,-90.56603773584905,99.90937924784774,-75.02088554720135,0.0,0.09066183136899365
14:54:16.111,6.244,-19.72140762463343,-90.82332761578044,99.90937924784774,-73.5171261487051,5.201465201465211,0.09066183136899365
14:54:16.128,6.260,-21.33431085043989,-90.9090909090909,99.90937924784774,-72.26399331662489,6.617826617826623,0.09066183136899365
14:54:16.144,6.277,-22.873900293255133,-90.9090909090909,99.90937924784774,-71.34502923976609,7.985347985347985,0.09066183136899365
14:54:16.161,6.294,-24.413489736070375,-90.56603773584905,99.90937924784774,-70.76023391812865,9.25518925518925,0.09066183136899365
14:54:16.178,6.310,-26.026392961876837,-90.30874785591767,99.90937924784774,-70.34252297410193,10.378510378510384,0.09066183136899365
14:54:16.194,6.327,-27.785923753665685,-90.13722126929675,99.90937924784774,-69.84126984126985,11.501831501831504,0.09066183136899365
14:54:16.211,6.344,-29.765395894428153,-90.05145797598628,99.90937924784774,-69.25647451963242,12.771672771672769,0.09066183136899365
14:54:16.228,6.360,-31.818181818181827,-90.05145797598628,99.90937924784774,-68.42105263157895,14.285714285714278,0.09066183136899365
14:54:16.244,6.377,-33.944281524926694,-90.05145797598628,99.90937924784774,-67.50208855472013,15.750915750915766,0.09066183136899365
14:54:16.261,6.394,-35.70381231671554,-90.22298456260721,99.90937924784774,-66.33249791144527,17.06959706959708,0.09066183136899365
14:54:16.278,6.410,-37.316715542522,-90.48027444253859,99.90937924784774,-64.99582289055974,17.997557997558005,0.09066183136899365
14:54:16.295,6.427,-38.70967741935484,-91.08061749571183,99.90937924784774,-63.3249791144528,18.827838827838832,0.09066183136899365
14:54:16.311,6.444,-40.10263929618768,-91.85248713550601,99.90937924784774,-61.152882205513784,19.706959706959708,0.09066183136899365
14:54:16.328,6.461,-41.495601173020525,-92.71012006861064,99.90937924784774,-58.64661654135339,20.537240537240535,0.09066183136899365
14:54:16.345,6.477,-42.59530791788856,-93.73927958833619,99.90937924784774,-55.88972431077694,21.269841269841265,0.09066183136899365
14:54:16.361,6.494,-43.475073313782985,-94.59691252144083,99.90937924784774,-53.1328320802005,21.660561660561655,0.09066183136899365
14:54:16.379,6.512,-44.281524926686224,-95.54030874785592,99.90937924784774,-50.45948203842941,22.051282051282058,0.09066183136899365
14:54:16.396,6.528,-45.01466275659824,-96.22641509433963,99.90937924784774,-47.953216374269005,22.490842490842496,0.09066183136899365
14:54:16.412,6.545,-45.674486803519066,-96.56946826758147,99.90937924784774,-45.781119465329986,22.881562881562886,0.09066183136899365
14:54:16.429,6.561,-45.747800586510266,-96.7409948542024,99.90937924784774,-43.609022556390975,22.979242979242983,0.09066183136899365
14:54:16.445,6.578,-45.52785923753666,-97.08404802744425,99.90937924784774,-41.269841269841265,22.979242979242983,0.09066183136899365
14:54:16.462,6.595,-45.381231671554254,-97.51286449399657,99.90937924784774,-38.59649122807017,22.979242979242983,0.09066183136899365
14:54:16.479,6.611,-45.234604105571854,-97.85591766723842,99.90937924784774,-35.83959899749374,22.979242979242983,0.09066183136899365
14:54:16.495,6.628,-45.234604105571854,-98.02744425385934,99.90937924784774,-33.41687552213868,22.979242979242983,0.09066183136899365
14:54:16.512,6.645,-45.08797653958945,-97.94168096054888,99.90937924784774,-31.411862990810363,22.930402930402934,0.09066183136899365
14:54:16.529,6.661,-44.794721407624635,-97.6843910806175,99.90937924784774,-29.65747702589809,22.73504273504274,0.09066183136899365
14:54:16.546,6.678,-44.42815249266863,-97.42710120068611,99.90937924784774,-27.73600668337511,22.588522588522594,0.09066183136899365
14:54:16.562,6.695,-43.91495601173021,-97.16981132075472,99.90937924784774,-25.81453634085213,22.197802197802204,0.09066183136899365
14:54:16.579,6.712,-43.32844574780058,-96.91252144082333,99.90937924784774,-23.725981620718457,21.562881562881557,0.09066183136899365
14:54:16.596,6.728,-42.74193548387096,-96.91252144082333,99.90937924784774,-21.553884711779446,20.830280830280827,0.09066183136899365
14:54:16.613,6.745,-41.93548387096774,-96.82675814751286,99.90937924784774,-19.298245614035096,19.902319902319903,0.09066183136899365
14:54:16.629,6.762,-41.12903225806451,-96.82675814751286,99.90937924784774,-16.95906432748538,18.87667887667888,0.09066183136899365
14:54:16.646,6.778,-40.32258064516129,-96.65523156089193,99.90937924784774,-14.703425229741015,17.948717948717956,0.09066183136899365
14:54:16.662,6.795,-39.36950146627566,-96.39794168096054,99.90937924784774,-12.447786131996665,16.825396825396837,0.09066183136899365
14:54:16.679,6.812,-38.26979472140762,-96.0548885077187,99.8187584956955,-10.359231411862993,15.604395604395592,0.09066183136899365
14:54:16.696,6.828,-37.17008797653959,-95.54030874785592,99.8187584956955,-8.270676691729335,14.285714285714278,0.09066183136899365
14:54:16.713,6.845,-35.92375366568915,-94.93996569468267,99.8187584956955,-6.349206349206355,13.015873015873012,0.09066183136899365
14:54:16.729,6.862,-34.67741935483872,-94.25385934819897,99.8187584956955,-4.511278195488728,11.843711843711844,0.09066183136899365
14:54:16.746,6.879,-33.28445747800586,-93.31046312178388,99.8187584956955,-3.0910609857978386,10.52503052503053,0.09066183136899365
14:54:16.763,6.895,-31.89149560117302,-92.10977701543739,99.8187584956955,-2.088554720133672,9.108669108669105,0.09066183136899365
14:54:16.779,6.912,-30.57184750733137,-90.99485420240137,99.8187584956955,-1.3366750208855507,7.838827838827839,0.09066183136899365
14:54:16.796,6.929,-29.178885630498527,-89.70840480274443,99.8187584956955,-0.8354218880534603,6.71550671550672,0.09066183136899365
14:54:16.813,6.945,-27.85923753665689,-88.25042881646655,99.8187584956955,-0.5847953216374293,5.592185592185601,0.09066183136899365
14:54:16.830,6.962,-26.46627565982405,-86.62092624356775,99.8187584956955,-0.5847953216374293,0.0,0.09066183136899365
14:54:16.846,6.979,-25.073313782991207,-84.99142367066895,99.8187584956955,-0.5847953216374293,0.0,0.09066183136899365
14:54:16.863,6.995,-23.53372434017595,-83.44768439108061,99.8187584956955,-0.6683375104427682,0.0,0.09066183136899365
14:54:16.880,7.012,-22.0674486803519,-81.98970840480274,99.8187584956955,-0.6683375104427682,0.0,0.09066183136899365
14:54:16.896,7.029,-20.747800586510266,-80.4459691252144,99.8187584956955,-0.7518796992481214,0.0,0.09066183136899365
14:54:16.913,7.046,-19.354838709677423,-79.073756432247,99.8187584956955,-0.7518796992481214,0.0,0.09066183136899365
14:54:16.930,7.062,-18.035190615835774,-77.70154373927959,99.8187584956955,-0.6683375104427682,0.0,0.09066183136899365
14:54:16.946,7.079,-16.78885630498533,-76.5008576329331,99.63751699139104,-0.3341687552213841,0.0,0.09066183136899365
14:54:16.963,7.096,-15.542521994134901,-75.1286449399657,99.45627548708654,0.08354218880535313,0.0,0.09066183136899365
14:54:16.980,7.112,-14.369501466275665,-73.84219554030875,99.27503398278205,0.41771094402673725,0.0,0.09066183136899365
14:54:16.997,7.129,-13.26979472140762,-72.64150943396227,98.91255097417309,1.0025062656641666,0.0,0.09066183136899365
14:54:17.013,7.146,-12.170087976539591,-71.35506003430532,98.45944721341186,1.754385964912288,0.0,0.09066183136899365
14:54:17.030,7.162,-11.070381231671561,-70.06861063464837,97.64386044404168,3.0910609857978386,0.0,0.09066183136899365
14:54:17.047,7.179,-10.043988269794724,-68.86792452830188,96.46579066606253,4.928989139515451,0.0,0.09066183136899365
14:54:17.063,7.196,-9.017595307917887,-67.49571183533448,95.10647938377886,6.683375104427739,0.0,0.09066183136899365
14:54:17.080,7.213,-8.137829912023463,-66.12349914236707,93.65654734934299,8.437761069340027,0.0,0.09066183136899365
14:54:17.097,7.229,-7.184750733137832,-64.83704974271012,92.02537381060262,10.359231411862993,-5.25030525030526,0.09066183136899365
14:54:17.113,7.246,-6.304985337243409,-63.55060034305317,90.39420027186225,12.364243943191312,-5.738705738705747,0.09066183136899365
14:54:17.130,7.263,-5.498533724340177,-62.264150943396224,88.49116447666518,14.285714285714278,-6.324786324786331,0.09066183136899365
14:54:17.147,7.279,-4.838709677419345,-60.72041166380789,86.40688717716355,15.873015873015888,-6.910866910866915,0.09066183136899365
14:54:17.163,7.296,-4.178885630498527,-59.17667238421955,84.23198912550973,17.543859649122822,-7.44810744810745,0.09066183136899365
14:54:17.180,7.313,-3.5190615835777095,-57.718696397941684,81.78522881739917,19.381787802840435,-7.985347985347985,0.09066183136899365
14:54:17.197,7.329,-3.005865102639291,-56.260720411663804,79.15722700498412,21.386800334168754,-8.473748473748472,0.09066183136899365
14:54:17.214,7.346,-2.4926686217008722,-54.97427101200686,76.43860444041687,23.55889724310778,-8.962148962148959,0.09066183136899365
14:54:17.230,7.363,-2.0527859237536603,-53.516295025728986,73.62936112369732,25.480367585630745,-9.450549450549445,0.09066183136899365
14:54:17.247,7.380,-1.6129032258064484,-52.22984562607204,70.72949705482557,27.40183792815371,-9.890109890109883,0.09066183136899365
14:54:17.264,7.396,-1.2463343108504432,-50.943396226415096,67.73901223380153,29.156223893066,-10.329670329670321,0.09066183136899365
14:54:17.280,7.413,-0.8064516129032313,-49.74271012006861,64.65790666062529,31.07769423558898,-10.72039072039071,0.09066183136899365
14:54:17.297,7.430,-0.4398826979472119,-48.54202401372213,61.667421839601275,32.99916457811193,-11.062271062271066,0.09066183136899365
14:54:17.314,7.446,-0.07331378299120672,-47.51286449399657,58.405074762120535,34.837092731829586,-11.306471306471309,0.09066183136899365
14:54:17.331,7.463,0.21994134897360595,-46.483704974271014,55.05210693248753,36.3408521303258,-11.550671550671552,0.09066183136899365
14:54:17.347,7.480,0.5865102639296254,-45.45454545454546,51.78975985500679,37.928153717627424,-11.746031746031747,0.09066183136899365
14:54:17.364,7.496,0.9530791788856305,-44.339622641509436,48.43679202537382,39.348370927318285,-11.892551892551893,0.09066183136899365
14:54:17.381,7.513,1.2463343108504432,-43.31046312178388,45.26506570004531,40.68504594820382,-11.99023199023199,0.09066183136899365
14:54:17.397,7.530,1.5395894428152417,-42.281303602058316,41.82147711826008,41.85463659147871,-12.136752136752136,0.09066183136899365
14:54:17.414,7.547,1.7595307917888476,-41.16638078902229,38.37788853647487,42.85714285714286,-12.136752136752136,0.09066183136899365
14:54:17.431,7.563,2.0527859237536603,-40.13722126929674,35.02492070684187,43.859649122807014,-12.185592185592185,0.09066183136899365
14:54:17.447,7.580,2.346041055718473,-39.02229845626072,31.581332125056633,44.611528822055135,-12.185592185592185,0.09066183136899365
14:54:17.464,7.597,2.712609970674478,-37.9073756432247,28.047122791119165,45.53049289891396,-12.185592185592185,0.09066183136899365
14:54:17.481,7.613,3.005865102639291,-36.87821612349914,24.694154961486163,46.282372598162084,-12.185592185592185,0.09066183136899365
14:54:17.497,7.630,3.3724340175953103,-35.76329331046311,21.15994562754871,47.03425229741018,-12.185592185592185,0.09066183136899365
14:54:17.514,7.647,3.6656891495601087,-34.64837049742711,17.62573629361124,47.61904761904762,-12.185592185592185,0.09066183136899365
14:54:17.531,7.663,4.032258064516128,-33.53344768439108,14.182147711826005,48.12030075187971,-12.185592185592185,0.09066183136899365
14:54:17.547,7.680,4.398826979472133,-32.41852487135506,10.647938377888536,48.53801169590645,-12.185592185592185,0.09066183136899365
14:54:17.564,7.697,4.838709677419345,-31.132075471698116,7.385591300407796,48.705096073517126,-12.185592185592185,0.09066183136899365
14:54:17.581,7.713,5.278592375366571,-29.84562607204117,3.9420027186225752,48.705096073517126,-12.185592185592185,0.09066183136899365
14:54:17.598,7.730,5.8651026392961825,-28.473413379073747,0.4077933846850783,48.6215538847118,-12.185592185592185,0.09066183136899365
14:54:17.614,7.747,6.451612903225794,-26.929674099485425,-3.126415949252376,48.203842940685036,-12.185592185592185,0.09066183136899365
14:54:17.631,7.764,7.038123167155419,-25.21440823327616,-6.8418667874943395,47.86967418546365,-12.185592185592185,0.09066183136899365
14:54:17.648,7.780,7.697947214076237,-23.327615780445967,-10.376076121431808,47.36842105263156,-12.185592185592185,0.09066183136899365
14:54:17.664,7.797,8.357771260997055,-21.440823327615774,-14.182147711826005,46.61654135338347,-12.185592185592185,0.09066183136899365
14:54:17.681,7.814,9.164222873900286,-19.21097770154374,-17.988219302220216,45.69757727652464,-12.185592185592185,0.09066183136899365
14:54:17.698,7.830,9.824046920821104,-16.809605488850778,-21.975532396918894,44.44444444444443,-12.185592185592185,0.09066183136899365
14:54:17.714,7.847,10.557184750733128,-14.065180102915946,-26.05346624376982,42.85714285714286,-12.185592185592185,0.09066183136899365
14:54:17.731,7.864,11.36363636363636,-11.320754716981128,-30.04077933846851,41.18629908103594,-12.185592185592185,0.09066183136899365
14:54:17.748,7.880,12.170087976539577,-8.662092624356774,-33.66560942455823,39.097744360902254,-12.185592185592185,0.09066183136899365
14:54:17.764,7.897,12.976539589442822,-5.831903945111492,-37.29043951064794,36.59147869674186,-12.136752136752136,0.09066183136899365
14:54:17.781,7.914,13.929618768328453,-2.830188679245282,-41.09651110104215,34.16875522138682,-11.99023199023199,0.09066183136899365
14:54:17.798,7.930,14.882697947214083,0.25728987993139185,-44.90258269143634,31.57894736842107,-11.941391941391942,0.09066183136899365
14:54:17.815,7.947,15.982404692082113,3.3447684391080656,-48.88989578613503,29.072681704260646,-11.941391941391942,0.09066183136899365
14:54:17.831,7.964,16.935483870967744,6.174957118353348,-52.15224286361577,26.64995822890559,-11.892551892551893,0.09066183136899365
14:54:17.848,7.981,17.96187683284458,8.49056603773586,-55.14272768463978,24.477861319966593,-11.746031746031747,0.09066183136899365
14:54:17.865,7.997,18.91495601173021,10.548885077186966,-57.498867240598095,22.807017543859658,-11.64835164835165,0.09066183136899365
14:54:17.881,8.014,19.868035190615842,12.349914236706681,-59.85500679655641,21.637426900584785,-11.64835164835165,0.09066183136899365
14:54:17.898,8.031,20.821114369501473,13.979416809605482,-62.211146352514724,21.470342522974107,-11.64835164835165,0.09066183136899365
14:54:17.915,8.047,21.700879765395896,15.523156089193833,-64.56728590847304,21.97159565580617,-11.746031746031747,0.09066183136899365
14:54:17.931,8.064,22.58064516129032,16.7238421955403,-66.83280471227911,22.974101921470336,-11.892551892551893,0.09066183136899365
14:54:17.948,8.081,23.46041055718476,17.924528301886795,-69.09832351608519,24.728487886382624,-11.941391941391942,0.09066183136899365
14:54:17.965,8.097,24.340175953079182,18.867924528301884,-71.18260081558677,26.90058479532165,-12.136752136752136,0.09066183136899365
14:54:17.982,8.114,25.1466275659824,19.725557461406524,-72.90439510647938,29.323308270676677,-12.332112332112331,0.09066183136899365
14:54:17.998,8.131,25.879765395894424,20.325900514579757,-74.17308563661078,31.913116123642453,-12.478632478632477,0.09066183136899365
14:54:18.015,8.147,26.53958944281524,20.668953687821627,-75.16991391028546,34.586466165413555,-12.576312576312574,0.09066183136899365
14:54:18.032,8.164,27.126099706744867,21.012006861063455,-75.71363842319892,37.00918964076857,-12.576312576312574,0.09066183136899365
14:54:18.048,8.181,27.712609970674478,21.097770154373933,-75.80425917535115,39.68253968253967,-12.576312576312574,0.09066183136899365
14:54:18.065,8.198,28.29912023460409,21.097770154373933,-75.80425917535115,42.18880534670009,-12.576312576312574,0.09066183136899365
14:54:18.082,8.214,28.73900293255133,21.012006861063455,-75.35115541458994,44.77861319966584,-12.576312576312574,0.09066183136899365
14:54:18.098,8.231,29.252199413489734,20.668953687821627,-74.626189397372,47.20133667502088,-12.527472527472526,0.09066183136899365
14:54:18.115,8.248,29.692082111436946,20.15437392795883,-73.44811961939284,49.45697577276525,-12.332112332112331,0.09066183136899365
14:54:18.132,8.264,30.058651026392965,19.468267581475132,-71.72632532850022,51.3784461152882,-12.283272283272282,0.09066183136899365
14:54:18.148,8.281,30.351906158357764,18.52487135506003,-69.64204802899864,53.38345864661653,-12.185592185592185,0.09066183136899365
14:54:18.165,8.298,30.645161290322562,17.409948542024026,-67.28590847304034,55.137844611528806,-12.039072039072039,0.09066183136899365
14:54:18.182,8.314,30.865102639296197,16.123499142367052,-64.65790666062529,56.64160401002508,-11.746031746031747,0.09066183136899365
14:54:18.198,8.331,31.085043988269803,15.008576329331035,-61.66742183960127,57.97827903091061,-11.452991452991455,0.09066183136899365
14:54:18.215,8.348,31.30498533724341,13.807890222984568,-58.85817852288174,59.06432748538012,-11.208791208791212,0.09066183136899365
14:54:18.232,8.364,31.598240469208207,12.692967409948537,-56.50203896692342,60.23391812865498,-11.062271062271066,0.09066183136899365
14:54:18.249,8.381,31.818181818181813,11.749571183533462,-54.327140915269595,61.48705096073516,-10.915750915750905,0.09066183136899365
14:54:18.265,8.398,32.11143695014661,11.149228130360214,-52.60534662437698,62.823725981620726,-10.76923076923076,0.09066183136899365
14:54:18.282,8.414,32.33137829912022,10.548885077186966,-51.155414589941095,64.24394319131162,-10.72039072039071,0.09066183136899365
14:54:18.299,8.431,32.55131964809382,10.20583190394511,-49.886724059809694,65.58061821219715,-10.622710622710613,0.09066183136899365
14:54:18.315,8.448,32.69794721407624,9.948542024013719,-48.88989578613503,66.91729323308272,-10.622710622710613,0.09066183136899365
14:54:18.332,8.465,32.84457478005865,9.862778730703269,-47.9836882646126,68.3375104427736,-10.622710622710613,0.09066183136899365
14:54:18.349,8.481,32.991202346041035,9.862778730703269,-47.34934299954689,69.9248120300752,-10.573870573870565,0.09066183136899365
14:54:18.366,8.498,33.13782991202345,10.120068610634661,-47.07748074309017,71.7627401837928,-10.525030525030516,0.09066183136899365
14:54:18.382,8.515,33.21114369501464,10.377358490566053,-46.624376982328954,73.60066833751046,-10.37851037851037,0.09066183136899365
14:54:18.399,8.531,33.21114369501464,10.463121783876488,-45.71816946080652,75.02088554720135,-10.183150183150175,0.09066183136899365
14:54:18.416,8.548,33.28445747800586,10.20583190394511,-43.90575441776166,75.93984962406014,-9.98778998778998,0.09066183136899365
14:54:18.432,8.565,33.28445747800586,9.605488850771863,-41.54961486180335,76.19047619047618,-9.792429792429786,0.09066183136899365
14:54:18.449,8.582,33.28445747800586,8.662092624356774,-38.830992297236065,76.0233918128655,-9.548229548229543,0.09066183136899365
14:54:18.466,8.598,33.28445747800586,7.71869639794167,-35.749886724059806,75.35505430242273,-9.352869352869348,0.09066183136899365
14:54:18.482,8.615,33.21114369501464,6.603773584905667,-32.487539646579066,74.35254803675858,-9.157509157509153,0.09066183136899365
14:54:18.499,8.632,33.064516129032256,5.48885077186965,-29.406434073402806,72.93233082706766,-8.91330891330891,0.09066183136899365
14:54:18.516,8.648,32.91788856304984,4.459691252144069,-26.506570004531042,71.26148705096074,-8.766788766788764,0.09066183136899365
14:54:18.533,8.665,32.84457478005865,3.6020583190394575,-23.78794743996376,69.2564745196324,-8.669108669108667,0.09066183136899365
14:54:18.549,8.682,32.69794721407624,2.658662092624354,-20.88808337109198,66.83375104427736,-8.57142857142857,0.09066183136899365
14:54:18.566,8.698,32.55131964809382,1.6295025728988008,-17.897598550067954,64.16040100250626,-8.52258852258852,0.09066183136899365
14:54:18.582,8.715,32.33137829912022,0.6003430531732477,-14.907113729043957,61.06934001670842,-8.52258852258852,0.09066183136899365
14:54:18.599,8.732,32.258064516129025,-0.42881646655231975,-11.826008155867697,57.727652464494554,-8.52258852258852,0.09066183136899365
14:54:18.616,8.748,32.258064516129025,-1.457975986277873,-9.107385591300414,54.30242272347536,-8.473748473748472,0.09066183136899365
14:54:18.633,8.765,32.258064516129025,-2.4871355060034404,-6.116900770276388,50.54302422723475,-8.424908424908423,0.09066183136899365
14:54:18.649,8.782,31.964809384164226,-3.6020583190394433,-3.0357951971001285,46.61654135338347,-8.424908424908423,0.09066183136899365
14:54:18.666,8.799,31.451612903225794,-4.631217838765011,0.13593112822836417,41.93817878028406,-8.376068376068375,0.09066183136899365
14:54:18.683,8.815,31.01173020527858,-5.5746140651801,3.2170367014046235,37.00918964076857,-8.376068376068375,0.09066183136899365
14:54:18.699,8.832,30.498533724340177,-6.3464837049742755,5.935659265971907,31.8295739348371,-8.278388278388277,0.09066183136899365
14:54:18.716,8.849,29.985337243401744,-7.032590051457973,8.654281830539205,26.90058479532165,-8.083028083028083,0.09066183136899365
14:54:18.733,8.865,29.398826979472148,-7.6329331046312205,11.101042138649746,22.055137844611522,-7.936507936507937,0.09066183136899365
14:54:18.750,8.882,28.885630498533715,-8.147512864494004,13.457181694608053,17.376775271512116,-7.741147741147742,0.09066183136899365
14:54:18.766,8.899,28.29912023460409,-8.662092624356774,15.722700498414127,12.280701754385959,-7.496947496947499,0.09066183136899365
14:54:18.783,8.916,27.712609970674478,-9.090909090909093,17.988219302220216,7.101086048454476,-7.106227106227109,0.09066183136899365
14:54:18.800,8.932,27.199413489736074,-9.433962264150935,19.891255097417314,2.422723475355056,-6.666666666666671,0.09066183136899365
14:54:18.816,8.949,26.686217008797655,-9.777015437392805,21.52242863615767,-1.4202172096909038,-6.227106227106233,0.09066183136899365
14:54:18.833,8.966,26.173020527859236,-10.120068610634647,22.881739918441312,-4.427736006683375,-5.885225885225893,0.09066183136899365
14:54:18.850,8.982,25.733137829912025,-10.377358490566039,23.969188944268225,-7.5187969924811995,-5.689865689865698,0.09066183136899365
14:54:18.866,8.999,25.1466275659824,-10.548885077186966,24.875396465790672,-10.77694235588973,-5.445665445665455,0.09066183136899365
14:54:18.883,9.016,24.560117302052788,-10.548885077186966,25.78160398731309,-14.452798663324984,-5.201465201465211,0.09066183136899365
14:54:18.900,9.032,24.04692082111437,-10.463121783876502,26.687811508835523,-18.46282372598162,0.0,0.09066183136899365
14:54:18.916,9.049,23.46041055718476,-10.034305317324183,27.503398278205708,-22.38930659983292,0.0,0.09066183136899365
14:54:18.933,9.066,22.873900293255133,-9.433962264150935,28.137743543271398,-26.817042606516296,0.0,0.09066183136899365
14:54:18.950,9.082,22.287390029325522,-8.662092624356774,28.681468056184855,-31.32832080200501,0.0,0.09066183136899365
14:54:18.967,9.099,21.62756598240469,-7.804459691252134,29.043951064793816,-35.92314118629908,0.0,0.09066183136899365
14:54:18.983,9.116,20.967741935483872,-6.775300171526595,29.134571816946078,-40.35087719298246,0.0,0.09066183136899365
14:54:19.000,9.133,20.38123167155426,-5.660377358490564,29.043951064793816,-44.11027568922306,0.0,0.09066183136899365
14:54:19.017,9.149,19.794721407624635,-4.545454545454547,28.500226551880388,-47.0342522974102,0.0,0.09066183136899365
14:54:19.033,9.166,19.208211143695024,-3.5162950257289936,27.865881286814684,-49.62406015037594,0.0,0.09066183136899365
14:54:19.050,9.183,18.695014662756606,-2.658662092624354,27.0502945174445,-51.54553049289892,0.0,0.09066183136899365
14:54:19.067,9.199,18.255131964809394,-1.9725557461406424,26.2347077480743,-52.79866332497912,0.0,0.09066183136899365
14:54:19.083,9.216,17.888563049853374,-1.372212692967409,25.147258722247386,-53.55054302422724,0.0,0.09066183136899365
14:54:19.100,9.233,17.52199413489737,-0.7718696397941613,23.78794743996376,-53.71762740183793,0.0,0.09066183136899365
14:54:19.117,9.249,17.302052785923763,-0.1715265866209279,22.247394653375622,-53.634085213032584,0.0,0.09066183136899365
14:54:19.133,9.266,17.082111436950157,0.3430531732418558,20.434979610330757,-52.96574770258981,0.0,0.09066183136899365
14:54:19.150,9.283,16.935483870967744,0.7718696397941613,18.622564567285906,-51.54553049289892,0.0,0.09066183136899365
14:54:19.167,9.299,16.86217008797655,1.2006861063464953,16.44766651563208,-49.122807017543856,0.0,0.09066183136899365
14:54:19.183,9.316,16.86217008797655,1.5437392795883227,14.091526959673772,-46.03174603174603,0.0,0.09066183136899365
14:54:19.200,9.333,16.86217008797655,1.9725557461406567,11.191662890802007,-41.8546365914787,0.0,0.09066183136899365
14:54:19.217,9.349,16.86217008797655,2.401372212692962,8.019936565473486,-36.59147869674185,0.0,0.09066183136899365
14:54:19.234,9.366,16.86217008797655,2.830188679245296,4.485727231536018,-30.158730158730165,0.0,0.09066183136899365
14:54:19.250,9.383,16.86217008797655,3.4305317324185154,0.2265518803806117,-22.556390977443613,0.0,0.09066183136899365
14:54:19.267,9.400,17.00879765395895,4.288164665523155,-4.6669687358404985,-14.619883040935676,0.0,0.09066183136899365
14:54:19.284,9.416,17.15542521994135,5.403087478559172,-9.922972360670585,-6.265664160401002,0.0,0.09066183136899365
14:54:19.300,9.433,17.302052785923763,6.689536878216117,-14.99773448119619,1.1695906432748586,-5.152625152625163,0.09066183136899365
14:54:19.317,9.450,17.375366568914956,8.061749571183526,-19.619392840960586,7.351712614870507,-5.738705738705747,0.09066183136899365
14:54:19.334,9.466,17.448680351906162,9.09090909090908,-22.97236067059356,11.862990810359236,-6.275946275946282,0.09066183136899365
14:54:19.351,9.483,17.52199413489737,9.777015437392805,-25.41912097870413,14.870509607351721,-6.71550671550672,0.09066183136899365
14:54:19.367,9.500,17.595307917888576,10.291595197255575,-27.140915269596732,17.126148705096085,-7.057387057387061,0.09066183136899365
14:54:19.384,9.517,17.66862170087977,10.548885077186966,-28.500226551880388,19.46532999164579,-7.44810744810745,0.09066183136899365
14:54:19.401,9.533,17.741935483870975,10.806174957118358,-29.768917082011782,22.138680033416875,-7.887667887667888,0.09066183136899365
14:54:19.417,9.550,17.815249266862182,10.891938250428822,-30.94698685999093,24.979114452798655,-8.376068376068375,0.09066183136899365
14:54:19.434,9.567,17.815249266862182,10.891938250428822,-31.76257362936113,27.98663324979114,-8.766788766788764,0.09066183136899365
14:54:19.451,9.583,17.815249266862182,10.806174957118358,-32.39691889442682,30.743525480367595,-9.108669108669105,0.09066183136899365
14:54:19.467,9.600,17.888563049853374,10.463121783876488,-32.5781603987313,33.50041771094402,-9.450549450549445,0.09066183136899365
14:54:19.484,9.617,17.888563049853374,10.120068610634661,-32.66878115088355,36.257309941520475,-9.694749694749689,0.09066183136899365
14:54:19.501,9.634,17.888563049853374,9.691252144082327,-32.39691889442682,38.93065998329158,-9.98778998778998,0.09066183136899365
14:54:19.518,9.650,17.888563049853374,9.176672384219557,-32.03443588581784,41.60401002506268,-10.231990231990224,0.09066183136899365
14:54:19.535,9.667,17.741935483870975,8.747855917667252,-31.400090620752152,44.27736006683375,-10.573870573870565,0.09066183136899365
14:54:19.551,9.684,17.66862170087977,8.233276157804468,-30.765745355686448,46.8671679197995,-10.866910866910857,0.09066183136899365
14:54:19.568,9.701,17.595307917888576,7.804459691252134,-30.04077933846851,49.45697577276525,-11.208791208791212,0.09066183136899365
14:54:19.585,9.717,17.52199413489737,7.375643224699829,-29.225192569098326,51.71261487050961,-11.501831501831504,0.09066183136899365
14:54:19.601,9.734,17.448680351906162,6.946826758147509,-28.409605799728126,53.968253968253975,-11.794871794871796,0.09066183136899365
14:54:19.618,9.751,17.375366568914956,6.518010291595203,-27.41277752605346,55.889724310776955,-11.941391941391942,0.09066183136899365
14:54:19.635,9.768,17.375366568914956,6.00343053173242,-26.325328500226547,57.47702589807852,-12.136752136752136,0.09066183136899365
14:54:19.654,9.787,17.302052785923763,5.5746140651801,-25.147258722247386,58.89724310776941,-12.38095238095238,0.09066183136899365
14:54:19.670,9.802,17.302052785923763,5.231560891938258,-24.059809696420473,60.06683375104427,-12.527472527472526,0.09066183136899365
14:54:19.687,9.819,17.375366568914956,4.802744425385924,-23.062981422745807,60.902255639097746,-12.72283272283272,0.09066183136899365
14:54:19.703,9.836,17.448680351906162,4.459691252144069,-22.156773901223374,61.65413533834587,-12.869352869352866,0.09066183136899365
14:54:19.720,9.853,17.595307917888576,4.202401372212677,-21.250566379700956,62.23893065998328,-13.015873015873012,0.09066183136899365
14:54:19.737,9.869,17.741935483870975,3.945111492281299,-20.344358858178524,62.573099415204695,-13.162393162393158,0.09066183136899365
14:54:19.753,9.886,17.888563049853374,3.6878216123499072,-19.43815133665609,62.74018379281537,-13.260073260073256,0.09066183136899365
14:54:19.770,9.903,18.10850439882698,3.4305317324185154,-18.713185319438153,62.90726817042608,-13.357753357753353,0.09066183136899365
14:54:19.787,9.919,18.255131964809394,3.2590051457976017,-18.07884005437245,63.07435254803676,-13.406593406593402,0.09066183136899365
14:54:19.803,9.936,18.401759530791793,3.1732418524871235,-17.716357045763473,63.24143692564746,-13.504273504273499,0.09066183136899365
14:54:19.820,9.953,18.401759530791793,3.1732418524871235,-17.263253285002264,63.324979114452816,-13.504273504273499,0.09066183136899365
14:54:19.837,9.969,18.548387096774206,3.1732418524871235,-16.991391028545536,63.492063492063494,-13.553113553113548,0.09066183136899365
14:54:19.854,9.986,18.695014662756606,3.1732418524871235,-16.81014952424104,63.6591478696742,-13.553113553113548,0.09066183136899365
14:54:19.870,10.003,18.841642228739005,3.1732418524871235,-16.44766651563208,63.6591478696742,-13.553113553113548,0.09066183136899365
14:54:19.887,10.019,18.98826979472142,3.087478559176688,-15.99456275487087,63.324979114452816,-13.45543345543345,0.09066183136899365
14:54:19.904,10.036,19.134897360703818,2.830188679245296,-15.450838241957413,62.823725981620726,-13.357753357753353,0.09066183136899365
14:54:19.920,10.053,19.354838709677423,2.658662092624354,-15.088355233348437,62.322472848788635,-13.308913308913304,0.09066183136899365
14:54:19.937,10.070,19.57478005865103,2.57289879931389,-15.088355233348437,61.9047619047619,-13.211233211233207,0.09066183136899365
14:54:19.954,10.086,19.794721407624635,2.658662092624354,-15.541458994109647,61.821219715956545,-13.11355311355311,0.09066183136899365
14:54:19.970,10.103,19.94134897360705,3.00171526586621,-16.44766651563208,61.821219715956545,-13.015873015873012,0.09066183136899365
14:54:19.987,10.120,20.161290322580655,3.3447684391080656,-17.44449478930676,61.73767752715119,-12.967032967032964,0.09066183136899365
14:54:20.004,10.136,20.307917888563054,3.6878216123499072,-18.531943815133673,61.570593149540514,-12.869352869352866,0.09066183136899365
14:54:20.020,10.153,20.454545454545453,4.030874785591763,-19.52877208880834,61.23642439431913,-12.771672771672769,0.09066183136899365
14:54:20.037,10.170,20.52785923753666,4.459691252144069,-20.797462618939733,60.81871345029239,-12.625152625152623,0.09066183136899365
14:54:20.054,10.187,20.601173020527867,4.9742710120068665,-22.33801540552787,60.48454469507101,-12.527472527472526,0.09066183136899365
14:54:20.071,10.203,20.747800586510266,5.660377358490564,-24.059809696420473,60.31746031746033,-12.429792429792428,0.09066183136899365
14:54:20.088,10.221,20.821114369501473,6.432246998284725,-26.2347077480743,60.23391812865498,-12.283272283272282,0.09066183136899365
14:54:20.117,10.250,20.967741935483872,7.804459691252134,-29.5876755777073,59.482038429406856,-11.892551892551893,0.09066183136899365
14:54:20.130,10.263,21.114369501466285,8.233276157804468,-30.856366107838696,58.730158730158735,-11.64835164835165,0.09066183136899365
14:54:20.147,10.280,21.260997067448685,8.662092624356774,-31.67195287720888,57.059314954051786,-11.404151404151406,0.09066183136899365
14:54:20.164,10.296,21.407624633431084,8.747855917667252,-31.94381513366561,54.887218045112775,-11.111111111111114,0.09066183136899365
14:54:20.180,10.313,21.62756598240469,8.833619210977702,-31.94381513366561,52.13032581453635,-10.76923076923076,0.09066183136899365
14:54:20.197,10.330,21.774193548387103,9.00514579759863,-31.94381513366561,49.28989139515457,-10.427350427350419,0.09066183136899365
14:54:20.214,10.346,21.920821114369502,9.09090909090908,-31.67195287720888,46.19883040935673,-10.085470085470078,0.09066183136899365
14:54:20.230,10.363,22.0674486803519,9.262435677530021,-31.400090620752152,42.85714285714286,-9.890109890109883,0.09066183136899365
14:54:20.247,10.380,22.287390029325522,9.433962264150935,-30.94698685999093,39.598997493734345,-9.694749694749689,0.09066183136899365
14:54:20.264,10.396,22.43401759530792,9.605488850771863,-30.49388309922972,36.3408521303258,-9.64590964590964,0.09066183136899365
14:54:20.281,10.413,22.58064516129032,9.862778730703269,-30.22202084277299,33.24979114452799,-9.64590964590964,0.09066183136899365
14:54:20.297,10.430,22.800586510263926,10.20583190394511,-30.22202084277299,30.65998329156224,-9.890109890109883,0.09066183136899365
14:54:20.314,10.447,23.020527859237532,10.463121783876488,-30.22202084277299,28.571428571428584,-10.427350427350419,0.09066183136899365
14:54:20.331,10.463,23.240469208211152,10.891938250428822,-30.675124603534215,27.40183792815371,-11.550671550671552,0.09066183136899365
14:54:20.347,10.480,23.38709677419355,11.234991423670664,-31.490711372904386,27.067669172932327,-12.576312576312574,0.09066183136899365
14:54:20.364,10.497,23.46041055718476,11.57804459691252,-32.39691889442682,27.318295739348358,-13.406593406593402,0.09066183136899365
14:54:20.381,10.513,23.53372434017595,11.749571183533462,-33.212505663797,27.98663324979114,-14.33455433455434,0.09066183136899365
14:54:20.397,10.530,23.53372434017595,11.835334476843911,-33.75623017671046,28.905597326649968,-15.409035409035411,0.09066183136899365
14:54:20.414,10.547,23.607038123167158,11.835334476843911,-34.29995468962392,30.15873015873015,-16.678876678876676,0.09066183136899365
14:54:20.431,10.563,23.607038123167158,11.835334476843911,-34.66243769823289,31.8295739348371,-17.85103785103786,0.09066183136899365
14:54:20.448,10.580,23.607038123167158,11.663807890222984,-34.84367920253739,33.75104427736005,-19.21855921855922,0.09066183136899365
14:54:20.464,10.597,23.607038123167158,11.320754716981128,-34.84367920253739,35.83959899749374,-20.634920634920633,0.09066183136899365
14:54:20.481,10.613,23.607038123167158,10.977701543739272,-34.39057544177618,37.76106934001672,-22.14896214896214,0.09066183136899365
14:54:20.498,10.630,23.607038123167158,10.463121783876488,-33.75623017671046,39.598997493734345,-23.614163614163616,0.09066183136899365
14:54:20.514,10.647,23.607038123167158,10.034305317324183,-32.85002265518804,41.18629908103594,-25.079365079365076,0.09066183136899365
14:54:20.531,10.664,23.607038123167158,9.519725557461413,-31.94381513366561,42.940685045948214,-26.5934065934066,0.09066183136899365
14:54:20.548,10.680,23.53372434017595,9.09090909090908,-30.94698685999093,44.94569757727652,-28.3028083028083,0.09066183136899365
14:54:20.564,10.697,23.46041055718476,8.662092624356774,-29.950158586316263,46.95071010860485,-30.109890109890117,0.09066183136899365
14:54:20.581,10.714,23.38709677419355,8.233276157804468,-29.134571816946078,48.955722639933185,-31.672771672771674,0.09066183136899365
14:54:20.598,10.730,23.240469208211152,7.890222984562612,-28.228364295423646,50.793650793650784,-32.893772893772905,0.09066183136899365
14:54:20.614,10.747,23.09384164222874,7.6329331046312205,-27.41277752605346,52.63157894736844,-33.52869352869354,0.09066183136899365
14:54:20.631,10.764,22.94721407624634,7.289879931389365,-26.597190756683275,54.385964912280684,-33.626373626373635,0.09066183136899365
14:54:20.648,10.780,22.727272727272734,7.118353344768451,-25.872224739465338,55.97326649958231,-33.626373626373635,0.09066183136899365
14:54:20.665,10.797,22.507331378299128,6.946826758147509,-25.056637970095153,57.47702589807852,-33.626373626373635,0.09066183136899365
14:54:20.681,10.814,22.214076246334315,6.775300171526595,-24.15043044857272,58.81370091896406,-33.577533577533586,0.09066183136899365
14:54:20.698,10.830,21.99413489736071,6.689536878216117,-23.244222927050302,60.23391812865498,-33.38217338217339,0.09066183136899365
14:54:20.715,10.847,21.847507331378296,6.518010291595203,-22.428636157680103,61.65413533834587,-33.33333333333334,0.09066183136899365
14:54:20.731,10.864,21.62756598240469,6.3464837049742755,-21.613049388309918,63.07435254803676,-33.33333333333334,0.09066183136899365
14:54:20.748,10.881,21.48093841642229,6.2607204116638115,-20.7068418667875,64.16040100250626,-33.235653235653245,0.09066183136899365
14:54:20.765,10.897,21.260997067448685,6.174957118353348,-19.71001359311282,64.82873851294903,-32.94261294261295,0.09066183136899365
14:54:20.781,10.914,21.114369501466285,6.00343053173242,-18.713185319438153,65.4970760233918,-32.747252747252745,0.09066183136899365
14:54:20.798,10.931,20.967741935483872,5.831903945111478,-17.535115541458993,65.91478696741854,-32.64957264957265,0.09066183136899365
14:54:20.815,10.947,20.89442815249268,5.660377358490564,-16.266425011327584,66.1654135338346,-32.45421245421245,0.09066183136899365
14:54:20.831,10.964,20.747800586510266,5.48885077186965,-14.99773448119619,66.1654135338346,-32.30769230769231,0.09066183136899365
14:54:20.848,10.981,20.67448680351906,5.317324185248708,-13.638423198912548,66.1654135338346,-32.25885225885226,0.09066183136899365
14:54:20.865,10.997,20.601173020527867,5.145797598627794,-12.188491164476673,65.99832915622389,-32.16117216117216,0.09066183136899365
14:54:20.881,11.014,20.454545454545453,4.8885077186964025,-10.738559130040784,65.58061821219715,-31.86813186813187,0.09066183136899365
14:54:20.898,11.031,20.38123167155426,4.802744425385924,-9.288627095604895,65.07936507936506,-31.526251526251528,0.09066183136899365
14:54:20.915,11.048,20.161290322580655,4.716981132075489,-7.838695061169005,64.4110275689223,-31.13553113553114,0.09066183136899365
14:54:20.956,11.088,19.794721407624635,4.631217838765011,-4.576347983688265,62.40601503759399,-29.96336996336997,0.09066183136899365
14:54:20.970,11.102,19.42815249266863,4.716981132075489,-3.2170367014046235,60.9857978279031,-28.937728937728934,0.09066183136899365
14:54:20.986,11.119,18.98826979472142,4.802744425385924,-1.948346171273215,59.31495405179618,-27.66788766788767,0.09066183136899365
14:54:21.003,11.136,18.6217008797654,5.060034305317316,-0.6796556411418209,57.64411027568923,-26.007326007326,0.09066183136899365
14:54:21.020,11.152,18.255131964809394,5.317324185248708,0.3171726325328592,56.30743525480369,-24.59096459096459,0.09066183136899365
14:54:21.036,11.169,17.96187683284458,5.660377358490564,1.13275940190303,55.55555555555557,-23.956043956043956,0.09066183136899365
14:54:21.053,11.186,17.815249266862182,6.089193825042869,1.7671046669687485,54.97076023391813,-23.711843711843713,0.09066183136899365
14:54:21.070,11.202,17.66862170087977,6.518010291595203,2.2202084277299434,54.46950710108604,-23.369963369963358,0.09066183136899365
14:54:21.086,11.219,17.52199413489737,6.861063464837059,2.673312188491167,53.80116959064327,-22.88156288156287,0.09066183136899365
14:54:21.103,11.236,17.375366568914956,7.289879931389365,3.0357951971001285,52.96574770258982,-22.344322344322336,0.09066183136899365
14:54:21.120,11.252,17.302052785923763,7.804459691252134,3.307657453556857,52.046783625730995,-21.758241758241752,0.09066183136899365
14:54:21.137,11.269,17.228739002932556,8.233276157804468,3.5795197100135994,50.96073517126149,-21.221001221001217,0.09066183136899365
14:54:21.153,11.286,17.15542521994135,8.662092624356774,3.76076121431808,49.70760233918128,-20.73260073260073,0.09066183136899365
14:54:21.170,11.302,17.082111436950157,9.09090909090908,3.8513819664703277,48.454469507101095,-20.293040293040292,0.09066183136899365
14:54:21.187,11.319,17.00879765395895,9.605488850771863,3.8513819664703277,47.11779448621553,-19.902319902319903,0.09066183136899365
14:54:21.203,11.336,16.86217008797655,10.034305317324183,3.76076121431808,45.69757727652464,-19.462759462759465,0.09066183136899365
14:54:21.220,11.353,16.788856304985345,10.463121783876488,3.488898957861352,44.1938178780284,-18.87667887667888,0.09066183136899365
14:54:21.237,11.369,16.642228739002945,10.806174957118358,3.126415949252376,42.60651629072683,-18.095238095238102,0.09066183136899365
14:54:21.253,11.386,16.495601173020532,11.149228130360214,2.854553692795662,40.768588137009175,-17.264957264957275,0.09066183136899365
14:54:21.270,11.403,16.348973607038133,11.406518010291606,2.492070684186686,38.76357560568087,-16.288156288156287,0.09066183136899365
14:54:21.287,11.419,16.202346041055733,11.663807890222984,2.310829179882191,36.257309941520475,-15.213675213675216,0.09066183136899365
14:54:21.304,11.436,16.05571847507332,11.835334476843911,2.0389669234254626,33.24979114452799,-14.139194139194146,0.09066183136899365
14:54:21.320,11.453,15.90909090909092,12.178387650085767,1.8577254191209676,29.90810359231412,-13.211233211233207,0.09066183136899365
14:54:21.337,11.469,15.689149560117315,12.43567753001716,1.676483914816501,26.48287385129491,-12.332112332112331,0.09066183136899365
14:54:21.354,11.486,15.469208211143709,12.692967409948537,1.4046216583597726,23.30827067669172,-11.306471306471309,0.09066183136899365
14:54:21.370,11.503,15.249266862170103,12.950257289879929,1.2233801540552776,19.883040935672526,-10.329670329670321,0.09066183136899365
14:54:21.387,11.520,14.882697947214083,13.20754716981132,1.13275940190303,16.207184628237272,-9.450549450549445,0.09066183136899365
14:54:21.404,11.536,14.58944281524927,13.464837049742712,1.13275940190303,12.364243943191312,-8.717948717948715,0.09066183136899365
14:54:21.420,11.553,14.296187683284472,13.807890222984568,1.13275940190303,8.354218880534674,-7.936507936507937,0.09066183136899365
14:54:21.437,11.570,13.929618768328453,14.150943396226424,1.13275940190303,4.260651629072669,-7.008547008547012,0.09066183136899365
14:54:21.454,11.586,13.709677419354847,14.57975986277873,1.0421386497507967,0.41771094402673725,-5.98290598290599,0.09066183136899365
14:54:21.470,11.603,13.343108504398842,15.180102915951977,0.8608971454463017,-3.592314118629915,-5.006105006105017,0.09066183136899365
14:54:21.487,11.620,12.976539589442822,15.780445969125225,0.5890348889895876,-7.2681704260651685,0.0,0.09066183136899365
14:54:21.504,11.636,12.68328445747801,16.466552315608922,0.045310376076116654,-10.359231411862993,0.0,0.09066183136899365
14:54:21.521,11.653,12.31671554252199,17.06689536878217,-0.8608971454463017,-12.949039264828741,0.0,0.09066183136899365
14:54:21.537,11.670,11.950146627565971,17.83876500857633,-2.12958767557771,-14.703425229741015,0.0,0.09066183136899365
14:54:21.554,11.686,11.730205278592365,18.69639794168097,-3.6701404621658327,-15.956558061821227,0.0,0.09066183136899365
14:54:21.571,11.703,11.510263929618759,19.554030874785596,-5.573176257362931,-16.624895572263995,0.0,0.09066183136899365
14:54:21.587,11.720,11.36363636363636,20.411663807890207,-7.566832804712277,-16.708437761069334,0.0,0.09066183136899365
14:54:21.604,11.736,11.217008797653946,21.183533447684397,-9.560489352061623,-16.54135338345864,0.0,0.09066183136899365
14:54:21.621,11.753,11.14369501466274,22.041166380789008,-11.554145899410955,-16.207184628237258,0.0,0.09066183136899365
14:54:21.637,11.770,11.070381231671547,22.98456260720411,-13.457181694608067,-16.040100250626566,0.0,0.09066183136899365
14:54:21.654,11.787,10.99706744868034,24.099485420240143,-15.360217489805166,-15.956558061821227,0.0,0.09066183136899365
14:54:21.671,11.803,10.923753665689134,25.128644939965696,-17.082011780697783,-15.956558061821227,0.0,0.09066183136899365
14:54:21.687,11.820,10.923753665689134,26.243567753001713,-18.622564567285906,-15.873015873015873,0.0,0.09066183136899365
14:54:21.704,11.837,10.850439882697941,27.358490566037744,-20.434979610330757,-15.789473684210535,0.0,0.09066183136899365
14:54:21.721,11.853,10.850439882697941,28.473413379073776,-22.156773901223374,-15.288220551378444,0.0,0.09066183136899365
14:54:21.738,11.870,10.850439882697941,29.674099485420243,-23.96918894426824,-14.536340852130323,0.0,0.09066183136899365
14:54:21.754,11.887,10.850439882697941,30.70325900514578,-25.78160398731309,-13.366750208855478,0.0,0.09066183136899365
14:54:21.771,11.903,10.923753665689134,31.646655231560885,-27.503398278205708,-11.779448621553883,0.0,0.09066183136899365
14:54:21.788,11.920,10.99706744868034,32.59005145797599,-29.49705482555504,-9.607351712614872,0.0,0.09066183136899365
14:54:21.804,11.937,11.070381231671547,33.53344768439109,-31.67195287720888,-6.850459482038431,0.0,0.09066183136899365
14:54:21.821,11.954,11.217008797653946,34.47684391080617,-34.0280924331672,-3.5087719298245617,-5.006105006105017,0.09066183136899365
14:54:21.838,11.970,11.436950146627552,35.506003430531734,-36.56547349343,0.16708437761070627,-5.885225885225893,0.09066183136899365
14:54:21.854,11.987,11.583577712609966,36.5351629502573,-39.28409605799729,4.177109440267344,-6.959706959706963,0.09066183136899365
14:54:21.871,12.004,11.803519061583572,37.56432246998284,-41.73085636610784,8.27067669172932,-7.985347985347985,0.09066183136899365
14:54:21.888,12.020,11.950146627565971,38.42195540308748,-44.08699592206615,11.695906432748544,-8.864468864468861,0.09066183136899365
14:54:21.905,12.037,12.023460410557178,39.365351629502555,-46.0806524694155,14.954051796157046,-9.548229548229543,0.09066183136899365
14:54:21.921,12.054,12.09677419354837,40.051457975986295,-47.71182600815587,17.7109440267335,-10.183150183150175,0.09066183136899365
14:54:21.938,12.070,12.170087976539577,40.651801029159515,-48.88989578613503,20.050125313283203,-10.72039072039071,0.09066183136899365
14:54:21.955,12.087,12.170087976539577,41.1663807890223,-49.79610330765746,22.055137844611522,-11.208791208791212,0.09066183136899365
14:54:21.971,12.104,12.243401759530784,41.509433962264154,-50.5210693248754,23.725981620718457,-11.64835164835165,0.09066183136899365
14:54:21.988,12.121,12.243401759530784,41.85248713550601,-51.155414589941095,25.396825396825392,-12.087912087912088,0.09066183136899365
14:54:22.005,12.137,12.243401759530784,42.02401372212694,-51.60851835070231,26.984126984126974,-12.527472527472526,0.09066183136899365
14:54:22.021,12.154,12.243401759530784,42.1097770154374,-51.78975985500679,28.320802005012524,-12.967032967032964,0.09066183136899365
14:54:22.038,12.171,12.31671554252199,42.1097770154374,-51.88038060715904,29.40685045948203,-13.406593406593402,0.09066183136899365
14:54:22.055,12.187,12.31671554252199,42.1097770154374,-51.88038060715904,30.492898913951535,-13.943833943833937,0.09066183136899365
14:54:22.071,12.204,12.31671554252199,41.85248713550601,-51.69913910285455,31.32832080200501,-14.481074481074486,0.09066183136899365
14:54:22.088,12.221,12.31671554252199,41.68096054888508,-51.33665609424558,31.996658312447778,-14.969474969474973,0.09066183136899365
14:54:22.105,12.237,12.31671554252199,41.42367066895369,-51.064793837788855,32.414369256474515,-15.164835164835168,0.09066183136899365
14:54:22.122,12.254,12.31671554252199,41.25214408233276,-50.88355233348437,32.664995822890546,-15.164835164835168,0.09066183136899365
14:54:22.138,12.271,12.243401759530784,41.080617495711834,-50.70231082917988,32.83208020050125,-15.164835164835168,0.09066183136899365
14:54:22.155,12.288,12.170087976539577,40.90909090909091,-50.70231082917988,32.83208020050125,-15.164835164835168,0.09066183136899365
14:54:22.172,12.304,12.170087976539577,40.73756432246998,-50.61169007702764,32.99916457811193,-15.164835164835168,0.09066183136899365
14:54:22.188,12.321,12.09677419354837,40.73756432246998,-50.61169007702764,33.24979114452799,-15.311355311355314,0.09066183136899365
14:54:22.205,12.338,12.09677419354837,40.651801029159515,-50.79293158133213,33.50041771094402,-15.506715506715508,0.09066183136899365
14:54:22.222,12.354,12.09677419354837,40.651801029159515,-50.88355233348437,33.91812865497076,-15.604395604395606,0.09066183136899365
14:54:22.238,12.371,12.09677419354837,40.73756432246998,-51.155414589941095,34.16875522138682,-15.653235653235654,0.09066183136899365
14:54:22.255,12.388,12.243401759530784,40.82332761578044,-51.155414589941095,34.41938178780285,-15.7997557997558,0.09066183136899365
14:54:22.272,12.404,12.31671554252199,40.99485420240137,-51.155414589941095,34.586466165413555,-15.897435897435898,0.09066183136899365
14:54:22.289,12.421,12.390029325513183,41.1663807890223,-51.155414589941095,34.67000835421888,-16.092796092796092,0.09066183136899365
14:54:22.305,12.438,12.53665689149561,41.337907375643226,-50.97417308563661,34.75355054302423,-16.434676434676433,0.09066183136899365
14:54:22.322,12.455,12.68328445747801,41.509433962264154,-50.88355233348437,35.08771929824562,-16.92307692307692,0.09066183136899365
14:54:22.339,12.471,12.829912023460423,41.68096054888508,-50.88355233348437,35.505430242272354,-17.167277167277163,0.09066183136899365
14:54:22.355,12.488,12.976539589442822,41.938250428816474,-50.88355233348437,35.92314118629909,-17.216117216117226,0.1813236627379873
14:54:22.372,12.505,13.049853372434029,42.1097770154374,-50.79293158133213,36.3408521303258,-17.216117216117226,0.271985494106981
14:54:22.389,12.521,13.123167155425236,42.367066895368765,-50.70231082917988,36.675020885547184,-17.216117216117226,0.271985494106981
14:54:22.405,12.538,13.196480938416428,42.53859348198972,-50.61169007702764,36.84210526315789,-17.216117216117226,0.271985494106981
14:54:22.422,12.555,13.269794721407635,42.71012006861065,-50.33982782057091,37.00918964076857,-17.216117216117226,0.271985494106981
14:54:22.439,12.571,13.343108504398842,42.88164665523155,-50.15858631626642,37.09273182957392,-17.216117216117226,0.271985494106981
14:54:22.455,12.588,13.343108504398842,43.053173241852505,-49.97734481196194,37.25981620718463,-17.216117216117226,0.271985494106981
14:54:22.472,12.605,13.416422287390034,43.224699828473405,-49.886724059809694,37.426900584795305,-17.216117216117226,0.3626473254759746
14:54:22.489,12.621,13.416422287390034,43.39622641509433,-49.79610330765746,37.59398496240601,-17.216117216117226,0.45330915684496825
14:54:22.505,12.638,13.489736070381241,43.4819897084048,-49.79610330765746,37.928153717627424,-17.313797313797323,1.4505893019038985
14:54:22.522,12.655,13.489736070381241,43.56775300171526,-49.79610330765746,38.34586466165413,-17.75335775335776,4.623753399818677
14:54:22.539,12.672,13.489736070381241,43.653516295025725,-49.79610330765746,38.84711779448622,-18.241758241758248,9.338168631006347
14:54:22.556,12.688,13.489736070381241,43.653516295025725,-49.79610330765746,39.348370927318285,-18.730158730158735,15.503173164097914
14:54:22.572,12.705,13.489736070381241,43.73927958833619,-49.79610330765746,39.849624060150376,-19.120879120879124,22.212148685403445
14:54:22.589,12.722,13.489736070381241,43.73927958833619,-49.79610330765746,40.10025062656641,-19.21855921855922,27.01722574796011
14:54:22.606,12.738,13.416422287390034,43.73927958833619,-49.61486180335297,40.10025062656641,-19.21855921855922,29.465095194922934
14:54:22.622,12.755,13.269794721407635,43.73927958833619,-49.524241051200725,40.18379281537176,-19.21855921855922,30.82502266545784
14:54:22.639,12.772,13.196480938416428,43.73927958833619,-49.433620299048485,40.18379281537176,-19.26739926739927,31.73164097914778
14:54:22.656,12.788,13.049853372434029,43.73927958833619,-49.252378794744004,40.18379281537176,-19.413919413919416,32.54759746146872
14:54:22.673,12.805,12.976539589442822,43.73927958833619,-49.252378794744004,40.18379281537176,-19.560439560439562,33.00090661831369
