TKDRYU104/lerobot/motor_logs/motor_log_20250617_144611.csv
timestamp,elapsed_time,shoulder_pan.pos,shoulder_lift.pos,elbow_flex.pos,wrist_flex.pos,wrist_roll.pos,gripper.pos
14:46:11.716,0.004,38.48973607038124,-99.48542024013722,99.8187584956955,-99.83291562238931,-19.365079365079367,0.3626473254759746
14:46:11.733,0.020,38.48973607038124,-99.48542024013722,99.8187584956955,-99.83291562238931,-19.365079365079367,0.3626473254759746
14:46:11.750,0.037,38.48973607038124,-99.48542024013722,99.8187584956955,-99.83291562238931,-19.365079365079367,0.3626473254759746
14:46:11.767,0.054,38.48973607038124,-99.48542024013722,99.8187584956955,-99.83291562238931,-19.365079365079367,0.3626473254759746
14:46:11.783,0.070,38.48973607038124,-99.48542024013722,99.8187584956955,-99.83291562238931,-19.365079365079367,0.3626473254759746
14:46:11.800,0.087,38.48973607038124,-99.48542024013722,99.8187584956955,-99.83291562238931,-19.365079365079367,0.3626473254759746
14:46:11.817,0.104,38.48973607038124,-99.48542024013722,99.8187584956955,-99.83291562238931,-19.365079365079367,0.3626473254759746
14:46:11.833,0.120,38.48973607038124,-99.48542024013722,99.8187584956955,-99.83291562238931,-19.365079365079367,0.3626473254759746
14:46:11.850,0.137,38.48973607038124,-99.48542024013722,99.8187584956955,-99.83291562238931,-19.365079365079367,0.3626473254759746
14:46:11.867,0.154,38.48973607038124,-99.48542024013722,99.8187584956955,-99.83291562238931,-19.365079365079367,0.3626473254759746
14:46:11.883,0.171,38.48973607038124,-99.48542024013722,99.8187584956955,-99.83291562238931,-19.365079365079367,0.3626473254759746
14:46:11.900,0.187,38.48973607038124,-99.48542024013722,99.8187584956955,-99.83291562238931,-19.365079365079367,0.3626473254759746
14:46:11.917,0.204,38.48973607038124,-99.48542024013722,99.8187584956955,-99.83291562238931,-19.365079365079367,0.3626473254759746
14:46:11.933,0.221,38.48973607038124,-99.48542024013722,99.8187584956955,-99.83291562238931,-19.365079365079367,0.3626473254759746
14:46:11.950,0.237,38.48973607038124,-99.48542024013722,99.8187584956955,-99.83291562238931,-19.365079365079367,0.3626473254759746
14:46:11.967,0.254,38.48973607038124,-99.48542024013722,99.8187584956955,-99.83291562238931,-19.365079365079367,0.3626473254759746
14:46:11.984,0.271,38.48973607038124,-99.48542024013722,99.8187584956955,-99.83291562238931,-19.365079365079367,0.3626473254759746
14:46:12.000,0.287,38.48973607038124,-99.48542024013722,99.8187584956955,-99.83291562238931,-19.365079365079367,0.3626473254759746
14:46:12.017,0.304,38.48973607038124,-99.48542024013722,99.8187584956955,-99.83291562238931,-19.365079365079367,0.3626473254759746
14:46:12.036,0.323,38.48973607038124,-99.48542024013722,99.8187584956955,-99.83291562238931,-19.365079365079367,0.3626473254759746
14:46:12.053,0.341,38.48973607038124,-99.48542024013722,99.8187584956955,-99.83291562238931,-19.365079365079367,0.3626473254759746
14:46:12.069,0.356,38.48973607038124,-99.48542024013722,99.8187584956955,-99.83291562238931,-19.365079365079367,0.3626473254759746
14:46:12.086,0.373,38.48973607038124,-99.48542024013722,99.8187584956955,-99.83291562238931,-19.365079365079367,0.3626473254759746
14:46:12.103,0.390,38.48973607038124,-99.48542024013722,99.8187584956955,-99.83291562238931,-19.365079365079367,0.3626473254759746
14:46:12.119,0.407,38.48973607038124,-99.48542024013722,99.8187584956955,-99.83291562238931,-19.365079365079367,0.3626473254759746
14:46:12.136,0.423,38.48973607038124,-99.48542024013722,99.8187584956955,-99.83291562238931,-19.365079365079367,0.3626473254759746
14:46:12.153,0.440,38.48973607038124,-99.48542024013722,99.8187584956955,-99.83291562238931,-19.365079365079367,0.3626473254759746
14:46:12.169,0.457,38.48973607038124,-99.48542024013722,99.8187584956955,-99.83291562238931,-19.365079365079367,0.3626473254759746
14:46:12.186,0.473,38.48973607038124,-99.48542024013722,99.8187584956955,-99.83291562238931,-19.365079365079367,0.3626473254759746
14:46:12.203,0.490,38.48973607038124,-99.48542024013722,99.8187584956955,-99.83291562238931,-19.365079365079367,0.3626473254759746
14:46:12.220,0.507,38.48973607038124,-99.48542024013722,99.8187584956955,-99.83291562238931,-19.365079365079367,0.3626473254759746
14:46:12.236,0.523,38.48973607038124,-99.48542024013722,99.8187584956955,-99.83291562238931,-19.365079365079367,0.3626473254759746
14:46:12.253,0.540,38.48973607038124,-99.48542024013722,99.8187584956955,-99.83291562238931,-19.365079365079367,0.3626473254759746
14:46:12.270,0.557,38.48973607038124,-99.48542024013722,99.8187584956955,-99.83291562238931,-19.365079365079367,0.3626473254759746
14:46:12.286,0.573,38.48973607038124,-99.48542024013722,99.8187584956955,-99.83291562238931,-19.365079365079367,0.3626473254759746
14:46:12.303,0.590,38.48973607038124,-99.48542024013722,99.8187584956955,-99.83291562238931,-19.365079365079367,0.3626473254759746
14:46:12.320,0.607,38.48973607038124,-99.48542024013722,99.8187584956955,-99.83291562238931,-19.365079365079367,0.3626473254759746
14:46:12.337,0.624,38.48973607038124,-99.48542024013722,99.8187584956955,-99.83291562238931,-19.365079365079367,0.3626473254759746
14:46:12.353,0.640,38.48973607038124,-99.48542024013722,99.8187584956955,-99.83291562238931,-19.365079365079367,0.3626473254759746
14:46:12.370,0.657,38.48973607038124,-99.48542024013722,99.8187584956955,-99.83291562238931,-19.365079365079367,0.3626473254759746
14:46:12.386,0.674,38.48973607038124,-99.48542024013722,99.8187584956955,-99.83291562238931,-19.365079365079367,0.3626473254759746
14:46:12.403,0.690,38.48973607038124,-99.48542024013722,99.8187584956955,-99.83291562238931,-19.365079365079367,0.3626473254759746
14:46:12.420,0.707,38.48973607038124,-99.48542024013722,99.8187584956955,-99.83291562238931,-19.365079365079367,0.3626473254759746
14:46:12.437,0.724,38.48973607038124,-99.48542024013722,99.8187584956955,-99.83291562238931,-19.365079365079367,0.3626473254759746
14:46:12.453,0.741,38.48973607038124,-99.48542024013722,99.8187584956955,-99.83291562238931,-19.365079365079367,0.3626473254759746
14:46:12.470,0.757,38.48973607038124,-99.48542024013722,99.8187584956955,-99.83291562238931,-19.365079365079367,0.3626473254759746
14:46:12.487,0.774,38.48973607038124,-99.48542024013722,99.8187584956955,-99.83291562238931,-19.365079365079367,0.3626473254759746
14:46:12.503,0.791,38.48973607038124,-99.48542024013722,99.8187584956955,-99.83291562238931,-19.365079365079367,0.3626473254759746
14:46:12.520,0.807,38.48973607038124,-99.48542024013722,99.8187584956955,-99.83291562238931,-19.365079365079367,0.3626473254759746
14:46:12.537,0.824,38.48973607038124,-99.48542024013722,99.8187584956955,-99.83291562238931,-19.365079365079367,0.3626473254759746
14:46:12.554,0.841,38.48973607038124,-99.48542024013722,99.8187584956955,-99.83291562238931,-19.365079365079367,0.3626473254759746
14:46:12.570,0.857,38.48973607038124,-99.48542024013722,99.8187584956955,-99.83291562238931,-19.365079365079367,0.3626473254759746
14:46:12.587,0.874,38.48973607038124,-99.48542024013722,99.8187584956955,-99.83291562238931,-19.365079365079367,0.3626473254759746
14:46:12.604,0.891,38.48973607038124,-99.48542024013722,99.8187584956955,-99.83291562238931,-19.365079365079367,0.3626473254759746
14:46:12.620,0.907,38.48973607038124,-99.48542024013722,99.8187584956955,-99.83291562238931,-19.365079365079367,0.3626473254759746
14:46:12.637,0.924,38.48973607038124,-99.48542024013722,99.8187584956955,-99.83291562238931,-19.365079365079367,0.3626473254759746
14:46:12.654,0.941,38.48973607038124,-99.48542024013722,99.8187584956955,-99.83291562238931,-19.365079365079367,0.3626473254759746
14:46:12.670,0.958,38.48973607038124,-99.48542024013722,99.8187584956955,-99.83291562238931,-19.365079365079367,0.3626473254759746
14:46:12.687,0.974,38.48973607038124,-99.48542024013722,99.8187584956955,-99.83291562238931,-19.365079365079367,0.3626473254759746
14:46:12.704,0.991,38.48973607038124,-99.48542024013722,99.8187584956955,-99.83291562238931,-19.365079365079367,0.3626473254759746
14:46:12.720,1.008,38.48973607038124,-99.48542024013722,99.8187584956955,-99.83291562238931,-19.365079365079367,0.3626473254759746
14:46:12.737,1.024,38.48973607038124,-99.48542024013722,99.8187584956955,-99.83291562238931,-19.365079365079367,0.3626473254759746
14:46:12.754,1.041,38.48973607038124,-99.48542024013722,99.8187584956955,-99.83291562238931,-19.365079365079367,0.3626473254759746
14:46:12.771,1.058,38.48973607038124,-99.48542024013722,99.8187584956955,-99.83291562238931,-19.365079365079367,0.3626473254759746
14:46:12.787,1.074,38.48973607038124,-99.48542024013722,99.8187584956955,-99.83291562238931,-19.365079365079367,0.3626473254759746
14:46:12.804,1.091,38.48973607038124,-99.48542024013722,99.8187584956955,-99.83291562238931,-19.365079365079367,0.3626473254759746
14:46:12.821,1.108,38.48973607038124,-99.48542024013722,99.8187584956955,-99.83291562238931,-19.365079365079367,0.3626473254759746
14:46:12.837,1.125,38.48973607038124,-99.48542024013722,99.8187584956955,-99.83291562238931,-19.365079365079367,0.3626473254759746
14:46:12.854,1.141,38.48973607038124,-99.48542024013722,99.8187584956955,-99.83291562238931,-19.365079365079367,0.3626473254759746
14:46:12.871,1.158,38.48973607038124,-99.48542024013722,99.8187584956955,-99.83291562238931,-19.365079365079367,0.3626473254759746
14:46:12.887,1.175,38.48973607038124,-99.48542024013722,99.8187584956955,-99.83291562238931,-19.804639804639805,0.3626473254759746
14:46:12.904,1.191,38.70967741935485,-99.48542024013722,99.8187584956955,-99.83291562238931,-20.879120879120876,0.271985494106981
14:46:12.921,1.208,38.92961876832845,-99.48542024013722,99.8187584956955,-99.83291562238931,-21.8070818070818,0.1813236627379873
14:46:12.937,1.225,39.002932551319645,-99.48542024013722,99.8187584956955,-99.83291562238931,-22.344322344322336,0.3626473254759746
14:46:12.954,1.241,39.002932551319645,-99.48542024013722,99.8187584956955,-99.83291562238931,-22.490842490842482,0.3626473254759746
14:46:12.971,1.258,39.002932551319645,-99.48542024013722,99.8187584956955,-99.83291562238931,-22.53968253968253,0.3626473254759746
14:46:12.988,1.275,39.002932551319645,-99.48542024013722,99.8187584956955,-99.83291562238931,-22.53968253968253,0.3626473254759746
14:46:13.004,1.291,39.002932551319645,-99.48542024013722,99.8187584956955,-99.83291562238931,-22.53968253968253,0.3626473254759746
14:46:13.021,1.308,39.002932551319645,-99.48542024013722,99.8187584956955,-99.83291562238931,-22.53968253968253,0.3626473254759746
14:46:13.038,1.325,39.002932551319645,-99.48542024013722,99.8187584956955,-99.83291562238931,-22.53968253968253,0.3626473254759746
14:46:13.054,1.341,39.002932551319645,-99.48542024013722,99.8187584956955,-99.83291562238931,-22.53968253968253,0.3626473254759746
14:46:13.094,1.381,39.002932551319645,-99.48542024013722,99.8187584956955,-99.83291562238931,-22.53968253968253,0.3626473254759746
14:46:13.103,1.390,39.002932551319645,-99.48542024013722,99.8187584956955,-99.83291562238931,-22.53968253968253,0.3626473254759746
14:46:13.117,1.404,39.002932551319645,-99.48542024013722,99.8187584956955,-99.83291562238931,-22.53968253968253,0.3626473254759746
14:46:13.134,1.421,39.002932551319645,-99.48542024013722,99.8187584956955,-99.83291562238931,-22.53968253968253,0.3626473254759746
14:46:13.150,1.437,39.002932551319645,-99.48542024013722,99.8187584956955,-99.83291562238931,-22.53968253968253,0.3626473254759746
14:46:13.167,1.454,39.002932551319645,-99.48542024013722,99.8187584956955,-99.83291562238931,-22.53968253968253,0.3626473254759746
14:46:13.184,1.471,39.002932551319645,-99.48542024013722,99.8187584956955,-99.83291562238931,-22.490842490842482,0.3626473254759746
14:46:13.200,1.487,39.002932551319645,-99.48542024013722,99.8187584956955,-99.83291562238931,-22.53968253968253,0.3626473254759746
14:46:13.217,1.504,39.002932551319645,-99.48542024013722,99.8187584956955,-99.83291562238931,-22.53968253968253,0.45330915684496825
14:46:13.234,1.521,39.002932551319645,-99.57118353344768,99.8187584956955,-99.83291562238931,-22.53968253968253,0.543970988213962
14:46:13.250,1.538,39.002932551319645,-99.57118353344768,99.8187584956955,-99.83291562238931,-22.53968253968253,0.9972801450589301
14:46:13.267,1.554,39.002932551319645,-99.57118353344768,99.8187584956955,-99.83291562238931,-22.53968253968253,1.9038984587488668
14:46:13.284,1.571,39.002932551319645,-99.57118353344768,99.8187584956955,-99.83291562238931,-22.490842490842482,2.629193109700816
14:46:13.300,1.588,39.002932551319645,-99.57118353344768,99.8187584956955,-99.83291562238931,-22.442002442002433,3.3544877606527654
14:46:13.317,1.604,39.002932551319645,-99.57118353344768,99.8187584956955,-99.83291562238931,-22.393162393162385,3.9891205802357206
14:46:13.334,1.621,39.002932551319645,-99.57118353344768,99.8187584956955,-99.83291562238931,-22.344322344322336,4.533091568449683
14:46:13.351,1.638,39.002932551319645,-99.57118353344768,99.8187584956955,-99.83291562238931,-22.295482295482287,4.805077062556664
14:46:13.367,1.654,39.002932551319645,-99.57118353344768,99.8187584956955,-99.83291562238931,-22.295482295482287,4.805077062556664
14:46:13.384,1.671,39.002932551319645,-99.57118353344768,99.8187584956955,-99.83291562238931,-22.295482295482287,4.805077062556664
14:46:13.401,1.688,39.002932551319645,-99.57118353344768,99.8187584956955,-99.83291562238931,-22.295482295482287,4.805077062556664
14:46:13.417,1.705,39.002932551319645,-99.57118353344768,99.8187584956955,-99.83291562238931,-22.295482295482287,4.805077062556664
14:46:13.434,1.721,39.002932551319645,-99.57118353344768,99.8187584956955,-99.83291562238931,-22.295482295482287,4.805077062556664
14:46:13.451,1.738,39.002932551319645,-99.57118353344768,99.8187584956955,-99.83291562238931,-22.442002442002433,4.805077062556664
14:46:13.468,1.755,39.002932551319645,-99.57118353344768,99.8187584956955,-99.83291562238931,-22.53968253968253,4.805077062556664
14:46:13.484,1.771,39.002932551319645,-99.57118353344768,99.8187584956955,-99.83291562238931,-22.53968253968253,4.805077062556664
14:46:13.501,1.788,39.002932551319645,-99.57118353344768,99.8187584956955,-99.83291562238931,-22.53968253968253,4.805077062556664
14:46:13.518,1.805,39.002932551319645,-99.57118353344768,99.8187584956955,-99.83291562238931,-22.53968253968253,4.805077062556664
14:46:13.534,1.821,39.002932551319645,-99.57118353344768,99.8187584956955,-99.83291562238931,-22.53968253968253,4.805077062556664
14:46:13.551,1.838,39.002932551319645,-99.57118353344768,99.8187584956955,-99.83291562238931,-22.53968253968253,4.805077062556664
14:46:13.568,1.855,39.002932551319645,-99.57118353344768,99.8187584956955,-99.83291562238931,-22.53968253968253,4.805077062556664
14:46:13.584,1.871,39.002932551319645,-99.57118353344768,99.8187584956955,-99.83291562238931,-22.53968253968253,4.805077062556664
14:46:13.601,1.888,39.002932551319645,-99.57118353344768,99.8187584956955,-99.83291562238931,-22.53968253968253,4.805077062556664
14:46:13.618,1.905,39.002932551319645,-99.57118353344768,99.8187584956955,-99.83291562238931,-22.53968253968253,4.805077062556664
14:46:13.634,1.922,39.002932551319645,-99.57118353344768,99.8187584956955,-99.83291562238931,-22.53968253968253,4.805077062556664
14:46:13.651,1.938,39.002932551319645,-99.57118353344768,99.8187584956955,-99.83291562238931,-22.53968253968253,4.805077062556664
14:46:13.668,1.955,38.92961876832845,-99.57118353344768,99.8187584956955,-99.83291562238931,-22.53968253968253,4.805077062556664
14:46:13.685,1.972,38.92961876832845,-99.57118353344768,99.8187584956955,-99.83291562238931,-22.53968253968253,4.805077062556664
14:46:13.701,1.988,38.92961876832845,-99.57118353344768,99.8187584956955,-99.83291562238931,-22.53968253968253,4.805077062556664
14:46:13.718,2.005,38.92961876832845,-99.57118353344768,99.8187584956955,-99.83291562238931,-22.53968253968253,4.805077062556664
14:46:13.735,2.022,38.92961876832845,-99.57118353344768,99.8187584956955,-99.83291562238931,-22.53968253968253,4.805077062556664
14:46:13.751,2.038,39.002932551319645,-99.57118353344768,99.8187584956955,-99.83291562238931,-22.53968253968253,4.805077062556664
14:46:13.768,2.055,39.002932551319645,-99.57118353344768,99.8187584956955,-99.83291562238931,-22.53968253968253,4.805077062556664
14:46:13.785,2.072,39.002932551319645,-99.57118353344768,99.8187584956955,-99.83291562238931,-22.53968253968253,4.805077062556664
14:46:13.801,2.089,39.002932551319645,-99.57118353344768,99.8187584956955,-99.83291562238931,-22.53968253968253,4.805077062556664
14:46:13.818,2.105,39.002932551319645,-99.57118353344768,99.8187584956955,-99.83291562238931,-22.53968253968253,4.805077062556664
14:46:13.835,2.122,39.002932551319645,-99.57118353344768,99.8187584956955,-99.83291562238931,-22.53968253968253,4.805077062556664
14:46:13.852,2.139,39.002932551319645,-99.57118353344768,99.8187584956955,-99.83291562238931,-22.53968253968253,4.805077062556664
14:46:13.868,2.155,39.002932551319645,-99.57118353344768,99.8187584956955,-99.83291562238931,-22.53968253968253,4.805077062556664
14:46:13.885,2.172,39.002932551319645,-99.57118353344768,99.8187584956955,-99.83291562238931,-22.53968253968253,4.805077062556664
14:46:13.902,2.189,39.002932551319645,-99.57118353344768,99.8187584956955,-99.83291562238931,-22.53968253968253,4.805077062556664
14:46:13.918,2.205,39.002932551319645,-99.57118353344768,99.8187584956955,-99.83291562238931,-22.53968253968253,4.805077062556664
14:46:13.935,2.222,39.002932551319645,-99.57118353344768,99.8187584956955,-99.83291562238931,-22.53968253968253,4.805077062556664
14:46:13.952,2.239,39.002932551319645,-99.57118353344768,99.8187584956955,-99.83291562238931,-22.53968253968253,4.805077062556664
14:46:13.968,2.256,39.002932551319645,-99.57118353344768,99.8187584956955,-99.83291562238931,-22.53968253968253,4.805077062556664
14:46:13.985,2.272,39.002932551319645,-99.57118353344768,99.8187584956955,-99.83291562238931,-22.53968253968253,4.805077062556664
14:46:14.002,2.289,39.002932551319645,-99.57118353344768,99.8187584956955,-99.83291562238931,-22.53968253968253,4.805077062556664
14:46:14.019,2.306,39.002932551319645,-99.57118353344768,99.8187584956955,-99.83291562238931,-22.53968253968253,4.805077062556664
14:46:14.035,2.322,39.002932551319645,-99.57118353344768,99.8187584956955,-99.83291562238931,-22.53968253968253,4.805077062556664
14:46:14.052,2.339,39.002932551319645,-99.57118353344768,99.8187584956955,-99.83291562238931,-22.53968253968253,4.805077062556664
14:46:14.069,2.356,39.002932551319645,-99.57118353344768,99.8187584956955,-99.83291562238931,-22.53968253968253,4.805077062556664
14:46:14.085,2.372,39.002932551319645,-99.57118353344768,99.8187584956955,-99.83291562238931,-22.53968253968253,4.805077062556664
14:46:14.102,2.389,39.002932551319645,-99.57118353344768,99.8187584956955,-99.83291562238931,-22.53968253968253,4.805077062556664
14:46:14.119,2.406,39.002932551319645,-99.57118353344768,99.8187584956955,-99.83291562238931,-22.53968253968253,4.805077062556664
14:46:14.135,2.423,39.002932551319645,-99.57118353344768,99.8187584956955,-99.83291562238931,-22.53968253968253,4.805077062556664
14:46:14.152,2.439,39.002932551319645,-99.57118353344768,99.8187584956955,-99.83291562238931,-22.53968253968253,4.805077062556664
14:46:14.169,2.456,39.002932551319645,-99.57118353344768,99.8187584956955,-99.83291562238931,-22.53968253968253,4.805077062556664
14:46:14.185,2.473,39.002932551319645,-99.57118353344768,99.8187584956955,-99.83291562238931,-22.53968253968253,4.805077062556664
14:46:14.202,2.489,39.002932551319645,-99.57118353344768,99.8187584956955,-99.83291562238931,-22.53968253968253,4.805077062556664
14:46:14.219,2.506,39.002932551319645,-99.57118353344768,99.8187584956955,-99.83291562238931,-22.53968253968253,4.805077062556664
14:46:14.236,2.523,39.002932551319645,-99.57118353344768,99.8187584956955,-99.83291562238931,-22.53968253968253,4.805077062556664
14:46:14.252,2.539,39.002932551319645,-99.57118353344768,99.8187584956955,-99.83291562238931,-22.53968253968253,4.805077062556664
14:46:14.269,2.556,39.002932551319645,-99.57118353344768,99.8187584956955,-99.83291562238931,-22.53968253968253,4.805077062556664
14:46:14.286,2.573,39.002932551319645,-99.57118353344768,99.8187584956955,-99.83291562238931,-22.53968253968253,4.805077062556664
14:46:14.302,2.590,39.002932551319645,-99.57118353344768,99.8187584956955,-99.83291562238931,-22.53968253968253,4.805077062556664
14:46:14.319,2.606,39.002932551319645,-99.57118353344768,99.8187584956955,-99.83291562238931,-22.53968253968253,4.805077062556664
14:46:14.336,2.623,39.002932551319645,-99.57118353344768,99.8187584956955,-99.83291562238931,-22.53968253968253,4.805077062556664
14:46:14.352,2.639,39.002932551319645,-99.57118353344768,99.8187584956955,-99.83291562238931,-22.53968253968253,4.805077062556664
14:46:14.369,2.656,39.002932551319645,-99.57118353344768,99.8187584956955,-99.83291562238931,-22.53968253968253,4.805077062556664
14:46:14.386,2.673,39.002932551319645,-99.57118353344768,99.8187584956955,-99.83291562238931,-22.53968253968253,4.805077062556664
14:46:14.402,2.690,39.002932551319645,-99.57118353344768,99.8187584956955,-99.83291562238931,-22.53968253968253,4.805077062556664
14:46:14.419,2.706,39.002932551319645,-99.57118353344768,99.8187584956955,-99.83291562238931,-22.53968253968253,4.805077062556664
14:46:14.436,2.723,39.002932551319645,-99.57118353344768,99.8187584956955,-99.83291562238931,-22.53968253968253,4.805077062556664
14:46:14.453,2.740,39.002932551319645,-99.57118353344768,99.8187584956955,-99.83291562238931,-22.53968253968253,4.805077062556664
14:46:14.469,2.756,39.002932551319645,-99.57118353344768,99.8187584956955,-99.83291562238931,-22.53968253968253,4.805077062556664
14:46:14.486,2.773,39.002932551319645,-99.57118353344768,99.8187584956955,-99.83291562238931,-22.53968253968253,4.805077062556664
14:46:14.503,2.790,39.002932551319645,-99.57118353344768,99.8187584956955,-99.83291562238931,-22.53968253968253,4.805077062556664
14:46:14.519,2.806,39.002932551319645,-99.57118353344768,99.8187584956955,-99.83291562238931,-22.53968253968253,4.805077062556664
14:46:14.536,2.823,39.002932551319645,-99.57118353344768,99.8187584956955,-99.83291562238931,-22.53968253968253,4.805077062556664
14:46:14.553,2.840,39.002932551319645,-99.57118353344768,99.8187584956955,-99.83291562238931,-22.53968253968253,4.805077062556664
14:46:14.569,2.857,39.002932551319645,-99.57118353344768,99.8187584956955,-99.83291562238931,-22.53968253968253,4.805077062556664
14:46:14.586,2.873,39.002932551319645,-99.57118353344768,99.8187584956955,-99.83291562238931,-22.53968253968253,4.805077062556664
14:46:14.603,2.890,39.002932551319645,-99.57118353344768,99.8187584956955,-99.83291562238931,-22.53968253968253,4.805077062556664
14:46:14.619,2.907,39.002932551319645,-99.57118353344768,99.8187584956955,-99.83291562238931,-22.53968253968253,4.805077062556664
14:46:14.636,2.923,39.002932551319645,-99.57118353344768,99.8187584956955,-99.83291562238931,-22.53968253968253,4.805077062556664
14:46:14.653,2.940,38.92961876832845,-99.57118353344768,99.8187584956955,-99.83291562238931,-22.53968253968253,4.805077062556664
14:46:14.670,2.957,38.92961876832845,-99.57118353344768,99.8187584956955,-99.83291562238931,-22.53968253968253,4.805077062556664
14:46:14.686,2.973,38.85630498533726,-99.57118353344768,99.8187584956955,-99.83291562238931,-22.53968253968253,4.805077062556664
14:46:14.703,2.990,38.78299120234604,-99.57118353344768,99.8187584956955,-99.83291562238931,-22.53968253968253,4.805077062556664
14:46:14.720,3.007,38.70967741935485,-99.57118353344768,99.8187584956955,-99.83291562238931,-22.53968253968253,4.805077062556664
14:46:14.736,3.023,38.636363636363654,-99.57118353344768,99.8187584956955,-99.83291562238931,-22.53968253968253,4.805077062556664
14:46:14.753,3.040,38.636363636363654,-99.57118353344768,99.8187584956955,-99.83291562238931,-22.53968253968253,4.805077062556664
14:46:14.770,3.057,38.636363636363654,-99.57118353344768,99.8187584956955,-99.83291562238931,-22.53968253968253,4.805077062556664
14:46:14.786,3.074,38.636363636363654,-99.57118353344768,99.8187584956955,-99.83291562238931,-22.53968253968253,4.805077062556664
14:46:14.803,3.090,38.56304985337243,-99.57118353344768,99.8187584956955,-99.83291562238931,-22.490842490842482,4.805077062556664
14:46:14.820,3.107,38.56304985337243,-99.57118353344768,99.8187584956955,-99.83291562238931,-22.344322344322336,4.805077062556664
14:46:14.837,3.124,38.56304985337243,-99.57118353344768,99.8187584956955,-99.83291562238931,-22.295482295482287,4.805077062556664
14:46:14.853,3.141,38.56304985337243,-99.57118353344768,99.8187584956955,-99.83291562238931,-22.295482295482287,4.805077062556664
14:46:14.870,3.157,38.56304985337243,-99.57118353344768,99.8187584956955,-99.74937343358395,-22.24664224664224,4.623753399818677
14:46:14.887,3.174,38.56304985337243,-99.57118353344768,99.8187584956955,-99.58228905597326,-22.24664224664224,4.533091568449683
14:46:14.903,3.190,38.48973607038124,-99.57118353344768,99.8187584956955,-99.58228905597326,-22.24664224664224,4.533091568449683
14:46:14.920,3.207,38.269794721407635,-99.57118353344768,99.8187584956955,-99.58228905597326,-22.24664224664224,4.4424297370806896
14:46:14.937,3.224,38.04985337243403,-99.57118353344768,99.8187584956955,-99.49874686716792,-22.14896214896214,4.4424297370806896
14:46:14.953,3.240,37.82991202346042,-99.57118353344768,99.8187584956955,-99.41520467836257,-22.051282051282044,4.4424297370806896
14:46:14.970,3.257,37.463343108504375,-99.57118353344768,99.72813774354327,-99.33166248955723,-21.85592185592185,4.4424297370806896
14:46:14.987,3.274,37.096774193548384,-99.57118353344768,99.54689623923878,-99.08103592314119,-21.611721611721606,4.4424297370806896
14:46:15.004,3.291,36.43695014662757,-99.57118353344768,99.18441323062981,-98.7468671679198,-21.221001221001217,4.4424297370806896
14:46:15.020,3.307,35.70381231671553,-99.57118353344768,98.82193022202082,-98.24561403508773,-20.73260073260073,4.4424297370806896
14:46:15.037,3.324,34.824046920821104,-99.57118353344768,98.2782057091074,-97.6608187134503,-20.097680097680097,4.4424297370806896
14:46:15.054,3.341,33.79765395894427,-99.57118353344768,97.55323969188944,-96.99248120300751,-19.413919413919416,4.4424297370806896
14:46:15.070,3.357,32.77126099706743,-99.57118353344768,96.73765292251926,-96.15705931495405,-18.730158730158735,4.4424297370806896
14:46:15.087,3.374,31.74486803519062,-99.57118353344768,95.83144540099681,-95.32163742690058,-18.095238095238102,4.4424297370806896
14:46:15.104,3.391,31.74486803519062,-99.39965694682675,94.83461712732216,-94.56975772765246,-17.75335775335776,4.4424297370806896
14:46:15.120,3.407,31.818181818181813,-99.48542024013722,93.74716810149525,-93.40016708437761,-17.75335775335776,4.4424297370806896
14:46:15.137,3.424,31.818181818181813,-99.57118353344768,92.65971907566833,-92.39766081871345,-17.704517704517713,4.4424297370806896
14:46:15.154,3.441,31.818181818181813,-99.57118353344768,91.57227004984142,-91.56223893065999,-17.655677655677664,4.4424297370806896
14:46:15.171,3.458,31.818181818181813,-99.57118353344768,90.48482102401451,-90.64327485380117,-17.606837606837615,4.4424297370806896
14:46:15.187,3.474,31.818181818181813,-99.57118353344768,89.30675124603533,-89.8078529657477,-17.606837606837615,4.4424297370806896
14:46:15.204,3.491,31.818181818181813,-99.57118353344768,88.21930222020842,-88.97243107769424,-17.606837606837615,4.4424297370806896
14:46:15.221,3.508,31.818181818181813,-99.57118353344768,87.1318531943815,-88.22055137844612,-17.606837606837615,4.4424297370806896
14:46:15.237,3.525,31.818181818181813,-99.57118353344768,85.95378341640236,-87.468671679198,-17.606837606837615,4.4424297370806896
14:46:15.254,3.541,31.818181818181813,-99.57118353344768,84.77571363842321,-86.71679197994987,-17.606837606837615,4.4424297370806896
14:46:15.271,3.558,31.818181818181813,-99.57118353344768,83.59764386044404,-85.96491228070175,-17.606837606837615,4.4424297370806896
14:46:15.287,3.575,31.818181818181813,-99.57118353344768,82.51019483461712,-85.21303258145363,-17.606837606837615,4.4424297370806896
14:46:15.304,3.591,31.818181818181813,-99.57118353344768,81.33212505663795,-84.46115288220551,-17.606837606837615,4.4424297370806896
14:46:15.321,3.608,31.818181818181813,-99.57118353344768,80.15405527865883,-83.79281537176274,-17.606837606837615,4.4424297370806896
14:46:15.340,3.627,31.818181818181813,-99.57118353344768,78.79474399637516,-83.04093567251462,-17.606837606837615,4.4424297370806896
14:46:15.360,3.647,31.818181818181813,-99.57118353344768,77.34481196193929,-82.12197159565581,-17.606837606837615,4.4424297370806896
14:46:15.377,3.664,31.74486803519062,-99.48542024013722,76.16674218396014,-81.53717627401838,-17.606837606837615,4.4424297370806896
14:46:15.393,3.680,31.74486803519062,-99.48542024013722,74.98867240598096,-80.86883876357561,-17.606837606837615,4.4424297370806896
14:46:15.410,3.697,31.74486803519062,-99.48542024013722,73.90122338015405,-80.11695906432749,-17.606837606837615,4.4424297370806896
14:46:15.427,3.714,31.74486803519062,-99.48542024013722,72.7231536021749,-79.44862155388472,-17.606837606837615,4.4424297370806896
14:46:15.443,3.730,31.74486803519062,-99.48542024013722,71.72632532850022,-78.78028404344194,-17.606837606837615,4.4424297370806896
14:46:15.460,3.747,31.74486803519062,-99.48542024013722,70.63887630267331,-78.02840434419382,-17.606837606837615,4.4424297370806896
14:46:15.477,3.764,31.74486803519062,-99.48542024013722,69.5514272768464,-77.36006683375105,-17.606837606837615,4.4424297370806896
14:46:15.493,3.781,31.74486803519062,-99.48542024013722,68.55459900317175,-76.69172932330827,-17.606837606837615,4.4424297370806896
14:46:15.510,3.797,31.74486803519062,-99.48542024013722,67.55777072949704,-76.0233918128655,-17.606837606837615,4.4424297370806896
14:46:15.527,3.814,31.74486803519062,-99.48542024013722,66.56094245582238,-75.43859649122807,-17.606837606837615,4.4424297370806896
14:46:15.544,3.831,31.74486803519062,-99.48542024013722,65.7453556864522,-74.7702589807853,-17.606837606837615,4.4424297370806896
14:46:15.560,3.847,31.74486803519062,-99.48542024013722,64.83914816492978,-74.26900584795322,-17.606837606837615,4.4424297370806896
14:46:15.577,3.864,31.6715542521994,-99.39965694682675,63.932940643407335,-73.93483709273184,-17.606837606837615,4.4424297370806896
14:46:15.594,3.881,31.598240469208207,-99.31389365351629,63.11735387403715,-73.5171261487051,-17.606837606837615,4.4424297370806896
14:46:15.610,3.897,31.524926686217015,-99.31389365351629,62.301767104666965,-73.09941520467837,-17.606837606837615,4.4424297370806896
14:46:15.627,3.914,31.451612903225794,-99.22813036020584,61.48618033529678,-72.76524644945698,-17.606837606837615,4.4424297370806896
14:46:15.644,3.931,31.451612903225794,-99.22813036020584,60.76121431807883,-72.34753550543024,-17.606837606837615,4.4424297370806896
14:46:15.661,3.948,31.451612903225794,-99.22813036020584,59.94562754870864,-71.9298245614035,-17.606837606837615,4.4424297370806896
14:46:15.677,3.964,31.451612903225794,-99.22813036020584,59.130040779338486,-71.42857142857143,-17.606837606837615,4.4424297370806896
14:46:15.694,3.981,31.3782991202346,-99.14236706689537,58.31445400996827,-71.0108604845447,-17.606837606837615,4.4424297370806896
14:46:15.711,3.998,31.231671554252188,-98.97084048027445,57.31762573629362,-70.59314954051797,-17.557997557997567,4.4424297370806896
14:46:15.727,4.014,31.085043988269803,-98.88507718696398,56.502038966923436,-70.09189640768588,-17.46031746031747,4.4424297370806896
14:46:15.744,4.031,30.93841642228739,-98.79931389365352,55.505210693248756,-69.50710108604846,-17.362637362637372,4.4424297370806896
14:46:15.761,4.048,30.791788856304976,-98.71355060034305,54.59900317172634,-68.92230576441102,-17.264957264957275,4.4424297370806896
14:46:15.777,4.065,30.718475073313783,-98.54202401372213,53.511554145899396,-68.25396825396825,-17.069597069597066,4.4424297370806896
14:46:15.794,4.081,30.351906158357764,-98.3704974271012,52.42410512007248,-67.66917293233084,-16.825396825396822,4.4424297370806896
14:46:15.811,4.098,30.058651026392965,-98.11320754716981,51.246035342093336,-67.0843776106934,-16.58119658119658,4.4424297370806896
14:46:15.827,4.115,29.618768328445753,-97.77015437392797,50.15858631626642,-66.41604010025063,-16.288156288156287,4.4424297370806896
14:46:15.844,4.131,29.10557184750732,-97.51286449399657,48.88989578613504,-65.83124477861321,-15.946275946275946,4.4424297370806896
14:46:15.861,4.148,28.73900293255133,-97.25557461406518,47.71182600815587,-65.07936507936509,-15.750915750915752,4.4424297370806896
14:46:15.878,4.165,28.519061583577695,-97.08404802744425,46.624376982328954,-64.16040100250626,-15.555555555555557,4.4424297370806896
14:46:15.894,4.181,28.225806451612897,-96.91252144082333,45.44630720434978,-63.40852130325815,-15.262515262515265,4.4424297370806896
14:46:15.911,4.198,27.639296187683286,-96.7409948542024,44.358858178522866,-62.65664160401003,-14.871794871794876,4.4424297370806896
14:46:15.928,4.215,26.832844574780054,-96.483704974271,43.18078840054375,-61.904761904761905,-14.432234432234438,4.4424297370806896
14:46:15.944,4.231,26.319648093841636,-96.31217838765009,42.18396012686904,-61.06934001670844,-14.139194139194146,4.4424297370806896
14:46:15.961,4.248,26.026392961876837,-96.22641509433963,41.096511101042125,-60.06683375104428,-13.894993894993888,4.4424297370806896
14:46:15.978,4.265,25.733137829912025,-96.14065180102916,40.099682827367474,-59.06432748538012,-13.699633699633694,4.4424297370806896
14:46:15.994,4.282,25.219941348973606,-96.14065180102916,39.102854553692794,-58.06182121971596,-13.357753357753353,4.4424297370806896
14:46:16.011,4.298,24.340175953079182,-96.0548885077187,38.19664703217035,-56.975772765246454,-12.820512820512818,4.4424297370806896
14:46:16.028,4.315,23.753665689149557,-96.0548885077187,37.10919800634343,-55.88972431077694,-12.283272283272282,4.4424297370806896
14:46:16.044,4.332,23.53372434017595,-96.0548885077187,36.11236973266878,-54.803675856307436,-12.087912087912088,4.4424297370806896
14:46:16.061,4.348,23.38709677419355,-96.0548885077187,35.1155414589941,-53.71762740183793,-11.892551892551893,4.4424297370806896
14:46:16.078,4.365,22.653958944281527,-95.96912521440824,34.11871318531945,-52.631578947368425,-11.404151404151406,4.4424297370806896
14:46:16.095,4.382,21.920821114369502,-95.96912521440824,33.12188491164477,-51.54553049289892,-10.915750915750905,4.4424297370806896
14:46:16.111,4.399,21.700879765395896,-95.96912521440824,32.12505663797009,-50.45948203842941,-10.76923076923076,4.4424297370806896
14:46:16.128,4.415,21.554252199413497,-95.96912521440824,31.12822836429544,-49.45697577276525,-10.622710622710613,4.4424297370806896
14:46:16.145,4.432,20.967741935483872,-95.96912521440824,30.040779338468525,-48.45446950710108,-10.231990231990224,4.4424297370806896
14:46:16.161,4.448,20.307917888563054,-95.96912521440824,29.134571816946078,-47.36842105263158,-9.890109890109883,4.4424297370806896
14:46:16.178,4.465,20.161290322580655,-95.96912521440824,28.047122791119165,-46.36591478696742,-9.792429792429786,4.4424297370806896
14:46:16.195,4.482,20.01466275659824,-95.88336192109777,27.0502945174445,-45.4469507101086,-9.743589743589737,4.4424297370806896
14:46:16.212,4.499,19.501466275659823,-95.88336192109777,26.053466243769833,-44.527986633249796,-9.450549450549445,4.4424297370806896
14:46:16.228,4.515,19.134897360703818,-95.88336192109777,24.96601721794292,-43.609022556390975,-9.25518925518925,4.4424297370806896
14:46:16.245,4.532,18.98826979472142,-95.88336192109777,23.878568192116006,-42.606516290726816,-9.25518925518925,4.4424297370806896
14:46:16.261,4.549,18.768328445747812,-95.88336192109777,22.97236067059356,-41.68755221386801,-9.157509157509153,4.4424297370806896
14:46:16.278,4.565,18.401759530791793,-95.88336192109777,21.884911644766646,-40.76858813700919,-9.010989010989007,4.4424297370806896
14:46:16.295,4.582,18.255131964809394,-95.88336192109777,20.797462618939733,-39.93316624895572,-9.010989010989007,4.4424297370806896
14:46:16.312,4.599,18.10850439882698,-95.88336192109777,19.71001359311282,-39.097744360902254,-9.010989010989007,4.4424297370806896
14:46:16.328,4.616,17.815249266862182,-95.88336192109777,18.622564567285906,-38.17878028404345,-9.010989010989007,4.4424297370806896
14:46:16.345,4.632,17.595307917888576,-95.79759862778731,17.62573629361124,-37.42690058479532,-8.962148962148959,4.4424297370806896
14:46:16.362,4.649,17.448680351906162,-95.79759862778731,16.538287267784327,-36.50793650793651,-8.962148962148959,4.4424297370806896
14:46:16.379,4.666,17.302052785923763,-95.79759862778731,15.360217489805166,-35.672514619883046,-8.962148962148959,4.4424297370806896
14:46:16.395,4.682,17.082111436950157,-95.79759862778731,14.182147711826005,-34.586466165413526,-8.962148962148959,4.4424297370806896
14:46:16.412,4.699,16.935483870967744,-95.79759862778731,12.822836429542363,-33.500417710944035,-8.962148962148959,4.4424297370806896
14:46:16.429,4.716,16.788856304985345,-95.79759862778731,11.463525147258721,-32.330827067669176,-8.962148962148959,4.4424297370806896
14:46:16.445,4.733,16.56891495601174,-95.79759862778731,10.194834617127313,-31.077694235588964,-8.962148962148959,4.4424297370806896
14:46:16.462,4.749,16.495601173020532,-95.79759862778731,8.744902582691424,-29.82456140350878,-8.962148962148959,4.4424297370806896
14:46:16.479,4.766,16.275659824046926,-95.79759862778731,7.294970548255549,-28.48788638262323,-8.962148962148959,4.4424297370806896
14:46:16.496,4.783,16.129032258064527,-95.79759862778731,5.754417761667426,-27.23475355054302,-8.962148962148959,4.4424297370806896
14:46:16.512,4.800,15.90909090909092,-95.79759862778731,4.213864975079289,-25.81453634085213,-8.962148962148959,4.4424297370806896
14:46:16.529,4.816,15.762463343108507,-95.79759862778731,2.673312188491167,-24.39431913116124,-8.962148962148959,4.4424297370806896
14:46:16.546,4.833,15.542521994134901,-95.79759862778731,1.0421386497507967,-22.890559732664997,-8.962148962148959,4.4424297370806896
14:46:16.563,4.850,15.395894428152502,-95.79759862778731,-0.49841413683734004,-21.303258145363415,-8.962148962148959,4.4424297370806896
14:46:16.579,4.866,15.175953079178896,-95.79759862778731,-2.2202084277299576,-19.63241436925648,-8.91330891330891,4.4424297370806896
14:46:16.596,4.883,14.95601173020529,-95.79759862778731,-4.0326234707748085,-17.878028404344192,-8.815628815628813,4.4424297370806896
14:46:16.612,4.900,14.809384164222877,-95.79759862778731,-5.845038513819674,-16.29072681704261,-8.766788766788764,4.4424297370806896
14:46:16.629,4.916,14.58944281524927,-95.79759862778731,-7.657453556864525,-14.452798663324984,-8.717948717948715,4.4424297370806896
14:46:16.646,4.933,14.442815249266872,-95.79759862778731,-9.379247847757128,-12.698412698412696,-8.669108669108667,4.4424297370806896
14:46:16.663,4.950,14.296187683284472,-95.79759862778731,-11.28228364295424,-10.860484544695069,-8.620268620268618,4.4424297370806896
14:46:16.679,4.966,14.149560117302059,-95.79759862778731,-13.004077933846844,-9.106098579782795,-8.620268620268618,4.4424297370806896
14:46:16.696,4.983,14.00293255131966,-95.79759862778731,-14.816492976891709,-7.5187969924811995,-8.620268620268618,4.4424297370806896
14:46:16.713,5.000,13.782991202346054,-95.79759862778731,-16.44766651563208,-5.931495405179618,-8.620268620268618,4.4424297370806896
14:46:16.729,5.016,13.709677419354847,-95.79759862778731,-17.897598550067954,-4.511278195488728,-8.620268620268618,4.4424297370806896
14:46:16.746,5.033,13.563049853372448,-95.79759862778731,-19.52877208880834,-3.2581453634085307,-8.620268620268618,4.4424297370806896
14:46:16.763,5.050,13.416422287390034,-95.79759862778731,-20.978704123244214,-2.005012531328319,-8.620268620268618,4.4424297370806896
14:46:16.779,5.066,13.343108504398842,-95.79759862778731,-22.428636157680103,-0.9189640768588134,-8.620268620268618,4.4424297370806896
14:46:16.796,5.083,13.196480938416428,-95.79759862778731,-23.78794743996376,0.08354218880535313,-8.620268620268618,4.4424297370806896
14:46:16.813,5.100,13.049853372434029,-95.79759862778731,-25.147258722247386,1.0025062656641666,-8.620268620268618,4.4424297370806896
14:46:16.830,5.117,12.829912023460423,-95.79759862778731,-26.325328500226547,1.754385964912288,-8.620268620268618,4.4424297370806896
14:46:16.846,5.133,12.68328445747801,-95.79759862778731,-27.503398278205708,2.5062656641604093,-8.620268620268618,4.4424297370806896
14:46:16.863,5.150,12.53665689149561,-95.79759862778731,-28.68146805618487,3.1746031746031917,-8.620268620268618,4.4424297370806896
14:46:16.880,5.167,12.31671554252199,-95.79759862778731,-29.859537834164016,3.759398496240607,-8.620268620268618,4.4424297370806896
14:46:16.896,5.183,12.09677419354837,-95.79759862778731,-30.94698685999093,4.344193817878022,-8.620268620268618,4.4424297370806896
14:46:16.913,5.200,11.950146627565971,-95.79759862778731,-32.03443588581784,4.845446950710112,-8.620268620268618,4.4424297370806896
14:46:16.930,5.217,11.803519061583572,-95.79759862778731,-33.121884911644756,5.263157894736835,-8.620268620268618,4.4424297370806896
14:46:16.946,5.234,11.656891495601158,-95.79759862778731,-34.20933393747168,5.680868838763573,-8.57142857142857,4.4424297370806896
14:46:16.963,5.250,11.583577712609966,-95.79759862778731,-35.2967829632986,6.09857978279031,-8.57142857142857,4.4424297370806896
14:46:16.980,5.267,11.510263929618759,-95.79759862778731,-36.29361123697327,6.432748538011708,-8.57142857142857,4.4424297370806896
14:46:16.996,5.284,11.436950146627552,-95.79759862778731,-37.199818758495695,6.683375104427739,-8.57142857142857,4.4424297370806896
14:46:17.013,5.300,11.36363636363636,-95.79759862778731,-38.196647032170375,6.93400167084377,-8.57142857142857,4.4424297370806896
14:46:17.030,5.317,11.217008797653946,-95.79759862778731,-39.19347530584504,7.18462823725983,-8.57142857142857,4.4424297370806896
14:46:17.046,5.334,11.070381231671547,-95.79759862778731,-40.190303579519714,7.518796992481214,-8.57142857142857,4.4424297370806896
14:46:17.063,5.350,10.99706744868034,-95.79759862778731,-41.36837335749887,7.936507936507937,-8.57142857142857,4.4424297370806896
14:46:17.080,5.367,10.850439882697941,-95.79759862778731,-42.45582238332578,8.52130325814538,-8.57142857142857,4.4424297370806896
14:46:17.097,5.384,10.703812316715528,-95.79759862778731,-43.63389216130494,9.189640768588148,-8.57142857142857,4.4424297370806896
14:46:17.113,5.400,10.630498533724335,-95.71183533447685,-44.90258269143634,10.025062656641609,-8.57142857142857,4.4424297370806896
14:46:17.130,5.417,10.41055718475073,-95.71183533447685,-46.0806524694155,10.77694235588973,-8.424908424908423,4.4424297370806896
14:46:17.147,5.434,10.337243401759522,-95.71183533447685,-47.25872224739466,11.695906432748544,-8.18070818070818,4.4424297370806896
14:46:17.163,5.450,10.190615835777123,-95.71183533447685,-48.34617127322157,12.614870509607343,-7.887667887667888,4.4424297370806896
14:46:17.180,5.467,10.04398826979471,-95.71183533447685,-49.524241051200725,13.53383458646617,-7.594627594627596,4.4424297370806896
14:46:17.197,5.484,9.89736070381231,-95.71183533447685,-50.61169007702764,14.452798663324984,-7.399267399267401,4.4424297370806896
14:46:17.213,5.500,9.750733137829897,-95.71183533447685,-51.69913910285455,15.288220551378444,-7.252747252747255,4.4424297370806896
14:46:17.230,5.517,9.604105571847498,-95.71183533447685,-52.786588128681466,16.12364243943192,-7.106227106227109,4.4424297370806896
14:46:17.247,5.534,9.530791788856291,-95.71183533447685,-53.78341640235614,16.95906432748538,-7.008547008547012,4.4424297370806896
14:46:17.264,5.551,9.384164222873892,-95.71183533447685,-54.78024467603081,17.794486215538853,-6.959706959706963,4.4424297370806896
14:46:17.280,5.567,9.237536656891493,-95.71183533447685,-55.68645219755324,18.546365914786975,-6.910866910866915,4.4424297370806896
14:46:17.297,5.584,9.164222873900286,-95.71183533447685,-56.68328047122791,19.381787802840435,-6.910866910866915,4.4424297370806896
14:46:17.314,5.601,9.09090909090908,-95.71183533447685,-57.68010874490258,20.21720969089391,-6.862026862026866,4.4424297370806896
14:46:17.330,5.618,8.94428152492668,-95.71183533447685,-58.67693701857725,21.136173767752723,-6.862026862026866,4.4424297370806896
14:46:17.347,5.634,8.870967741935473,-95.71183533447685,-59.76438604440417,22.138680033416875,-6.862026862026866,4.4424297370806896
14:46:17.364,5.651,8.797653958944267,-95.71183533447685,-60.85183507023108,23.224728487886395,-6.862026862026866,4.4424297370806896
14:46:17.380,5.667,8.724340175953074,-95.71183533447685,-61.939284096057996,24.310776942355886,-6.862026862026866,4.4424297370806896
14:46:17.397,5.684,8.651026392961867,-95.71183533447685,-63.11735387403715,25.396825396825392,-6.862026862026866,4.4424297370806896
14:46:17.414,5.701,8.504398826979468,-95.71183533447685,-64.20480289986406,26.64995822890559,-6.862026862026866,4.4424297370806896
14:46:17.430,5.718,8.431085043988261,-95.71183533447685,-65.29225192569098,27.819548872180462,-6.813186813186817,4.4424297370806896
14:46:17.447,5.734,8.357771260997055,-95.71183533447685,-66.47032170367014,29.156223893066,-6.813186813186817,4.4424297370806896
14:46:17.464,5.751,8.357771260997055,-95.71183533447685,-67.55777072949707,30.40935672514621,-6.813186813186817,4.4424297370806896
14:46:17.481,5.768,8.284457478005862,-95.71183533447685,-68.64521975532398,31.662489557226394,-6.813186813186817,4.4424297370806896
14:46:17.497,5.784,8.211143695014655,-95.71183533447685,-69.91391028545537,33.08270676691728,-6.813186813186817,4.4424297370806896
14:46:17.514,5.801,8.137829912023449,-95.71183533447685,-71.00135931128229,34.5029239766082,-6.813186813186817,4.4424297370806896
14:46:17.531,5.818,8.137829912023449,-95.71183533447685,-71.99818758495695,35.83959899749374,-6.813186813186817,4.4424297370806896
14:46:17.547,5.834,8.064516129032256,-95.71183533447685,-73.17625736293611,37.176274018379274,-6.813186813186817,4.4424297370806896
14:46:17.564,5.851,8.064516129032256,-95.71183533447685,-74.17308563661078,38.429406850459486,-6.813186813186817,4.4424297370806896
14:46:17.581,5.868,7.9912023460410495,-95.71183533447685,-75.07929315813321,39.68253968253967,-6.813186813186817,4.4424297370806896
14:46:17.597,5.884,7.9912023460410495,-95.71183533447685,-75.8948799275034,40.85213032581453,-6.813186813186817,4.4424297370806896
14:46:17.614,5.901,7.917888563049843,-95.71183533447685,-76.71046669687358,41.93817878028406,-6.764346764346769,4.4424297370806896
14:46:17.631,5.918,7.84457478005865,-95.71183533447685,-77.34481196193929,42.940685045948214,-6.666666666666671,4.4424297370806896
14:46:17.648,5.935,7.7712609970674436,-95.71183533447685,-77.97915722700498,43.859649122807014,-6.568986568986574,4.4424297370806896
14:46:17.664,5.951,7.7712609970674436,-95.71183533447685,-78.61350249207068,44.69507101086049,-6.471306471306477,4.4424297370806896
14:46:17.681,5.968,7.697947214076237,-95.71183533447685,-79.06660625283189,45.53049289891396,-6.373626373626379,4.4424297370806896
14:46:17.697,5.985,7.624633431085044,-95.71183533447685,-79.61033076574536,46.36591478696741,-6.227106227106233,4.4424297370806896
14:46:17.714,6.002,7.551319648093838,-95.71183533447685,-79.97281377435432,47.20133667502088,-6.080586080586087,4.4424297370806896
14:46:17.731,6.018,7.404692082111424,-95.71183533447685,-80.42591753511554,48.03675856307436,-5.885225885225893,4.4424297370806896
14:46:17.748,6.035,7.331378299120232,-95.71183533447685,-80.87902129587675,48.955722639933185,-5.738705738705747,4.4424297370806896
14:46:17.764,6.052,7.258064516129025,-95.71183533447685,-81.33212505663798,49.874686716791985,-5.592185592185601,4.4424297370806896
14:46:17.781,6.068,7.184750733137818,-95.71183533447685,-81.69460806524694,50.96073517126149,-5.396825396825406,4.4424297370806896
14:46:17.798,6.085,7.111436950146626,-95.71183533447685,-82.14771182600816,52.046783625730995,-5.201465201465211,4.4424297370806896
14:46:17.815,6.102,7.038123167155419,-95.71183533447685,-82.69143633892162,53.216374269005854,0.0,4.4424297370806896
14:46:17.831,6.118,6.89149560117302,-95.71183533447685,-83.14454009968283,54.46950710108604,0.0,4.4424297370806896
14:46:17.848,6.135,6.89149560117302,-95.71183533447685,-83.77888536474853,55.8061821219716,0.0,4.4424297370806896
14:46:17.865,6.152,6.818181818181813,-95.71183533447685,-84.32260987766199,57.22639933166249,0.0,4.4424297370806896
14:46:17.882,6.169,6.818181818181813,-95.71183533447685,-84.95695514272768,58.64661654135338,0.0,4.351767905711696
14:46:17.898,6.185,6.818181818181813,-95.71183533447685,-85.50067965564114,60.150375939849624,0.0,4.351767905711696
14:46:17.915,6.202,6.818181818181813,-95.71183533447685,-86.13502492070684,61.65413533834587,0.0,4.351767905711696
14:46:17.932,6.219,6.818181818181813,-95.71183533447685,-86.6787494336203,63.15789473684211,0.0,4.351767905711696
14:46:17.948,6.235,6.818181818181813,-95.71183533447685,-87.22247394653375,64.578111946533,0.0,4.351767905711696
14:46:17.965,6.252,6.818181818181813,-95.71183533447685,-87.85681921159946,65.99832915622389,0.0,4.351767905711696
14:46:17.982,6.269,6.818181818181813,-95.71183533447685,-88.40054372451291,67.50208855472013,0.0,4.351767905711696
14:46:17.998,6.286,6.818181818181813,-95.71183533447685,-88.94426823742637,69.00584795321637,0.0,4.2611060743427025
14:46:18.015,6.302,6.818181818181813,-95.71183533447685,-89.48799275033983,70.42606516290726,0.0,4.2611060743427025
14:46:18.032,6.319,6.89149560117302,-95.71183533447685,-90.03171726325328,71.7627401837928,0.0,4.2611060743427025
14:46:18.049,6.336,7.038123167155419,-95.71183533447685,-90.39420027186226,73.09941520467837,0.0,4.2611060743427025
14:46:18.065,6.352,7.111436950146626,-95.71183533447685,-90.75668328047122,74.35254803675858,0.0,4.2611060743427025
14:46:18.082,6.369,7.111436950146626,-95.71183533447685,-91.02854553692795,75.60568086883876,0.0,4.2611060743427025
14:46:18.098,6.386,7.111436950146626,-95.71183533447685,-91.30040779338468,76.77527151211362,0.0,4.2611060743427025
14:46:18.115,6.402,7.111436950146626,-95.71183533447685,-91.48164929768917,77.77777777777777,0.0,4.2611060743427025
14:46:18.132,6.419,7.111436950146626,-95.79759862778731,-91.5722700498414,78.78028404344192,0.0,4.2611060743427025
14:46:18.149,6.436,7.111436950146626,-95.79759862778731,-91.7535115541459,79.78279030910608,0.0,4.2611060743427025
14:46:18.165,6.452,7.111436950146626,-95.79759862778731,-91.84413230629815,80.61821219715958,0.0,4.2611060743427025
14:46:18.182,6.469,7.111436950146626,-95.79759862778731,-91.84413230629815,81.53717627401838,0.0,4.2611060743427025
14:46:18.199,6.486,7.111436950146626,-95.79759862778731,-91.93475305845038,82.2890559732665,0.0,4.2611060743427025
14:46:18.215,6.502,7.111436950146626,-95.79759862778731,-91.93475305845038,83.12447786131995,0.0,4.2611060743427025
14:46:18.232,6.519,7.111436950146626,-95.79759862778731,-92.02537381060263,83.79281537176274,0.0,4.170444242973708
14:46:18.249,6.536,7.111436950146626,-95.79759862778731,-92.02537381060263,84.46115288220551,0.0,4.0797824116047146
14:46:18.265,6.553,7.111436950146626,-95.79759862778731,-92.02537381060263,85.12949039264828,0.0,3.9891205802357206
14:46:18.282,6.569,7.111436950146626,-95.79759862778731,-92.02537381060263,85.63074352548037,0.0,3.8984587488667275
14:46:18.299,6.586,7.111436950146626,-95.79759862778731,-92.02537381060263,86.0484544695071,0.0,3.8077969174977335
14:46:18.316,6.603,7.111436950146626,-95.79759862778731,-92.02537381060263,86.38262322472849,0.0,3.71713508612874
14:46:18.332,6.620,7.111436950146626,-95.79759862778731,-91.93475305845038,86.71679197994987,0.0,3.626473254759746
14:46:18.349,6.636,7.111436950146626,-95.79759862778731,-91.84413230629815,86.88387635756055,0.0,3.535811423390753
14:46:18.366,6.653,7.111436950146626,-95.79759862778731,-91.7535115541459,86.9674185463659,0.0,3.535811423390753
14:46:18.382,6.670,7.111436950146626,-95.79759862778731,-91.5722700498414,87.05096073517126,0.0,3.445149592021759
14:46:18.399,6.686,7.111436950146626,-95.79759862778731,-91.30040779338468,87.05096073517126,0.0,3.3544877606527654
14:46:18.416,6.703,7.111436950146626,-95.79759862778731,-91.02854553692795,86.88387635756055,0.0,3.2638259292837715
14:46:18.433,6.720,7.111436950146626,-95.79759862778731,-90.66606252831899,86.63324979114452,0.0,3.0825022665457844
14:46:18.449,6.736,7.111436950146626,-95.79759862778731,-90.21295876755777,86.29908103592314,0.0,2.9918404351767904
14:46:18.466,6.753,7.111436950146626,-95.79759862778731,-89.75985500679656,85.79782790309105,0.0,2.8105167724388034
14:46:18.483,6.770,7.111436950146626,-95.79759862778731,-89.12550974173085,85.21303258145363,0.0,2.7198549410698094
14:46:18.518,6.805,7.111436950146626,-95.79759862778731,-87.49433620299048,83.45864661654133,0.0,2.447869446962829
14:46:18.537,6.824,7.111436950146626,-95.79759862778731,-86.49750792931582,82.20551378446115,0.0,2.357207615593835
14:46:18.553,6.841,7.111436950146626,-95.79759862778731,-85.50067965564114,80.95238095238096,0.0,2.2665457842248413
14:46:18.570,6.857,7.111436950146626,-95.79759862778731,-84.32260987766199,79.6157059314954,0.0,2.2665457842248413
14:46:18.587,6.874,7.111436950146626,-95.79759862778731,-83.05391934753058,78.11194653299916,0.0,2.2665457842248413
14:46:18.603,6.890,7.111436950146626,-95.79759862778731,-81.78522881739919,76.27401837928153,0.0,2.2665457842248413
14:46:18.620,6.907,7.111436950146626,-95.79759862778731,-80.3352967829633,74.26900584795322,0.0,2.175883952855848
14:46:18.637,6.924,7.184750733137818,-95.79759862778731,-78.70412324422293,72.09690893901418,0.0,2.175883952855848
14:46:18.654,6.941,7.184750733137818,-95.79759862778731,-77.07294970548256,69.9248120300752,0.0,2.175883952855848
14:46:18.670,6.957,7.184750733137818,-95.79759862778731,-75.35115541458994,67.50208855472013,0.0,2.175883952855848
14:46:18.687,6.974,7.184750733137818,-95.79759862778731,-73.53874037154509,64.91228070175438,0.0,2.175883952855848
14:46:18.710,6.998,7.184750733137818,-95.79759862778731,-70.91073855913004,61.06934001670842,0.0,2.175883952855848
14:46:18.740,7.027,7.184750733137818,-95.79759862778731,-67.37652922519257,56.140350877192986,0.0,2.175883952855848
14:46:18.757,7.044,7.184750733137818,-95.79759862778731,-65.38287267784322,53.38345864661653,0.0,2.175883952855848
14:46:18.774,7.061,7.184750733137818,-95.79759862778731,-63.29859537834164,50.54302422723475,0.0,2.175883952855848
14:46:18.790,7.077,7.184750733137818,-95.79759862778731,-61.30493883099229,47.61904761904762,0.0,2.175883952855848
14:46:18.807,7.094,7.184750733137818,-95.79759862778731,-59.40190303579519,44.77861319966584,0.0,2.2665457842248413
14:46:18.824,7.111,7.184750733137818,-95.79759862778731,-57.408246488445855,42.02172096908939,0.0,2.2665457842248413
14:46:18.840,7.127,7.184750733137818,-95.79759862778731,-55.41458994109651,39.43191311612364,0.0,2.357207615593835
14:46:18.857,7.144,7.184750733137818,-95.79759862778731,-53.42093339374717,36.675020885547184,0.0,2.357207615593835
14:46:18.874,7.161,7.111436950146626,-95.79759862778731,-51.427276846397824,33.91812865497076,0.0,2.2665457842248413
14:46:18.890,7.178,7.111436950146626,-95.79759862778731,-49.433620299048485,31.161236424394332,0.0,2.2665457842248413
14:46:18.907,7.194,7.038123167155419,-95.79759862778731,-47.439963751699146,28.2372598162072,0.0,2.2665457842248413
14:46:18.924,7.211,6.964809384164212,-95.79759862778731,-45.35568645219755,25.229741019214714,0.0,2.2665457842248413
14:46:18.941,7.228,6.89149560117302,-95.79759862778731,-43.090167648391485,22.22222222222223,0.0,2.2665457842248413
14:46:18.957,7.244,6.818181818181813,-95.79759862778731,-40.82464884458541,18.88053467000836,0.0,2.2665457842248413
14:46:18.974,7.261,6.744868035190606,-95.79759862778731,-38.377888536474856,15.371762740183797,0.0,2.175883952855848
14:46:18.991,7.278,6.671554252199414,-95.79759862778731,-36.02174898051654,11.695906432748544,0.0,2.175883952855848
14:46:19.007,7.294,6.671554252199414,-95.79759862778731,-33.57498867240598,7.936507936507937,0.0,2.2665457842248413
14:46:19.024,7.311,6.598240469208207,-95.79759862778731,-31.037607612143177,4.427736006683375,0.0,2.357207615593835
14:46:19.041,7.328,6.598240469208207,-95.79759862778731,-28.59084730403262,0.9189640768588134,0.0,2.357207615593835
14:46:19.057,7.344,6.524926686217,-95.79759862778731,-26.325328500226547,-2.339181286549703,0.0,2.357207615593835
14:46:19.074,7.361,6.451612903225794,-95.79759862778731,-24.241051200724968,-5.513784461152881,0.0,2.357207615593835
14:46:19.091,7.378,6.451612903225794,-95.79759862778731,-21.975532396918894,-8.771929824561411,0.0,2.357207615593835
14:46:19.107,7.395,6.378299120234601,-95.79759862778731,-19.52877208880834,-12.030075187969928,0.0,2.357207615593835
14:46:19.124,7.411,6.378299120234601,-95.79759862778731,-17.172632532850017,-15.45530492898915,0.0,2.447869446962829
14:46:19.141,7.428,6.378299120234601,-95.79759862778731,-14.907113729043957,-18.713450292397653,0.0,2.447869446962829
14:46:19.157,7.445,6.304985337243394,-95.79759862778731,-12.73221567739013,-21.720969089390138,0.0,2.447869446962829
14:46:19.174,7.461,6.231671554252188,-95.79759862778731,-10.647938377888536,-24.728487886382624,0.0,2.447869446962829
14:46:19.191,7.478,6.158357771260995,-95.79759862778731,-8.47304032623471,-27.819548872180462,0.0,2.447869446962829
14:46:19.208,7.495,6.085043988269788,-95.79759862778731,-6.116900770276388,-30.827067669172934,0.0,2.447869446962829
14:46:19.224,7.511,6.085043988269788,-95.79759862778731,-3.6701404621658327,-34.25229741019214,0.0,2.447869446962829
14:46:19.241,7.528,6.085043988269788,-95.79759862778731,-1.2233801540552776,-37.677527151211365,0.0,2.447869446962829
14:46:19.258,7.545,6.011730205278582,-95.79759862778731,1.0421386497507967,-40.85213032581454,0.0,2.447869446962829
14:46:19.274,7.561,5.938416422287389,-95.79759862778731,3.3982782057091043,-44.02673350041771,0.0,2.447869446962829
14:46:19.291,7.578,5.8651026392961825,-95.79759862778731,5.754417761667426,-47.0342522974102,0.0,2.5385312783318223
14:46:19.308,7.595,5.718475073313783,-95.79759862778731,8.019936565473486,-50.04177109440268,0.0,2.5385312783318223
14:46:19.324,7.612,5.6451612903225765,-95.79759862778731,10.376076121431808,-53.049289891395155,0.0,2.5385312783318223
14:46:19.341,7.628,5.498533724340177,-95.79759862778731,12.460353420933387,-55.973266499582294,0.0,2.5385312783318223
14:46:19.358,7.645,5.351906158357764,-95.79759862778731,14.725872224739462,-58.81370091896408,0.0,2.5385312783318223
14:46:19.375,7.662,5.205278592375365,-95.79759862778731,16.900770276393303,-61.487050960735175,0.0,2.5385312783318223
14:46:19.391,7.678,5.131964809384158,-95.79759862778731,19.07566832804713,-64.24394319131162,0.0,2.5385312783318223
14:46:19.408,7.695,4.985337243401759,-95.79759862778731,21.15994562754871,-67.00083542188806,0.0,2.629193109700816
14:46:19.425,7.712,4.838709677419345,-95.79759862778731,23.334843679202535,-69.67418546365914,0.0,2.629193109700816
14:46:19.441,7.729,4.692082111436946,-95.79759862778731,25.32850022655188,-72.34753550543024,0.0,2.629193109700816
14:46:19.458,7.745,4.545454545454547,-95.79759862778731,27.322156773901213,-75.02088554720135,0.0,2.629193109700816
14:46:19.475,7.762,4.47214076246334,-95.79759862778731,29.406434073402806,-77.44360902255639,0.0,2.629193109700816
14:46:19.491,7.779,4.325513196480941,-95.79759862778731,31.309469868599905,-79.9498746867168,0.0,2.7198549410698094
14:46:19.508,7.795,4.178885630498527,-95.79759862778731,33.212505663797,-82.2890559732665,0.0,2.7198549410698094
14:46:19.525,7.812,4.032258064516128,-95.79759862778731,34.93429995468961,-84.6282372598162,0.0,2.7198549410698094
14:46:19.542,7.829,3.8856304985337147,-95.79759862778731,36.65609424558224,-86.80033416875523,0.0,2.7198549410698094
14:46:19.558,7.845,3.7390029325513154,-95.79759862778731,38.37788853647487,-88.80534670008355,0.0,2.7198549410698094
14:46:19.575,7.862,3.592375366568916,-95.79759862778731,40.00906207521521,-90.81035923141187,0.0,2.8105167724388034
14:46:19.592,7.879,3.3724340175953103,-95.79759862778731,41.458994109651115,-92.73182957393483,0.0,2.8105167724388034
14:46:19.608,7.895,3.1524926686217043,-95.79759862778731,42.81830539193476,-94.48621553884712,0.0,2.8105167724388034
14:46:19.625,7.912,3.005865102639291,-95.79759862778731,44.1776166742184,-96.0735171261487,0.0,2.8105167724388034
14:46:19.642,7.929,2.785923753665685,-95.79759862778731,45.44630720434978,-97.57727652464494,0.0,2.8105167724388034
14:46:19.658,7.945,2.6392961876832857,-95.79759862778731,46.53375623017669,-98.9139515455305,0.0,2.8105167724388034
14:46:19.675,7.962,2.565982404692079,-95.79759862778731,47.621205256003606,-99.91645781119465,0.0,2.901178603807797
14:46:19.692,7.979,2.4926686217008722,-95.79759862778731,47.983688264612596,-100.0,0.0,3.3544877606527654
14:46:19.709,7.996,2.4193548387096797,-95.88336192109777,47.983688264612596,-100.0,0.0,3.445149592021759
14:46:19.725,8.012,2.126099706744867,-95.88336192109777,47.8024467603081,-99.91645781119465,0.0,3.0825022665457844
14:46:19.742,8.029,1.906158357771261,-95.88336192109777,47.71182600815587,-99.83291562238931,0.0,3.0825022665457844
14:46:19.759,8.046,1.8328445747800544,-95.88336192109777,47.621205256003606,-99.83291562238931,0.0,3.0825022665457844
14:46:19.775,8.062,1.8328445747800544,-95.88336192109777,47.5305845038514,-99.91645781119465,0.0,3.1731640979147784
14:46:19.792,8.079,1.7595307917888476,-95.88336192109777,47.258722247394644,-99.91645781119465,0.0,3.1731640979147784
14:46:19.809,8.096,1.7595307917888476,-95.88336192109777,46.89623923878568,-99.91645781119465,0.0,3.1731640979147784
14:46:19.825,8.113,1.6862170087976551,-95.88336192109777,46.44313547802449,-99.83291562238931,0.0,3.1731640979147784
14:46:19.842,8.129,1.6862170087976551,-95.88336192109777,46.0806524694155,-99.83291562238931,0.0,3.2638259292837715
14:46:19.859,8.146,1.6862170087976551,-95.88336192109777,45.80879021295877,-99.74937343358395,0.0,3.2638259292837715
14:46:19.875,8.163,1.6862170087976551,-95.88336192109777,45.53692795650204,-99.74937343358395,0.0,3.3544877606527654
14:46:19.892,8.179,1.6862170087976551,-95.88336192109777,45.355686452197574,-99.74937343358395,0.0,3.3544877606527654
14:46:19.909,8.196,1.6862170087976551,-95.88336192109777,45.26506570004531,-99.83291562238931,0.0,3.3544877606527654
14:46:19.925,8.212,1.6862170087976551,-95.88336192109777,45.17444494789308,-99.83291562238931,0.0,3.3544877606527654
14:46:19.942,8.229,1.6862170087976551,-95.88336192109777,45.08382419574082,-99.83291562238931,0.0,3.3544877606527654
14:46:19.959,8.246,1.6862170087976551,-95.88336192109777,44.993203443588584,-99.83291562238931,0.0,3.3544877606527654
14:46:19.975,8.263,1.6862170087976551,-95.88336192109777,44.993203443588584,-99.83291562238931,0.0,3.3544877606527654
14:46:19.992,8.279,1.6862170087976551,-95.88336192109777,44.993203443588584,-99.83291562238931,0.0,3.3544877606527654
14:46:20.009,8.296,1.6862170087976551,-95.88336192109777,44.993203443588584,-99.83291562238931,0.0,3.3544877606527654
14:46:20.026,8.313,1.6862170087976551,-95.88336192109777,44.993203443588584,-99.83291562238931,0.0,3.3544877606527654
14:46:20.042,8.330,1.6862170087976551,-95.88336192109777,44.90258269143635,-99.83291562238931,0.0,3.3544877606527654
14:46:20.059,8.346,1.6862170087976551,-95.88336192109777,44.721341187131856,-99.83291562238931,0.0,3.3544877606527654
14:46:20.076,8.363,1.6862170087976551,-95.88336192109777,44.63072043497962,-99.83291562238931,0.0,3.3544877606527654
14:46:20.093,8.380,1.6862170087976551,-95.88336192109777,44.358858178522866,-99.83291562238931,0.0,3.3544877606527654
14:46:20.109,8.396,1.6862170087976551,-95.88336192109777,44.1776166742184,-99.83291562238931,0.0,3.445149592021759
14:46:20.126,8.413,1.6862170087976551,-95.88336192109777,43.90575441776167,-99.83291562238931,0.0,3.445149592021759
14:46:20.142,8.430,1.6862170087976551,-95.88336192109777,43.54327140915271,-99.83291562238931,0.0,3.535811423390753
14:46:20.159,8.446,1.6862170087976551,-95.88336192109777,43.18078840054375,-99.83291562238931,0.0,3.535811423390753
14:46:20.176,8.463,1.6862170087976551,-95.88336192109777,42.727684639782524,-99.83291562238931,0.0,3.535811423390753
14:46:20.193,8.480,1.6862170087976551,-95.88336192109777,42.2745808790213,-99.83291562238931,0.0,3.535811423390753
14:46:20.209,8.496,1.6862170087976551,-95.88336192109777,41.82147711826008,-99.83291562238931,0.0,3.535811423390753
14:46:20.226,8.513,1.6862170087976551,-95.88336192109777,41.36837335749888,-99.83291562238931,0.0,3.535811423390753
14:46:20.243,8.530,1.5395894428152417,-95.88336192109777,41.00589034888992,-99.83291562238931,0.0,3.535811423390753
14:46:20.259,8.546,1.3196480938416357,-95.88336192109777,40.64340734028093,-99.83291562238931,0.0,3.535811423390753
14:46:20.276,8.563,1.1730205278592365,-95.88336192109777,40.28092433167197,-99.83291562238931,0.0,3.535811423390753
14:46:20.293,8.580,0.8064516129032313,-95.88336192109777,40.00906207521521,-99.83291562238931,0.0,3.535811423390753
14:46:20.309,8.596,0.3665689149560052,-95.88336192109777,39.827820570910745,-99.74937343358395,0.0,3.535811423390753
14:46:20.326,8.613,0.0,-95.88336192109777,39.64657906660625,-99.66583124477862,0.0,3.535811423390753
14:46:20.343,8.630,-0.4398826979472119,-95.88336192109777,39.465337562301784,-99.49874686716792,0.0,3.535811423390753
14:46:20.360,8.647,-0.8064516129032313,-95.88336192109777,39.28409605799729,-99.24812030075188,0.0,3.535811423390753
14:46:20.376,8.663,-1.0263929618768373,-95.88336192109777,39.102854553692794,-98.99749373433583,0.0,3.535811423390753
14:46:20.393,8.680,-1.3196480938416357,-95.88336192109777,38.9216130493883,-98.7468671679198,0.0,3.535811423390753
14:46:20.410,8.697,-1.4662756598240492,-95.88336192109777,38.830992297236065,-98.49624060150376,0.0,3.535811423390753
14:46:20.426,8.713,-1.5395894428152417,-95.88336192109777,38.830992297236065,-98.32915622389307,0.0,3.535811423390753
14:46:20.443,8.730,-1.5395894428152417,-95.88336192109777,38.830992297236065,-98.24561403508773,0.0,3.535811423390753
14:46:20.460,8.747,-1.5395894428152417,-95.88336192109777,38.830992297236065,-98.16207184628237,0.0,3.535811423390753
14:46:20.476,8.763,-1.5395894428152417,-95.88336192109777,38.830992297236065,-98.16207184628237,0.0,3.535811423390753
14:46:20.493,8.780,-1.5395894428152417,-95.88336192109777,38.830992297236065,-98.16207184628237,0.0,3.535811423390753
14:46:20.510,8.797,-1.5395894428152417,-95.88336192109777,38.9216130493883,-98.24561403508773,0.0,3.535811423390753
14:46:20.526,8.814,-1.5395894428152417,-95.88336192109777,39.01223380154056,-98.41269841269842,0.0,3.535811423390753
14:46:20.543,8.830,-1.5395894428152417,-95.88336192109777,39.193475305845055,-98.66332497911445,0.0,3.535811423390753
14:46:20.560,8.847,-1.5395894428152417,-95.88336192109777,39.193475305845055,-98.83040935672514,0.0,3.535811423390753
14:46:20.577,8.864,-1.5395894428152417,-95.88336192109777,39.28409605799729,-98.99749373433583,0.0,3.535811423390753
14:46:20.593,8.880,-1.5395894428152417,-95.88336192109777,39.37471681014952,-99.24812030075188,0.0,3.535811423390753
14:46:20.610,8.897,-1.5395894428152417,-95.88336192109777,39.64657906660625,-99.41520467836257,0.0,3.535811423390753
14:46:20.627,8.914,-1.5395894428152417,-95.88336192109777,39.827820570910745,-99.74937343358395,0.0,3.535811423390753
14:46:20.643,8.930,-1.5395894428152417,-95.88336192109777,40.00906207521521,-99.83291562238931,0.0,3.535811423390753
14:46:20.660,8.947,-1.5395894428152417,-95.88336192109777,40.099682827367474,-99.83291562238931,0.0,3.535811423390753
14:46:20.677,8.964,-1.5395894428152417,-95.88336192109777,40.19030357951971,-99.83291562238931,0.0,3.535811423390753
14:46:20.693,8.981,-1.5395894428152417,-95.88336192109777,40.28092433167197,-99.83291562238931,0.0,3.535811423390753
14:46:20.710,8.997,-1.5395894428152417,-95.88336192109777,40.3715450838242,-99.83291562238931,0.0,3.535811423390753
14:46:20.727,9.014,-1.5395894428152417,-95.88336192109777,40.5527865881287,-99.83291562238931,0.0,3.535811423390753
14:46:20.744,9.031,-1.5395894428152417,-95.88336192109777,40.64340734028093,-99.83291562238931,0.0,3.535811423390753
14:46:20.760,9.047,-1.5395894428152417,-95.88336192109777,40.8246488445854,-99.83291562238931,0.0,3.535811423390753
14:46:20.777,9.064,-1.5395894428152417,-95.88336192109777,40.91526959673766,-99.83291562238931,0.0,3.535811423390753
14:46:20.794,9.081,-1.5395894428152417,-95.88336192109777,41.00589034888992,-99.83291562238931,0.0,3.535811423390753
14:46:20.810,9.097,-1.5395894428152417,-95.88336192109777,41.096511101042125,-99.83291562238931,0.0,3.445149592021759
14:46:20.827,9.114,-1.5395894428152417,-95.88336192109777,41.18713185319439,-99.83291562238931,0.0,3.445149592021759
14:46:20.844,9.131,-1.5395894428152417,-95.88336192109777,41.27775260534662,-99.83291562238931,0.0,3.445149592021759
14:46:20.860,9.148,-1.5395894428152417,-95.88336192109777,41.27775260534662,-99.83291562238931,0.0,3.3544877606527654
14:46:20.877,9.164,-1.5395894428152417,-95.88336192109777,41.36837335749888,-99.83291562238931,0.0,3.3544877606527654
14:46:20.894,9.181,-1.5395894428152417,-95.88336192109777,41.36837335749888,-99.83291562238931,0.0,3.3544877606527654
14:46:20.910,9.198,-1.5395894428152417,-95.88336192109777,41.36837335749888,-99.83291562238931,0.0,3.3544877606527654
14:46:20.927,9.214,-1.5395894428152417,-95.88336192109777,41.458994109651115,-99.83291562238931,0.0,3.3544877606527654
14:46:20.944,9.231,-1.5395894428152417,-95.88336192109777,41.458994109651115,-99.83291562238931,0.0,3.2638259292837715
14:46:20.961,9.248,-1.5395894428152417,-95.88336192109777,41.458994109651115,-99.83291562238931,0.0,3.2638259292837715
14:46:20.977,9.264,-1.5395894428152417,-95.88336192109777,41.54961486180335,-99.83291562238931,0.0,3.2638259292837715
14:46:20.994,9.281,-1.5395894428152417,-95.88336192109777,41.54961486180335,-99.83291562238931,0.0,3.2638259292837715
14:46:21.011,9.298,-1.5395894428152417,-95.88336192109777,41.64023561395561,-99.83291562238931,0.0,3.2638259292837715
14:46:21.027,9.314,-1.5395894428152417,-95.88336192109777,41.730856366107844,-99.83291562238931,0.0,3.2638259292837715
14:46:21.044,9.331,-1.5395894428152417,-95.88336192109777,41.82147711826008,-99.83291562238931,0.0,3.2638259292837715
14:46:21.061,9.348,-1.5395894428152417,-95.88336192109777,41.91209787041231,-99.83291562238931,0.0,3.3544877606527654
14:46:21.077,9.365,-1.5395894428152417,-95.88336192109777,42.093339374716834,-99.83291562238931,0.0,3.445149592021759
14:46:21.094,9.381,-1.5395894428152417,-95.88336192109777,42.2745808790213,-99.83291562238931,0.0,3.535811423390753
14:46:21.111,9.398,-1.5395894428152417,-95.88336192109777,42.455822383325795,-99.83291562238931,0.0,3.535811423390753
14:46:21.128,9.415,-1.5395894428152417,-95.88336192109777,42.54644313547803,-99.83291562238931,0.0,3.535811423390753
14:46:21.144,9.431,-1.5395894428152417,-95.88336192109777,42.63706388763026,-99.83291562238931,0.0,3.535811423390753
14:46:21.161,9.448,-1.5395894428152417,-95.88336192109777,42.727684639782524,-99.83291562238931,0.0,3.535811423390753
14:46:21.178,9.465,-1.5395894428152417,-95.88336192109777,42.727684639782524,-99.83291562238931,0.0,3.535811423390753
14:46:21.194,9.481,-1.5395894428152417,-95.88336192109777,42.81830539193476,-99.83291562238931,0.0,3.535811423390753
14:46:21.211,9.498,-1.5395894428152417,-95.88336192109777,42.90892614408699,-99.83291562238931,0.0,3.535811423390753
14:46:21.228,9.515,-1.5395894428152417,-95.88336192109777,42.90892614408699,-99.83291562238931,0.0,3.535811423390753
14:46:21.244,9.532,-1.5395894428152417,-95.88336192109777,42.90892614408699,-99.83291562238931,0.0,3.535811423390753
14:46:21.261,9.548,-1.5395894428152417,-95.88336192109777,42.90892614408699,-99.83291562238931,0.0,3.535811423390753
14:46:21.278,9.565,-1.5395894428152417,-95.88336192109777,42.90892614408699,-99.83291562238931,0.0,3.535811423390753
14:46:21.295,9.582,-1.5395894428152417,-95.88336192109777,42.90892614408699,-99.83291562238931,0.0,3.535811423390753
14:46:21.311,9.598,-1.5395894428152417,-95.88336192109777,42.90892614408699,-99.83291562238931,0.0,3.535811423390753
14:46:21.328,9.615,-1.5395894428152417,-95.88336192109777,42.90892614408699,-99.83291562238931,0.0,3.535811423390753
14:46:21.345,9.632,-1.5395894428152417,-95.88336192109777,42.90892614408699,-99.83291562238931,0.0,3.535811423390753
14:46:21.361,9.648,-1.5395894428152417,-95.88336192109777,42.90892614408699,-99.83291562238931,0.0,3.535811423390753
14:46:21.378,9.665,-1.5395894428152417,-95.88336192109777,42.999546896239224,-99.83291562238931,0.0,3.535811423390753
14:46:21.395,9.682,-1.5395894428152417,-95.88336192109777,42.999546896239224,-99.83291562238931,0.0,3.535811423390753
14:46:21.411,9.698,-1.5395894428152417,-95.88336192109777,43.090167648391485,-99.83291562238931,0.0,3.535811423390753
14:46:21.428,9.715,-1.5395894428152417,-95.88336192109777,43.18078840054375,-99.83291562238931,0.0,3.535811423390753
14:46:21.445,9.732,-1.5395894428152417,-95.88336192109777,43.27140915269595,-99.83291562238931,0.0,3.535811423390753
14:46:21.462,9.749,-1.5395894428152417,-95.88336192109777,43.362029904848214,-99.83291562238931,0.0,3.535811423390753
14:46:21.478,9.765,-1.5395894428152417,-95.88336192109777,43.45265065700045,-99.83291562238931,0.0,3.535811423390753
14:46:21.495,9.782,-1.5395894428152417,-95.88336192109777,43.54327140915271,-99.83291562238931,0.0,3.535811423390753
14:46:21.512,9.799,-1.5395894428152417,-95.88336192109777,43.63389216130494,-99.83291562238931,0.0,3.535811423390753
14:46:21.528,9.815,-1.5395894428152417,-95.88336192109777,43.724512913457176,-99.83291562238931,0.0,3.535811423390753
14:46:21.545,9.832,-1.5395894428152417,-95.88336192109777,43.81513366560944,-99.83291562238931,0.0,3.535811423390753
14:46:21.562,9.849,-1.5395894428152417,-95.88336192109777,43.90575441776167,-99.83291562238931,0.0,3.535811423390753
14:46:21.578,9.865,-1.5395894428152417,-95.88336192109777,43.996375169913904,-99.83291562238931,0.0,3.535811423390753
14:46:21.595,9.882,-1.5395894428152417,-95.88336192109777,44.086995922066166,-99.83291562238931,0.0,3.535811423390753
14:46:21.612,9.899,-1.5395894428152417,-95.88336192109777,44.1776166742184,-99.83291562238931,0.0,3.535811423390753
14:46:21.628,9.915,-1.5395894428152417,-95.88336192109777,44.26823742637066,-99.83291562238931,0.0,3.535811423390753
14:46:21.645,9.932,-1.5395894428152417,-95.88336192109777,44.26823742637066,-99.83291562238931,0.0,3.535811423390753
14:46:21.662,9.949,-1.5395894428152417,-95.88336192109777,44.26823742637066,-99.83291562238931,0.0,3.535811423390753
14:46:21.679,9.966,-1.5395894428152417,-95.88336192109777,44.26823742637066,-99.83291562238931,0.0,3.535811423390753
14:46:21.695,9.982,-1.5395894428152417,-95.88336192109777,44.26823742637066,-99.83291562238931,0.0,3.535811423390753
14:46:21.712,9.999,-1.5395894428152417,-95.88336192109777,44.26823742637066,-99.83291562238931,0.0,3.535811423390753
14:46:21.729,10.016,-1.5395894428152417,-95.88336192109777,44.358858178522866,-99.83291562238931,0.0,3.535811423390753
14:46:21.745,10.032,-1.5395894428152417,-95.88336192109777,44.358858178522866,-99.83291562238931,0.0,3.535811423390753
14:46:21.762,10.049,-1.5395894428152417,-95.88336192109777,44.358858178522866,-99.83291562238931,0.0,3.535811423390753
14:46:21.779,10.066,-1.5395894428152417,-95.88336192109777,44.358858178522866,-99.83291562238931,0.0,3.535811423390753
14:46:21.795,10.083,-1.5395894428152417,-95.88336192109777,44.26823742637066,-99.83291562238931,0.0,3.535811423390753
14:46:21.812,10.099,-1.5395894428152417,-95.88336192109777,44.26823742637066,-99.83291562238931,0.0,3.535811423390753
14:46:21.829,10.116,-1.5395894428152417,-95.88336192109777,44.1776166742184,-99.83291562238931,0.0,3.535811423390753
14:46:21.845,10.133,-1.5395894428152417,-95.88336192109777,44.1776166742184,-99.83291562238931,0.0,3.535811423390753
14:46:21.862,10.149,-1.5395894428152417,-95.88336192109777,44.086995922066166,-99.83291562238931,0.0,3.535811423390753
14:46:21.879,10.166,-1.5395894428152417,-95.88336192109777,44.086995922066166,-99.83291562238931,0.0,3.535811423390753
14:46:21.896,10.183,-1.5395894428152417,-95.88336192109777,43.996375169913904,-99.83291562238931,0.0,3.535811423390753
14:46:21.912,10.199,-1.5395894428152417,-95.88336192109777,43.996375169913904,-99.83291562238931,0.0,3.535811423390753
14:46:21.929,10.216,-1.5395894428152417,-95.88336192109777,43.996375169913904,-99.83291562238931,0.0,3.535811423390753
14:46:21.946,10.233,-1.5395894428152417,-95.88336192109777,43.996375169913904,-99.83291562238931,0.0,3.535811423390753
14:46:21.962,10.249,-1.5395894428152417,-95.88336192109777,43.996375169913904,-99.83291562238931,0.0,3.535811423390753
14:46:21.979,10.266,-1.5395894428152417,-95.88336192109777,43.996375169913904,-99.83291562238931,0.0,3.535811423390753
14:46:21.996,10.283,-1.5395894428152417,-95.88336192109777,43.996375169913904,-99.83291562238931,0.0,3.535811423390753
14:46:22.012,10.300,-1.5395894428152417,-95.88336192109777,43.996375169913904,-99.83291562238931,0.0,3.535811423390753
14:46:22.029,10.316,-1.5395894428152417,-95.88336192109777,43.996375169913904,-99.83291562238931,0.0,3.535811423390753
14:46:22.046,10.333,-1.5395894428152417,-95.88336192109777,44.086995922066166,-99.83291562238931,0.0,3.535811423390753
14:46:22.063,10.350,-1.5395894428152417,-95.88336192109777,44.086995922066166,-99.83291562238931,0.0,3.535811423390753
14:46:22.079,10.366,-1.5395894428152417,-95.88336192109777,44.086995922066166,-99.83291562238931,0.0,3.535811423390753
14:46:22.096,10.383,-1.5395894428152417,-95.88336192109777,44.086995922066166,-99.83291562238931,0.0,3.535811423390753
14:46:22.113,10.400,-1.5395894428152417,-95.88336192109777,44.1776166742184,-99.83291562238931,0.0,3.535811423390753
14:46:22.129,10.416,-1.5395894428152417,-95.88336192109777,44.358858178522866,-99.83291562238931,0.0,3.535811423390753
14:46:22.146,10.433,-1.5395894428152417,-95.88336192109777,44.44947893067513,-99.83291562238931,0.0,3.535811423390753
14:46:22.163,10.450,-1.5395894428152417,-95.88336192109777,44.63072043497962,-99.83291562238931,0.0,3.535811423390753
14:46:22.179,10.466,-1.5395894428152417,-95.88336192109777,44.721341187131856,-99.83291562238931,0.0,3.535811423390753
14:46:22.196,10.483,-1.6129032258064484,-95.88336192109777,44.81196193928409,-99.83291562238931,0.0,3.535811423390753
14:46:22.213,10.500,-1.6129032258064484,-95.88336192109777,44.993203443588584,-99.83291562238931,0.0,3.535811423390753
14:46:22.229,10.517,-1.6129032258064484,-95.88336192109777,45.08382419574082,-99.83291562238931,0.0,3.535811423390753
14:46:22.246,10.533,-1.6129032258064484,-95.88336192109777,45.17444494789308,-99.83291562238931,0.0,3.535811423390753
14:46:22.263,10.550,-1.6129032258064484,-95.88336192109777,45.26506570004531,-99.83291562238931,0.0,3.535811423390753
14:46:22.280,10.567,-1.6129032258064484,-95.88336192109777,45.355686452197574,-99.83291562238931,0.0,3.535811423390753
14:46:22.296,10.583,-1.6129032258064484,-95.88336192109777,45.53692795650204,-99.83291562238931,0.0,3.535811423390753
14:46:22.313,10.600,-1.6129032258064484,-95.88336192109777,45.718169460806536,-99.83291562238931,0.0,3.535811423390753
14:46:22.330,10.617,-1.6129032258064484,-95.88336192109777,45.899410965111,-99.83291562238931,0.0,3.535811423390753
14:46:22.347,10.634,-1.6129032258064484,-95.88336192109777,46.17127322156773,-99.83291562238931,0.0,3.535811423390753
14:46:22.364,10.651,-1.6129032258064484,-95.88336192109777,46.352514725872226,-99.83291562238931,0.0,3.535811423390753
14:46:22.383,10.670,-1.6129032258064484,-95.88336192109777,46.71499773448119,-99.83291562238931,0.0,3.535811423390753
14:46:22.398,10.685,-1.6129032258064484,-95.88336192109777,46.89623923878568,-99.83291562238931,0.0,3.535811423390753
14:46:22.415,10.702,-1.6129032258064484,-95.88336192109777,47.07748074309018,-99.83291562238931,0.0,3.535811423390753
14:46:22.432,10.719,-1.6129032258064484,-95.88336192109777,47.258722247394644,-99.83291562238931,0.0,3.535811423390753
14:46:22.448,10.735,-1.6129032258064484,-95.88336192109777,47.43996375169914,-99.83291562238931,0.0,3.535811423390753
14:46:22.465,10.752,-1.6129032258064484,-95.88336192109777,47.621205256003606,-99.83291562238931,0.0,3.535811423390753
14:46:22.482,10.769,-1.6129032258064484,-95.88336192109777,47.8024467603081,-99.83291562238931,0.0,3.535811423390753
14:46:22.498,10.785,-1.6129032258064484,-95.88336192109777,47.89306751246036,-99.83291562238931,0.0,3.535811423390753
14:46:22.515,10.802,-1.6129032258064484,-95.88336192109777,47.983688264612596,-99.83291562238931,0.0,3.535811423390753
14:46:22.532,10.819,-1.6129032258064484,-95.88336192109777,47.983688264612596,-99.83291562238931,0.0,3.535811423390753
14:46:22.548,10.836,-1.6129032258064484,-95.88336192109777,47.983688264612596,-99.83291562238931,0.0,3.535811423390753
14:46:22.565,10.852,-1.7595307917888476,-95.88336192109777,47.983688264612596,-99.83291562238931,0.0,3.535811423390753
14:46:22.582,10.869,-2.1994134897360738,-95.88336192109777,47.983688264612596,-99.83291562238931,0.0,3.535811423390753
14:46:22.598,10.886,-2.4926686217008722,-95.88336192109777,47.983688264612596,-99.83291562238931,0.0,3.535811423390753
14:46:22.615,10.902,-2.126099706744867,-95.88336192109777,47.8024467603081,-99.83291562238931,0.0,3.535811423390753
14:46:22.632,10.919,-1.8328445747800544,-95.88336192109777,47.71182600815587,-99.83291562238931,5.592185592185601,3.1731640979147784
14:46:22.649,10.936,-1.2463343108504432,-95.79759862778731,47.5305845038514,-99.83291562238931,6.910866910866915,3.1731640979147784
14:46:22.665,10.952,-0.7331378299120246,-95.79759862778731,47.258722247394644,-99.83291562238931,7.985347985347985,3.1731640979147784
14:46:22.682,10.969,0.14662756598239923,-95.79759862778731,47.07748074309018,-99.83291562238931,8.766788766788764,3.0825022665457844
14:46:22.699,10.986,0.5131964809384186,-95.79759862778731,46.89623923878568,-99.83291562238931,9.157509157509153,3.0825022665457844
14:46:22.715,11.002,0.6598240469208179,-95.79759862778731,46.624376982328954,-99.83291562238931,9.548229548229557,2.9918404351767904
14:46:22.732,11.019,0.6598240469208179,-95.71183533447685,46.44313547802449,-99.83291562238931,9.890109890109898,2.357207615593835
14:46:22.749,11.036,0.8797653958944238,-95.71183533447685,46.352514725872226,-99.83291562238931,10.378510378510384,0.7252946509519492
14:46:22.765,11.053,1.0263929618768373,-95.71183533447685,46.352514725872226,-99.83291562238931,10.91575091575092,0.09066183136899365
14:46:22.782,11.069,1.0997067448680298,-95.71183533447685,46.53375623017669,-99.83291562238931,11.159951159951163,0.09066183136899365
14:46:22.799,11.086,1.0997067448680298,-95.71183533447685,46.80561848663345,-99.83291562238931,11.159951159951163,0.09066183136899365
14:46:22.816,11.103,1.0997067448680298,-95.71183533447685,47.258722247394644,-99.83291562238931,11.159951159951163,0.09066183136899365
14:46:22.832,11.119,1.0997067448680298,-95.71183533447685,47.71182600815587,-99.83291562238931,11.159951159951163,0.09066183136899365
14:46:22.849,11.136,1.0997067448680298,-95.71183533447685,48.255550521069324,-99.83291562238931,11.25763125763126,0.09066183136899365
14:46:22.866,11.153,1.2463343108504432,-95.71183533447685,48.618033529678314,-99.91645781119465,11.452991452991455,0.1813236627379873
14:46:22.882,11.169,1.2463343108504432,-95.71183533447685,48.980516538287276,-99.49874686716792,11.794871794871796,0.1813236627379873
14:46:22.899,11.186,1.3196480938416357,-95.71183533447685,49.70548255550523,-98.7468671679198,11.599511599511601,0.1813236627379873
14:46:22.916,11.203,1.3196480938416357,-95.71183533447685,50.79293158133214,-98.07852965747702,11.550671550671552,0.1813236627379873
14:46:22.932,11.219,1.6129032258064484,-95.71183533447685,52.15224286361578,-97.57727652464494,11.501831501831504,0.1813236627379873
14:46:22.949,11.236,2.4193548387096797,-95.71183533447685,53.33031264159493,-97.3266499582289,11.355311355311358,0.1813236627379873
14:46:22.966,11.253,3.2991202346041035,-95.71183533447685,54.508382419574076,-97.3266499582289,11.111111111111114,0.1813236627379873
14:46:22.983,11.270,3.592375366568916,-95.71183533447685,55.505210693248756,-97.07602339181287,11.111111111111114,0.1813236627379873
14:46:22.999,11.286,3.6656891495601087,-95.71183533447685,56.502038966923436,-96.32414369256475,11.111111111111114,0.1813236627379873
14:46:23.016,11.303,3.812316715542522,-95.71183533447685,57.31762573629362,-95.48872180451127,11.208791208791212,0.1813236627379873
14:46:23.033,11.320,4.325513196480941,-95.71183533447685,58.04259175351157,-94.23558897243107,11.306471306471309,0.1813236627379873
14:46:23.049,11.336,4.838709677419345,-95.71183533447685,58.67693701857726,-92.73182957393483,11.355311355311358,0.1813236627379873
14:46:23.066,11.353,5.131964809384158,-95.71183533447685,59.130040779338486,-90.72681704260651,11.404151404151406,0.1813236627379873
14:46:23.083,11.370,5.131964809384158,-95.71183533447685,59.49252378794745,-88.38763575605681,11.550671550671552,0.1813236627379873
14:46:23.100,11.387,5.131964809384158,-95.71183533447685,59.673765292251915,-85.63074352548037,11.599511599511601,0.1813236627379873
14:46:23.116,11.403,5.131964809384158,-95.71183533447685,59.764386044404176,-82.70676691729324,11.64835164835165,0.1813236627379873
14:46:23.133,11.420,5.131964809384158,-95.71183533447685,59.764386044404176,-79.7827903091061,11.697191697191698,0.1813236627379873
14:46:23.150,11.437,5.131964809384158,-95.71183533447685,59.58314454009968,-77.109440267335,11.697191697191698,0.1813236627379873
14:46:23.166,11.453,5.131964809384158,-95.71183533447685,59.31128228364295,-74.43609022556392,11.697191697191698,0.1813236627379873
14:46:23.183,11.470,5.058651026392951,-95.79759862778731,59.039420027186225,-71.9298245614035,11.697191697191698,0.1813236627379873
14:46:23.200,11.487,4.912023460410552,-95.79759862778731,58.586316266425,-69.42355889724311,11.697191697191698,0.1813236627379873
14:46:23.216,11.503,4.765395894428153,-95.79759862778731,58.13321250566378,-66.91729323308272,11.64835164835165,0.1813236627379873
14:46:23.233,11.520,4.765395894428153,-95.88336192109777,57.68010874490258,-64.41102756892231,11.501831501831504,0.1813236627379873
14:46:23.250,11.537,4.692082111436946,-95.79759862778731,57.22700498414136,-62.32247284878864,11.404151404151406,0.1813236627379873
14:46:23.267,11.554,4.985337243401759,-95.62607204116638,56.6832804712279,-60.484544695071015,11.25763125763126,0.1813236627379873
14:46:23.283,11.570,5.351906158357764,-95.1114922813036,56.04893520616221,-59.23141186299081,10.720390720390725,0.1813236627379873
14:46:23.300,11.587,5.57184750733137,-94.51114922813036,55.41458994109652,-58.145363408521305,10.427350427350433,0.1813236627379873
14:46:23.317,11.604,5.57184750733137,-93.65351629502572,54.78024467603083,-57.393483709273184,10.329670329670336,0.1813236627379873
14:46:23.333,11.621,5.57184750733137,-92.45283018867924,53.96465790666062,-56.72514619883041,10.280830280830287,0.1813236627379873
14:46:23.350,11.637,5.57184750733137,-91.25214408233276,53.0584503851382,-56.140350877192986,10.231990231990238,0.1813236627379873
14:46:23.367,11.654,5.57184750733137,-89.5368782161235,51.880380607159054,-55.55555555555556,10.231990231990238,0.1813236627379873
14:46:23.384,11.671,5.6451612903225765,-87.99313893653516,50.79293158133214,-55.13784461152883,10.231990231990238,0.1813236627379873
14:46:23.400,11.687,5.6451612903225765,-86.19210977701545,49.614861803352966,-54.72013366750209,10.231990231990238,0.1813236627379873
14:46:23.417,11.704,5.6451612903225765,-84.39108061749572,48.43679202537382,-54.385964912280706,10.231990231990238,0.1813236627379873
14:46:23.434,11.721,5.6451612903225765,-82.41852487135506,47.16810149524241,-54.13533834586467,10.231990231990238,0.1813236627379873
14:46:23.450,11.738,5.6451612903225765,-80.61749571183533,45.990031717263264,-54.051796157059314,10.231990231990238,0.1813236627379873
14:46:23.467,11.754,5.6451612903225765,-78.55917667238423,44.721341187131856,-54.051796157059314,10.231990231990238,0.1813236627379873
14:46:23.484,11.771,5.718475073313783,-76.58662092624357,43.45265065700045,-54.051796157059314,10.18315018315019,0.1813236627379873
14:46:23.501,11.788,5.8651026392961825,-74.61406518010293,42.2745808790213,-54.051796157059314,10.085470085470092,0.1813236627379873
14:46:23.517,11.804,5.938416422287389,-72.72727272727273,41.18713185319439,-54.051796157059314,9.890109890109898,0.1813236627379873
14:46:23.534,11.821,6.158357771260995,-71.01200686106347,40.3715450838242,-54.30242272347536,9.645909645909654,0.1813236627379873
14:46:23.551,11.838,6.304985337243394,-69.38250428816467,39.465337562301784,-54.46950710108605,9.401709401709411,0.1813236627379873
14:46:23.567,11.854,6.451612903225794,-67.75300171526587,38.64975079293157,-54.5530492898914,9.206349206349202,0.1813236627379873
14:46:23.584,11.871,6.524926686217,-66.295025728988,37.834164023561385,-54.46950710108605,9.059829059829056,0.1813236627379873
14:46:23.601,11.888,6.598240469208207,-64.92281303602059,37.01857725419123,-53.96825396825397,8.864468864468861,0.1813236627379873
14:46:23.617,11.905,6.598240469208207,-63.7221269296741,36.38423198912551,-53.2999164578112,8.766788766788764,0.1813236627379873
14:46:23.634,11.921,6.598240469208207,-62.60720411663808,35.65926597190756,-52.54803675856308,8.669108669108667,0.1813236627379873
14:46:23.651,11.938,6.598240469208207,-61.40651801029159,34.8436792025374,-51.629072681704265,8.57142857142857,0.1813236627379873
14:46:23.668,11.955,6.598240469208207,-60.291595197255575,34.02809243316719,-50.54302422723475,8.376068376068375,0.1813236627379873
14:46:23.684,11.971,6.598240469208207,-59.17667238421955,33.12188491164477,-49.20634920634921,8.229548229548229,0.1813236627379873
14:46:23.701,11.988,6.524926686217,-58.06174957118353,32.21567739012235,-47.702589807852966,8.18070818070818,0.1813236627379873
14:46:23.718,12.005,6.524926686217,-56.94682675814751,31.218849116447643,-46.03174603174603,8.18070818070818,0.1813236627379873
14:46:23.734,12.021,6.524926686217,-56.00343053173242,30.22202084277299,-44.193817878028405,8.083028083028083,0.1813236627379873
14:46:23.751,12.038,6.524926686217,-55.06003430531732,29.22519256909831,-42.10526315789473,8.034188034188034,0.1813236627379873
14:46:23.768,12.055,6.378299120234601,-54.11663807890223,28.137743543271398,-39.93316624895572,8.034188034188034,0.1813236627379873
14:46:23.784,12.071,6.158357771260995,-53.17324185248714,27.140915269596746,-37.761069340016704,7.985347985347985,0.1813236627379873
14:46:23.801,12.088,6.011730205278582,-52.315608919382505,26.144086995922052,-35.756056808688385,7.838827838827839,0.1813236627379873
14:46:23.818,12.105,5.718475073313783,-51.45797598627787,25.237879474399634,-33.751044277360066,7.741147741147742,0.1813236627379873
14:46:23.834,12.122,5.351906158357764,-50.686106346483704,24.3316719528772,-31.8295739348371,7.741147741147742,0.1813236627379873
14:46:23.851,12.138,5.131964809384158,-49.82847341337907,23.60670593565925,-30.325814536340857,7.741147741147742,0.1813236627379873
14:46:23.868,12.155,4.985337243401759,-48.885077186963976,22.97236067059356,-29.072681704260646,7.692307692307693,0.1813236627379873
14:46:23.885,12.172,4.912023460410552,-47.94168096054888,22.33801540552787,-28.070175438596493,7.496947496947499,0.1813236627379873
14:46:23.901,12.188,4.838709677419345,-47.16981132075472,21.884911644766646,-27.067669172932327,7.252747252747255,0.1813236627379873
14:46:23.918,12.205,4.692082111436946,-46.312178387650086,21.341187131853204,-25.81453634085213,7.155067155067158,0.1813236627379873
14:46:23.935,12.222,4.47214076246334,-45.54030874785592,20.706841866787485,-24.39431913116124,7.106227106227109,0.1813236627379873
14:46:23.951,12.239,4.398826979472133,-44.768439108061756,19.981875849569548,-22.723475355054305,6.862026862026866,0.1813236627379873
14:46:23.968,12.255,4.325513196480941,-44.082332761578044,19.07566832804713,-20.718462823725986,6.666666666666671,0.1813236627379873
14:46:23.985,12.272,4.178885630498527,-43.31046312178388,18.169460806524683,-18.54636591478696,6.422466422466428,0.1813236627379873
14:46:24.002,12.289,4.105571847507321,-42.710120068610635,17.08201178069777,-16.207184628237258,6.129426129426136,0.1813236627379873
14:46:24.018,12.305,4.032258064516128,-42.02401372212693,15.994562754870856,-13.951545530492908,5.689865689865698,0.1813236627379873
14:46:24.035,12.322,4.032258064516128,-41.42367066895368,14.907113729043942,-11.779448621553883,5.25030525030526,0.1813236627379873
14:46:24.052,12.339,4.032258064516128,-40.82332761578045,13.819664703217029,-9.69089390142021,0.0,0.1813236627379873
14:46:24.068,12.355,3.9589442815249214,-40.2229845626072,12.91345718169461,-7.936507936507937,0.0,0.1813236627379873
14:46:24.085,12.372,3.8856304985337147,-39.7941680960549,11.916628908019945,-6.432748538011708,0.0,0.1813236627379873
14:46:24.102,12.389,3.812316715542522,-39.279588336192106,11.191662890802007,-5.0960735171261575,0.0,0.1813236627379873
14:46:24.118,12.405,3.6656891495601087,-38.8507718696398,10.557317625736289,-4.010025062656638,0.0,0.1813236627379873
14:46:24.135,12.422,3.5190615835777095,-38.42195540308748,10.013593112822832,-3.0910609857978386,0.0,0.1813236627379873
14:46:24.152,12.439,3.4457478005865028,-38.078902229845625,9.560489352061623,-2.172096908939011,0.0,0.1813236627379873
14:46:24.168,12.455,3.2991202346041035,-37.735849056603776,9.1073855913004,-1.2531328320802118,0.0,0.1813236627379873
14:46:24.185,12.472,3.2991202346041035,-37.39279588336192,8.563661078386957,-0.2506265664160452,0.0,0.1813236627379873
14:46:24.202,12.489,3.225806451612897,-37.04974271012007,7.929315813321253,0.8354218880534745,0.0,0.1813236627379873
14:46:24.218,12.506,3.225806451612897,-36.62092624356775,7.294970548255549,2.005012531328319,0.0,0.1813236627379873
14:46:24.235,12.522,3.225806451612897,-36.2778730703259,6.6606252831898445,3.2581453634085165,0.0,0.1813236627379873
14:46:24.252,12.539,3.225806451612897,-35.84905660377359,6.116900770276402,4.594820384294067,0.0,0.1813236627379873
14:46:24.269,12.556,3.1524926686217043,-35.506003430531734,5.482555505210684,5.931495405179604,0.0,0.1813236627379873
14:46:24.285,12.572,3.005865102639291,-35.077186963979415,4.848210240144994,7.351712614870507,0.0,0.1813236627379873
14:46:24.302,12.589,2.8592375366568916,-34.64837049742711,4.304485727231537,8.604845446950705,0.0,0.1813236627379873
14:46:24.319,12.606,2.712609970674478,-34.30531732418525,3.9420027186225752,9.774436090225564,0.0,0.1813236627379873
14:46:24.335,12.622,2.4926686217008722,-33.9622641509434,3.6701404621658327,10.860484544695083,0.0,0.1813236627379873
14:46:24.352,12.639,2.4193548387096797,-33.61921097770154,3.488898957861352,11.862990810359236,0.0,0.1813236627379873
14:46:24.369,12.656,2.4193548387096797,-33.19039451114922,3.307657453556857,12.781954887218049,0.0,0.1813236627379873
14:46:24.385,12.672,2.4193548387096797,-32.84734133790738,3.307657453556857,13.53383458646617,0.0,0.1813236627379873
14:46:24.402,12.689,2.4193548387096797,-32.504288164665525,3.307657453556857,14.202172096908953,0.0,0.1813236627379873
14:46:24.419,12.706,2.4193548387096797,-32.16123499142367,3.307657453556857,14.786967418546368,0.0,0.1813236627379873
14:46:24.435,12.723,2.346041055718473,-31.818181818181827,3.488898957861352,15.288220551378444,0.0,0.1813236627379873
14:46:24.452,12.739,2.346041055718473,-31.389365351629507,3.6701404621658327,15.705931495405181,0.0,0.1813236627379873
14:46:24.469,12.756,2.346041055718473,-30.960548885077188,3.9420027186225752,16.12364243943192,0.0,0.1813236627379873
14:46:24.486,12.773,2.346041055718473,-30.531732418524868,4.213864975079289,16.37426900584795,0.0,0.1813236627379873
14:46:24.502,12.789,2.4193548387096797,-30.0171526586621,4.576347983688265,16.541353383458656,0.0,0.1813236627379873
14:46:24.519,12.806,2.565982404692079,-29.502572898799315,4.848210240144994,16.708437761069334,0.0,0.1813236627379873
14:46:24.536,12.823,2.712609970674478,-28.902229845626067,5.210693248753955,16.87552213868004,0.0,0.1813236627379873
14:46:24.552,12.839,2.712609970674478,-28.21612349914237,5.482555505210684,17.126148705096085,0.0,0.1813236627379873
14:46:24.569,12.856,2.8592375366568916,-27.530017152658658,5.845038513819659,17.376775271512116,0.0,0.1813236627379873
14:46:24.586,12.873,2.9325513196480983,-26.758147512864497,6.116900770276402,17.7109440267335,0.0,0.1813236627379873
14:46:24.602,12.890,3.005865102639291,-26.072041166380785,6.38876302673313,18.045112781954884,0.0,0.1813236627379873
14:46:24.619,12.906,3.1524926686217043,-25.385934819897088,6.6606252831898445,18.295739348370915,0.0,0.1813236627379873
14:46:24.636,12.923,3.2991202346041035,-24.614065180102912,6.932487539646573,18.796992481203006,0.0,0.1813236627379873
14:46:24.653,12.940,3.3724340175953103,-23.927958833619215,7.204349796103315,19.214703425229757,0.0,0.1813236627379873
14:46:24.669,12.956,3.4457478005865028,-23.327615780445967,7.65745355686451,19.71595655806182,0.0,0.1813236627379873
14:46:24.686,12.973,3.5190615835777095,-22.727272727272734,8.110557317625734,20.133667502088556,0.0,0.1813236627379873
14:46:24.703,12.990,3.5190615835777095,-22.298456260720414,8.744902582691424,20.384294068504587,0.0,0.1813236627379873
14:46:24.719,13.006,3.592375366568916,-21.78387650085763,9.560489352061623,20.46783625730994,0.0,0.1813236627379873
14:46:24.736,13.023,3.6656891495601087,-21.355060034305325,10.466696873584056,20.46783625730994,0.0,0.1813236627379873
14:46:24.753,13.040,3.6656891495601087,-20.926243567753005,11.282283642954226,20.46783625730994,0.0,0.1813236627379873
14:46:24.769,13.056,3.6656891495601087,-20.497427101200685,12.188491164476673,20.46783625730994,0.0,0.1813236627379873
14:46:24.786,13.073,3.7390029325513154,-20.068610634648365,13.004077933846858,20.46783625730994,0.0,0.1813236627379873
14:46:24.803,13.090,3.812316715542522,-19.725557461406524,13.910285455369277,20.46783625730994,0.0,0.1813236627379873
14:46:24.819,13.107,3.8856304985337147,-19.296740994854204,14.99773448119619,20.46783625730994,0.0,0.1813236627379873
14:46:24.836,13.123,3.8856304985337147,-18.95368782161235,16.17580425917535,20.21720969089391,0.0,0.1813236627379873
14:46:24.853,13.140,4.032258064516128,-18.610634648370493,17.444494789306745,19.799498746867172,0.0,0.1813236627379873
14:46:24.870,13.157,4.105571847507321,-18.26758147512865,18.713185319438153,19.131161236424404,0.0,0.1813236627379873
14:46:24.886,13.173,4.178885630498527,-17.924528301886795,20.163117353874043,18.37928153717627,0.0,0.1813236627379873
14:46:24.903,13.190,4.325513196480941,-17.40994854202401,21.613049388309918,17.376775271512116,0.0,0.1813236627379873
14:46:24.920,13.207,4.398826979472133,-16.895368782161242,22.97236067059356,16.37426900584795,0.0,0.1813236627379873
14:46:24.936,13.224,4.47214076246334,-16.295025728987994,24.241051200724968,15.371762740183797,0.0,0.1813236627379873
14:46:24.953,13.240,4.618768328445739,-15.523156089193819,25.419120978704115,14.452798663324984,0.0,0.1813236627379873
14:46:24.970,13.257,4.765395894428153,-14.751286449399657,26.415949252378795,13.61737677527151,0.0,0.1813236627379873
