TKDRYU104/lerobot/motor_logs/motor_log_20250617_154125.csv
timestamp,elapsed_time,shoulder_pan.pos,shoulder_lift.pos,elbow_flex.pos,wrist_flex.pos,wrist_roll.pos,gripper.pos
15:41:25.225,0.004,0.21994134897360595,-95.79759862778731,99.8187584956955,71.9298245614035,-94.48107448107449,0.543970988213962
15:41:25.242,0.020,0.21994134897360595,-95.79759862778731,99.8187584956955,71.9298245614035,-94.48107448107449,0.543970988213962
15:41:25.259,0.037,0.21994134897360595,-95.79759862778731,99.8187584956955,71.9298245614035,-94.48107448107449,0.543970988213962
15:41:25.275,0.054,0.21994134897360595,-95.79759862778731,99.8187584956955,71.9298245614035,-94.48107448107449,0.543970988213962
15:41:25.292,0.070,0.21994134897360595,-95.79759862778731,99.8187584956955,71.9298245614035,-94.48107448107449,0.543970988213962
15:41:25.309,0.087,0.21994134897360595,-95.79759862778731,99.8187584956955,71.9298245614035,-94.48107448107449,0.543970988213962
15:41:25.325,0.104,0.21994134897360595,-95.79759862778731,99.8187584956955,71.9298245614035,-94.48107448107449,0.543970988213962
15:41:25.342,0.120,0.21994134897360595,-95.79759862778731,99.8187584956955,71.9298245614035,-94.48107448107449,0.543970988213962
15:41:25.359,0.137,0.21994134897360595,-95.79759862778731,99.8187584956955,71.9298245614035,-94.48107448107449,0.543970988213962
15:41:25.375,0.154,0.21994134897360595,-95.79759862778731,99.8187584956955,71.9298245614035,-94.48107448107449,0.543970988213962
15:41:25.392,0.171,0.21994134897360595,-95.79759862778731,99.8187584956955,71.9298245614035,-94.48107448107449,0.543970988213962
15:41:25.409,0.187,0.21994134897360595,-95.79759862778731,99.8187584956955,71.9298245614035,-94.48107448107449,0.543970988213962
15:41:25.426,0.204,0.21994134897360595,-95.79759862778731,99.8187584956955,71.9298245614035,-94.48107448107449,0.543970988213962
15:41:25.442,0.221,0.21994134897360595,-95.79759862778731,99.8187584956955,71.9298245614035,-94.48107448107449,0.543970988213962
15:41:25.459,0.237,0.21994134897360595,-95.79759862778731,99.8187584956955,71.9298245614035,-94.48107448107449,0.543970988213962
15:41:25.476,0.254,0.21994134897360595,-95.79759862778731,99.8187584956955,71.9298245614035,-94.48107448107449,0.543970988213962
15:41:25.492,0.271,0.21994134897360595,-95.79759862778731,99.8187584956955,71.9298245614035,-94.48107448107449,0.543970988213962
15:41:25.511,0.289,0.21994134897360595,-95.79759862778731,99.8187584956955,71.9298245614035,-94.48107448107449,0.543970988213962
15:41:25.533,0.312,0.21994134897360595,-95.79759862778731,99.8187584956955,71.9298245614035,-94.48107448107449,0.543970988213962
15:41:25.563,0.342,0.21994134897360595,-95.79759862778731,99.8187584956955,71.9298245614035,-94.48107448107449,0.543970988213962
15:41:25.586,0.365,0.21994134897360595,-95.79759862778731,99.8187584956955,71.9298245614035,-94.48107448107449,0.543970988213962
15:41:25.603,0.382,0.21994134897360595,-95.79759862778731,99.8187584956955,71.9298245614035,-94.48107448107449,0.543970988213962
15:41:25.620,0.398,0.21994134897360595,-95.79759862778731,99.8187584956955,71.9298245614035,-94.48107448107449,0.543970988213962
15:41:25.636,0.415,0.21994134897360595,-95.79759862778731,99.8187584956955,71.9298245614035,-94.48107448107449,0.543970988213962
15:41:25.653,0.431,0.21994134897360595,-95.79759862778731,99.8187584956955,71.9298245614035,-94.48107448107449,0.543970988213962
15:41:25.670,0.448,0.21994134897360595,-95.79759862778731,99.8187584956955,71.9298245614035,-94.48107448107449,0.543970988213962
15:41:25.686,0.465,0.21994134897360595,-95.79759862778731,99.8187584956955,71.9298245614035,-94.48107448107449,0.543970988213962
15:41:25.703,0.481,0.21994134897360595,-95.79759862778731,99.8187584956955,71.9298245614035,-94.48107448107449,0.543970988213962
15:41:25.720,0.498,0.21994134897360595,-95.79759862778731,99.8187584956955,71.9298245614035,-94.48107448107449,0.543970988213962
15:41:25.736,0.515,0.21994134897360595,-95.79759862778731,99.8187584956955,71.9298245614035,-94.48107448107449,0.543970988213962
15:41:25.753,0.531,0.21994134897360595,-95.79759862778731,99.8187584956955,71.9298245614035,-94.48107448107449,0.543970988213962
15:41:25.770,0.548,0.21994134897360595,-95.79759862778731,99.8187584956955,71.9298245614035,-94.48107448107449,0.543970988213962
15:41:25.786,0.565,0.21994134897360595,-95.79759862778731,99.8187584956955,71.9298245614035,-94.48107448107449,0.543970988213962
15:41:25.803,0.581,0.21994134897360595,-95.79759862778731,99.8187584956955,71.9298245614035,-94.48107448107449,0.543970988213962
15:41:25.820,0.598,0.21994134897360595,-95.79759862778731,99.8187584956955,71.9298245614035,-94.48107448107449,0.543970988213962
15:41:25.836,0.615,0.21994134897360595,-95.79759862778731,99.8187584956955,71.9298245614035,-94.48107448107449,0.543970988213962
15:41:25.853,0.632,0.21994134897360595,-95.79759862778731,99.8187584956955,71.9298245614035,-94.48107448107449,0.543970988213962
15:41:25.870,0.648,0.21994134897360595,-95.79759862778731,99.8187584956955,71.9298245614035,-94.48107448107449,0.543970988213962
15:41:25.887,0.665,0.21994134897360595,-95.79759862778731,99.8187584956955,71.9298245614035,-94.48107448107449,0.543970988213962
15:41:25.903,0.682,0.21994134897360595,-95.79759862778731,99.8187584956955,71.9298245614035,-94.48107448107449,0.543970988213962
15:41:25.920,0.698,0.21994134897360595,-95.79759862778731,99.8187584956955,71.9298245614035,-94.48107448107449,0.543970988213962
15:41:25.937,0.715,0.21994134897360595,-95.79759862778731,99.8187584956955,71.9298245614035,-94.48107448107449,0.543970988213962
15:41:25.953,0.732,0.21994134897360595,-95.79759862778731,99.8187584956955,71.9298245614035,-94.48107448107449,0.543970988213962
15:41:25.970,0.749,0.21994134897360595,-95.79759862778731,99.8187584956955,71.9298245614035,-94.48107448107449,0.543970988213962
15:41:25.987,0.765,0.21994134897360595,-95.79759862778731,99.8187584956955,71.9298245614035,-94.48107448107449,0.543970988213962
15:41:26.004,0.782,0.21994134897360595,-95.79759862778731,99.8187584956955,71.9298245614035,-94.48107448107449,0.543970988213962
15:41:26.020,0.799,0.21994134897360595,-95.79759862778731,99.8187584956955,71.9298245614035,-94.48107448107449,0.543970988213962
15:41:26.037,0.815,0.21994134897360595,-95.79759862778731,99.8187584956955,71.9298245614035,-94.48107448107449,0.543970988213962
15:41:26.054,0.832,0.21994134897360595,-95.79759862778731,99.8187584956955,71.9298245614035,-94.48107448107449,0.543970988213962
15:41:26.070,0.849,0.21994134897360595,-95.79759862778731,99.8187584956955,71.9298245614035,-94.48107448107449,0.543970988213962
15:41:26.087,0.865,0.21994134897360595,-95.79759862778731,99.8187584956955,71.9298245614035,-94.48107448107449,0.543970988213962
15:41:26.104,0.882,0.21994134897360595,-95.79759862778731,99.8187584956955,71.9298245614035,-94.48107448107449,0.543970988213962
15:41:26.120,0.899,0.21994134897360595,-95.79759862778731,99.8187584956955,71.9298245614035,-94.48107448107449,0.543970988213962
15:41:26.137,0.915,0.21994134897360595,-95.79759862778731,99.8187584956955,71.9298245614035,-94.48107448107449,0.543970988213962
15:41:26.154,0.932,0.21994134897360595,-95.79759862778731,99.8187584956955,71.9298245614035,-94.48107448107449,0.543970988213962
15:41:26.171,0.949,0.21994134897360595,-95.79759862778731,99.8187584956955,71.9298245614035,-94.48107448107449,0.543970988213962
15:41:26.187,0.966,0.21994134897360595,-95.79759862778731,99.8187584956955,71.9298245614035,-94.48107448107449,0.543970988213962
15:41:26.204,0.982,0.21994134897360595,-95.79759862778731,99.8187584956955,71.9298245614035,-94.48107448107449,0.543970988213962
15:41:26.221,0.999,0.21994134897360595,-95.79759862778731,99.8187584956955,71.9298245614035,-94.48107448107449,0.543970988213962
15:41:26.237,1.016,0.21994134897360595,-95.79759862778731,99.8187584956955,71.9298245614035,-94.48107448107449,0.543970988213962
15:41:26.254,1.032,0.21994134897360595,-95.79759862778731,99.8187584956955,71.9298245614035,-94.48107448107449,0.543970988213962
15:41:26.271,1.049,0.21994134897360595,-95.79759862778731,99.8187584956955,71.9298245614035,-94.48107448107449,0.543970988213962
15:41:26.287,1.066,0.21994134897360595,-95.79759862778731,99.8187584956955,71.9298245614035,-94.48107448107449,0.543970988213962
15:41:26.304,1.082,0.21994134897360595,-95.79759862778731,99.8187584956955,71.9298245614035,-94.48107448107449,0.543970988213962
15:41:26.321,1.099,0.21994134897360595,-95.79759862778731,99.8187584956955,71.9298245614035,-94.48107448107449,0.543970988213962
15:41:26.337,1.116,0.21994134897360595,-95.79759862778731,99.8187584956955,71.9298245614035,-94.48107448107449,0.543970988213962
15:41:26.354,1.133,0.21994134897360595,-95.79759862778731,99.8187584956955,71.9298245614035,-94.48107448107449,0.543970988213962
15:41:26.371,1.149,0.21994134897360595,-95.79759862778731,99.8187584956955,71.9298245614035,-94.48107448107449,0.543970988213962
15:41:26.387,1.166,0.21994134897360595,-95.79759862778731,99.8187584956955,71.9298245614035,-94.48107448107449,0.543970988213962
15:41:26.404,1.183,0.21994134897360595,-95.79759862778731,99.8187584956955,71.9298245614035,-94.48107448107449,0.543970988213962
15:41:26.421,1.199,0.21994134897360595,-95.79759862778731,99.8187584956955,71.9298245614035,-94.48107448107449,0.1813236627379873
15:41:26.438,1.216,0.21994134897360595,-95.79759862778731,99.8187584956955,71.9298245614035,-94.33455433455434,0.1813236627379873
15:41:26.454,1.233,-0.07331378299120672,-95.88336192109777,99.8187584956955,71.9298245614035,-94.23687423687424,0.1813236627379873
15:41:26.471,1.249,-0.5131964809384186,-95.88336192109777,99.8187584956955,71.84628237259815,-94.23687423687424,0.1813236627379873
15:41:26.488,1.266,-1.0263929618768373,-95.88336192109777,99.8187584956955,71.59565580618212,-94.1880341880342,0.1813236627379873
15:41:26.504,1.283,-1.6129032258064484,-95.88336192109777,99.8187584956955,71.51211361737677,-94.1880341880342,0.1813236627379873
15:41:26.521,1.300,-2.2727272727272663,-95.88336192109777,99.8187584956955,71.42857142857142,-94.1880341880342,0.1813236627379873
15:41:26.538,1.316,-2.8592375366568916,-95.88336192109777,99.8187584956955,71.26148705096074,-94.1880341880342,0.1813236627379873
15:41:26.555,1.333,-3.2991202346041035,-95.96912521440824,99.8187584956955,71.01086048454471,-94.1880341880342,0.1813236627379873
15:41:26.571,1.350,-3.812316715542522,-95.96912521440824,99.8187584956955,70.42606516290726,-94.1880341880342,0.1813236627379873
15:41:26.588,1.366,-4.178885630498527,-95.96912521440824,99.8187584956955,69.42355889724311,-94.1880341880342,0.1813236627379873
15:41:26.605,1.383,-4.47214076246334,-95.96912521440824,99.8187584956955,68.00334168755222,-94.28571428571429,0.1813236627379873
15:41:26.621,1.400,-4.618768328445739,-95.96912521440824,99.8187584956955,66.1654135338346,-94.38339438339439,0.09066183136899365
15:41:26.638,1.416,-4.618768328445739,-95.96912521440824,99.8187584956955,64.16040100250626,-94.38339438339439,0.09066183136899365
15:41:26.655,1.433,-4.618768328445739,-95.96912521440824,99.8187584956955,62.15538847117793,-94.38339438339439,0.09066183136899365
15:41:26.671,1.450,-4.618768328445739,-95.96912521440824,99.8187584956955,59.89974937343359,-94.38339438339439,0.09066183136899365
15:41:26.688,1.466,-4.545454545454547,-95.96912521440824,99.8187584956955,57.89473684210526,-94.43223443223444,0.09066183136899365
15:41:26.705,1.483,-4.325513196480941,-95.96912521440824,99.8187584956955,55.639097744360924,-94.43223443223444,0.09066183136899365
15:41:26.721,1.500,-4.032258064516128,-95.96912521440824,99.8187584956955,53.467000835421885,-94.43223443223444,0.09066183136899365
15:41:26.738,1.516,-3.8856304985337147,-95.96912521440824,99.8187584956955,51.21136173767752,-94.43223443223444,0.09066183136899365
15:41:26.755,1.533,-3.592375366568916,-95.96912521440824,99.8187584956955,49.03926482873851,-94.43223443223444,0.09066183136899365
15:41:26.772,1.550,-3.4457478005865028,-95.96912521440824,99.8187584956955,46.95071010860485,-94.38339438339439,0.09066183136899365
15:41:26.788,1.567,-3.2991202346041035,-95.96912521440824,99.8187584956955,45.02923976608187,-94.33455433455434,0.09066183136899365
15:41:26.805,1.583,-3.1524926686217043,-95.96912521440824,99.8187584956955,43.02422723475354,-94.28571428571429,0.09066183136899365
15:41:26.822,1.600,-3.0791788856304976,-95.96912521440824,99.8187584956955,41.019214703425234,-94.23687423687424,0.09066183136899365
15:41:26.838,1.617,-3.0791788856304976,-95.96912521440824,99.8187584956955,39.0142021720969,-94.23687423687424,0.09066183136899365
15:41:26.855,1.633,-3.005865102639291,-95.96912521440824,99.8187584956955,36.92564745196324,-94.28571428571429,0.09066183136899365
15:41:26.872,1.650,-2.9325513196480983,-95.96912521440824,99.8187584956955,35.00417710944026,-94.33455433455434,0.09066183136899365
15:41:26.888,1.667,-2.8592375366568916,-95.96912521440824,99.8187584956955,32.99916457811193,-94.23687423687424,0.09066183136899365
15:41:26.905,1.684,-2.8592375366568916,-95.96912521440824,99.8187584956955,31.07769423558898,-94.23687423687424,0.09066183136899365
15:41:26.922,1.700,-2.8592375366568916,-95.96912521440824,99.8187584956955,29.239766081871352,-94.1880341880342,0.09066183136899365
15:41:26.939,1.717,-2.8592375366568916,-95.96912521440824,99.8187584956955,27.652464494569756,-94.1880341880342,0.09066183136899365
15:41:26.955,1.734,-2.785923753665685,-95.96912521440824,99.8187584956955,26.065162907268174,-94.1880341880342,0.1813236627379873
15:41:26.972,1.750,-2.712609970674478,-95.96912521440824,99.8187584956955,24.64494569757727,-94.1880341880342,0.3626473254759746
15:41:26.989,1.767,-2.6392961876832857,-95.96912521440824,99.8187584956955,23.30827067669172,-94.1880341880342,0.3626473254759746
15:41:27.005,1.784,-2.565982404692079,-95.96912521440824,99.8187584956955,22.055137844611522,-94.1880341880342,0.3626473254759746
15:41:27.022,1.800,-2.4926686217008722,-95.96912521440824,99.8187584956955,21.05263157894737,-94.1880341880342,0.3626473254759746
15:41:27.039,1.817,-2.4193548387096797,-95.96912521440824,99.8187584956955,20.133667502088556,-94.1880341880342,0.3626473254759746
15:41:27.055,1.834,-2.2727272727272663,-95.96912521440824,99.8187584956955,19.381787802840435,-94.1880341880342,0.3626473254759746
15:41:27.072,1.850,-2.1994134897360738,-95.96912521440824,99.8187584956955,18.629908103592314,-94.1880341880342,0.45330915684496825
15:41:27.089,1.867,-2.0527859237536603,-95.96912521440824,99.8187584956955,18.045112781954884,-94.1880341880342,0.45330915684496825
15:41:27.105,1.884,-1.9794721407624678,-95.96912521440824,99.8187584956955,17.46031746031747,-94.1880341880342,0.45330915684496825
15:41:27.122,1.900,-1.9794721407624678,-95.96912521440824,99.8187584956955,16.87552213868004,-94.23687423687424,0.45330915684496825
15:41:27.139,1.917,-1.906158357771261,-95.96912521440824,99.8187584956955,16.457811194653303,-94.38339438339439,0.45330915684496825
15:41:27.155,1.934,-1.906158357771261,-95.96912521440824,99.8187584956955,16.040100250626566,-94.38339438339439,0.45330915684496825
15:41:27.172,1.951,-1.906158357771261,-95.96912521440824,99.8187584956955,15.789473684210535,-94.43223443223444,0.45330915684496825
15:41:27.189,1.967,-1.7595307917888476,-95.96912521440824,99.8187584956955,15.53884711779449,-94.43223443223444,0.45330915684496825
15:41:27.206,1.984,-1.6862170087976551,-95.96912521440824,99.8187584956955,15.371762740183797,-94.43223443223444,0.45330915684496825
15:41:27.222,2.001,-1.6129032258064484,-95.96912521440824,99.8187584956955,15.204678362573105,-94.43223443223444,0.45330915684496825
15:41:27.239,2.017,-1.4662756598240492,-95.96912521440824,99.8187584956955,15.037593984962399,-94.43223443223444,0.45330915684496825
15:41:27.256,2.034,-1.3196480938416357,-95.96912521440824,99.8187584956955,14.954051796157046,-94.43223443223444,0.45330915684496825
15:41:27.272,2.051,-1.1730205278592365,-95.96912521440824,99.8187584956955,14.786967418546368,-94.43223443223444,0.45330915684496825
15:41:27.289,2.068,-1.0263929618768373,-95.96912521440824,99.8187584956955,14.452798663324984,-94.43223443223444,0.271985494106981
15:41:27.306,2.084,-0.9530791788856305,-95.96912521440824,99.8187584956955,14.1186299081036,-94.48107448107449,0.09066183136899365
15:41:27.323,2.101,-0.7331378299120246,-95.96912521440824,99.8187584956955,13.61737677527151,-94.48107448107449,0.09066183136899365
15:41:27.339,2.118,-0.5865102639296254,-95.96912521440824,99.8187584956955,12.949039264828727,-94.52991452991454,0.09066183136899365
15:41:27.356,2.134,-0.3665689149560052,-95.96912521440824,99.8187584956955,12.11361737677528,-94.52991452991454,0.09066183136899365
15:41:27.373,2.151,-0.21994134897360595,-95.96912521440824,99.8187584956955,11.278195488721792,-94.52991452991454,0.09066183136899365
15:41:27.389,2.168,0.0,-95.96912521440824,99.8187584956955,10.359231411862993,-94.52991452991454,0.09066183136899365
15:41:27.406,2.185,0.07331378299120672,-95.96912521440824,99.8187584956955,9.44026733500418,-94.52991452991454,0.09066183136899365
15:41:27.423,2.201,0.21994134897360595,-95.96912521440824,99.8187584956955,8.688387635756058,-94.52991452991454,0.09066183136899365
15:41:27.439,2.218,0.3665689149560052,-95.96912521440824,99.8187584956955,8.103592314118629,-94.52991452991454,0.09066183136899365
15:41:27.456,2.235,0.4398826979472119,-95.96912521440824,99.72813774354327,7.852965747702598,-94.52991452991454,0.09066183136899365
15:41:27.473,2.251,0.5131964809384186,-95.88336192109777,99.45627548708654,7.852965747702598,-94.57875457875458,0.09066183136899365
15:41:27.490,2.268,0.5865102639296254,-95.79759862778731,99.09379247847755,8.103592314118629,-94.62759462759463,0.09066183136899365
15:41:27.506,2.285,0.5865102639296254,-95.62607204116638,98.55006796556412,8.604845446950705,-94.77411477411478,0.09066183136899365
15:41:27.523,2.302,0.5865102639296254,-95.1114922813036,97.82510194834617,9.356725146198826,-94.87179487179488,0.09066183136899365
15:41:27.540,2.318,0.5865102639296254,-94.25385934819897,96.8282736746715,10.359231411862993,-95.01831501831502,0.09066183136899365
15:41:27.556,2.335,0.5131964809384186,-92.88164665523156,95.46896239238785,11.445279866332498,-95.45787545787546,0.09066183136899365
15:41:27.573,2.352,0.21994134897360595,-90.99485420240137,93.74716810149525,12.698412698412696,-96.04395604395604,0.09066183136899365
15:41:27.590,2.368,0.0,-88.59348198970841,91.66289080199365,13.868003341687569,-96.77655677655677,0.09066183136899365
15:41:27.607,2.385,-0.07331378299120672,-85.24871355060034,89.12550974173087,14.786967418546368,-97.6068376068376,0.09066183136899365
15:41:27.624,2.402,-0.14662756598239923,-81.04631217838765,86.13502492070683,15.204678362573105,-98.58363858363859,0.09066183136899365
15:41:27.640,2.419,-0.14662756598239923,-76.07204116638079,82.78205709107385,15.45530492898915,-99.60927960927961,0.09066183136899365
15:41:27.657,2.435,-0.07331378299120672,-70.49742710120069,78.88536474852742,15.45530492898915,99.26739926739927,0.09066183136899365
15:41:27.674,2.452,0.3665689149560052,-64.57975986277873,74.626189397372,15.45530492898915,98.24175824175825,0.09066183136899365
15:41:27.690,2.469,0.8064516129032313,-58.919382504288166,70.09515178975985,15.45530492898915,97.21611721611723,0.09066183136899365
15:41:27.707,2.485,1.3196480938416357,-52.915951972555746,65.7453556864522,15.371762740183797,96.28815628815627,0.09066183136899365
15:41:27.724,2.502,1.8328445747800544,-47.08404802744426,61.033076574535556,15.037593984962399,95.5067155067155,0.09066183136899365
15:41:27.740,2.519,2.4193548387096797,-41.59519725557461,56.59265971907567,14.36925647451963,94.96947496947496,0.09066183136899365
15:41:27.757,2.536,2.8592375366568916,-36.706689536878216,52.78658812868147,12.865497076023402,94.72527472527472,0.09066183136899365
15:41:27.774,2.552,3.225806451612897,-32.41852487135506,49.70548255550523,10.5263157894737,94.67643467643467,0.09066183136899365
15:41:27.791,2.570,3.4457478005865028,-28.902229845626067,47.16810149524241,7.936507936507937,94.67643467643467,0.09066183136899365
15:41:27.809,2.588,3.592375366568916,-25.814751286449393,44.90258269143635,5.5973266499582195,94.72527472527472,0.09066183136899365
15:41:27.826,2.605,3.6656891495601087,-23.670668953687823,42.90892614408699,4.511278195488728,94.87179487179486,0.09066183136899365
15:41:27.849,2.628,3.6656891495601087,-21.869639794168094,41.096511101042125,4.427736006683375,94.92063492063491,0.09066183136899365
15:41:27.859,2.637,3.6656891495601087,-20.58319039451115,39.28409605799729,5.179615705931511,94.87179487179486,0.09066183136899365
15:41:27.875,2.654,3.6656891495601087,-19.55403087478558,37.65292251925692,6.09857978279031,94.77411477411476,0.09066183136899365
15:41:27.892,2.671,3.592375366568916,-18.610634648370493,36.29361123697328,7.101086048454476,94.72527472527472,0.09066183136899365
15:41:27.909,2.687,3.592375366568916,-17.83876500857633,35.20616221114636,7.852965747702598,94.72527472527472,0.09066183136899365
15:41:27.926,2.704,3.4457478005865028,-17.15265866209262,34.20933393747168,8.187134502923982,94.77411477411476,0.09066183136899365
15:41:27.942,2.721,3.2991202346041035,-16.38078902229846,33.48436792025373,8.187134502923982,94.92063492063491,0.09066183136899365
15:41:27.959,2.737,3.225806451612897,-15.523156089193819,32.75940190303578,8.103592314118629,94.96947496947496,0.09066183136899365
15:41:27.976,2.754,3.0791788856304976,-14.493996569468266,31.943815133665595,8.103592314118629,95.01831501831501,0.09066183136899365
15:41:27.992,2.771,2.8592375366568916,-13.550600343053176,31.037607612143177,8.103592314118629,95.06715506715506,0.09066183136899365
15:41:28.009,2.787,2.712609970674478,-12.607204116638087,30.22202084277299,8.103592314118629,95.06715506715506,0.09066183136899365
15:41:28.026,2.804,2.4926686217008722,-11.57804459691252,29.315813321250573,8.187134502923982,95.06715506715506,0.09066183136899365
15:41:28.042,2.821,2.346041055718473,-10.548885077186966,28.500226551880388,8.187134502923982,95.06715506715506,0.09066183136899365
15:41:28.059,2.838,2.1994134897360738,-9.605488850771877,27.775260534662436,8.103592314118629,95.06715506715506,0.09066183136899365
15:41:28.076,2.854,2.0527859237536603,-8.662092624356774,27.0502945174445,8.020050125313276,95.06715506715506,0.09066183136899365
15:41:28.092,2.871,1.906158357771261,-7.7186963979416845,26.415949252378795,7.852965747702598,95.06715506715506,0.09066183136899365
15:41:28.109,2.888,1.7595307917888476,-6.946826758147523,25.962845491617585,7.769423558897245,95.06715506715506,0.09066183136899365
15:41:28.126,2.904,1.6129032258064484,-6.2607204116638115,25.509741730856362,7.6858813700918915,95.06715506715506,0.09066183136899365
15:41:28.143,2.921,1.4662756598240492,-5.5746140651801,25.147258722247386,7.6858813700918915,95.06715506715506,0.09066183136899365
15:41:28.159,2.938,1.3196480938416357,-5.0600343053173304,24.784775713638425,7.602339181286538,95.06715506715506,0.09066183136899365
15:41:28.176,2.954,1.1730205278592365,-4.545454545454547,24.603534209333944,7.518796992481214,95.06715506715506,0.09066183136899365
15:41:28.193,2.971,1.0263929618768373,-4.030874785591763,24.42229270502945,7.268170426065154,95.1159951159951,0.09066183136899365
15:41:28.209,2.988,0.8797653958944238,-3.5162950257289936,24.241051200724968,7.017543859649123,95.26251526251525,0.09066183136899365
15:41:28.226,3.005,0.8064516129032313,-2.830188679245282,24.059809696420473,6.599832915622386,95.3113553113553,0.09066183136899365
15:41:28.243,3.021,0.8064516129032313,-2.0583190394511206,23.60670593565925,6.265664160401002,95.36019536019535,0.09066183136899365
15:41:28.261,3.040,0.8064516129032313,-1.0291595197255532,23.062981422745807,6.015037593984957,95.36019536019535,0.09066183136899365
15:41:28.279,3.057,0.8064516129032313,-0.1715265866209279,22.428636157680117,6.015037593984957,95.4090354090354,0.09066183136899365
15:41:28.295,3.074,0.8064516129032313,0.6003430531732477,21.7942908926144,6.015037593984957,95.4090354090354,0.09066183136899365
15:41:28.312,3.090,0.7331378299120246,1.372212692967409,21.341187131853204,6.015037593984957,95.4090354090354,0.09066183136899365
15:41:28.329,3.107,0.6598240469208179,2.1440823327615703,20.88808337109198,6.015037593984957,95.4090354090354,0.09066183136899365
15:41:28.345,3.124,0.5865102639296254,2.830188679245296,20.525600362483004,6.015037593984957,95.4090354090354,0.09066183136899365
15:41:28.362,3.140,0.5131964809384186,3.5162950257289936,20.25373810602629,5.847953216374279,95.4090354090354,0.09066183136899365
15:41:28.379,3.157,0.4398826979472119,4.116638078902241,20.163117353874043,5.5973266499582195,95.4090354090354,0.09066183136899365
15:41:28.395,3.174,0.3665689149560052,4.631217838765011,20.072496601721795,5.3467000835421885,95.45787545787545,0.09066183136899365
15:41:28.412,3.190,0.2932551319648127,4.9742710120068665,20.072496601721795,5.0960735171261575,95.45787545787545,0.09066183136899365
15:41:28.429,3.207,0.14662756598239923,5.403087478559172,20.072496601721795,5.012531328320804,95.45787545787545,0.09066183136899365
15:41:28.445,3.224,0.0,5.746140651801028,20.072496601721795,4.928989139515451,95.45787545787545,0.09066183136899365
15:41:28.462,3.241,-0.07331378299120672,6.00343053173242,20.072496601721795,4.928989139515451,95.45787545787545,0.09066183136899365
15:41:28.479,3.257,-0.14662756598239923,6.3464837049742755,20.072496601721795,4.928989139515451,95.45787545787545,0.09066183136899365
15:41:28.495,3.274,-0.2932551319648127,6.603773584905667,20.072496601721795,4.928989139515451,95.45787545787545,0.09066183136899365
15:41:28.512,3.291,-0.3665689149560052,6.946826758147509,20.072496601721795,4.928989139515451,95.5067155067155,0.09066183136899365
15:41:28.529,3.307,-0.4398826979472119,7.289879931389365,19.891255097417314,4.928989139515451,95.5067155067155,0.09066183136899365
15:41:28.546,3.324,-0.5131964809384186,7.804459691252134,19.619392840960572,5.0960735171261575,95.55555555555554,0.09066183136899365
15:41:28.562,3.341,-0.6598240469208179,8.233276157804468,19.07566832804713,5.430242272347542,95.55555555555554,0.09066183136899365
15:41:28.579,3.357,-0.7331378299120246,8.747855917667252,18.53194381513366,6.015037593984957,95.60439560439559,0.09066183136899365
15:41:28.596,3.374,-0.8064516129032313,9.262435677530021,17.806977797915707,6.766917293233092,95.60439560439559,0.09066183136899365
15:41:28.612,3.391,-0.8797653958944238,9.862778730703269,16.81014952424104,7.518796992481214,95.60439560439559,0.09066183136899365
15:41:28.629,3.407,-0.8797653958944238,10.377358490566053,15.813321250566375,8.27067669172932,95.60439560439559,0.09066183136899365
15:41:28.646,3.424,-0.9530791788856305,10.891938250428822,14.816492976891709,9.106098579782795,95.60439560439559,0.09066183136899365
15:41:28.662,3.441,-0.9530791788856305,11.149228130360214,13.819664703217029,10.108604845446962,95.60439560439559,0.09066183136899365
15:41:28.679,3.457,-0.9530791788856305,11.320754716981128,12.732215677390116,11.111111111111114,95.60439560439559,0.09066183136899365
15:41:28.696,3.474,-0.9530791788856305,11.234991423670664,11.826008155867697,12.11361737677528,95.60439560439559,0.09066183136899365
15:41:28.712,3.491,-1.0263929618768373,10.63464837049743,11.282283642954226,12.865497076023402,95.60439560439559,0.09066183136899365
15:41:28.729,3.508,-1.0997067448680298,9.605488850771863,11.010421386497498,13.700918964076862,95.60439560439559,0.09066183136899365
15:41:28.746,3.524,-1.3196480938416357,8.061749571183526,11.101042138649746,14.703425229741015,95.60439560439559,0.09066183136899365
15:41:28.763,3.541,-1.4662756598240492,5.917667238421956,11.644766651563202,15.873015873015888,95.75091575091574,0.09066183136899365
15:41:28.779,3.558,-1.7595307917888476,3.00171526586621,13.004077933846858,16.95906432748538,96.04395604395603,0.09066183136899365
15:41:28.796,3.574,-2.126099706744867,-0.6861063464837116,14.99773448119619,17.878028404344207,96.38583638583637,0.09066183136899365
15:41:28.813,3.591,-2.6392961876832857,-4.716981132075475,17.35387403715451,18.796992481203006,96.58119658119656,0.09066183136899365
15:41:28.829,3.608,-3.1524926686217043,-9.00514579759863,19.52877208880834,20.21720969089391,96.77655677655676,0.09066183136899365
15:41:28.846,3.624,-3.7390029325513154,-13.464837049742712,21.70367014046218,21.97159565580617,97.16727716727718,0.09066183136899365
15:41:28.863,3.641,-4.252199413489734,-17.753001715265867,23.969188944268225,23.80952380952381,97.65567765567766,0.09066183136899365
15:41:28.879,3.658,-4.838709677419345,-21.869639794168094,25.78160398731309,26.148705096073527,97.94871794871796,0.09066183136899365
15:41:28.896,3.675,-5.498533724340177,-25.385934819897088,26.95967376529225,28.571428571428584,98.24175824175825,0.09066183136899365
15:41:28.913,3.691,-6.011730205278582,-28.387650085763298,28.047122791119165,30.40935672514621,98.68131868131869,0.09066183136899365
15:41:28.930,3.708,-6.451612903225808,-31.21783876500858,29.49705482555504,31.495405179615716,99.31623931623932,0.09066183136899365
15:41:28.946,3.725,-6.818181818181827,-33.876500857632934,31.400090620752167,31.411862990810363,99.75579975579976,0.09066183136899365
15:41:28.963,3.741,-7.111436950146626,-36.19210977701543,33.75623017671049,30.325814536340857,-99.9023199023199,0.09066183136899365
15:41:28.980,3.758,-7.331378299120246,-38.42195540308748,36.20299048482104,28.571428571428584,-99.46275946275946,0.09066183136899365
15:41:28.997,3.775,-7.478005865102645,-40.39451114922813,38.64975079293157,26.566416040100265,-98.87667887667888,0.09066183136899365
15:41:29.013,3.792,-7.624633431085044,-42.10977701543739,41.096511101042125,24.310776942355886,-98.33943833943835,0.09066183136899365
15:41:29.030,3.808,-7.84457478005865,-43.73927958833619,43.45265065700045,21.888053467000844,-97.8998778998779,0.09066183136899365
15:41:29.047,3.825,-7.991202346041064,-45.1114922813036,45.44630720434978,19.799498746867172,-97.46031746031746,0.09066183136899365
15:41:29.063,3.842,-8.064516129032256,-46.22641509433962,47.258722247394644,18.128654970760238,-97.06959706959707,0.09066183136899365
15:41:29.080,3.858,-8.137829912023463,-47.341337907375646,48.618033529678314,16.95906432748538,-96.82539682539682,0.09066183136899365
15:41:29.097,3.875,-8.137829912023463,-48.3704974271012,49.70548255550523,16.62489557226398,-96.72771672771673,0.09066183136899365
15:41:29.113,3.892,-8.137829912023463,-49.313893653516296,50.43044857272315,16.791979949874687,-96.72771672771673,0.09066183136899365
15:41:29.130,3.909,-8.21114369501467,-50.25728987993139,50.97417308563661,17.376775271512116,-96.72771672771673,0.09066183136899365
15:41:29.147,3.925,-8.21114369501467,-51.20068610634648,51.517897598550064,18.045112781954884,-96.72771672771673,0.09066183136899365
15:41:29.163,3.942,-8.137829912023463,-52.14408233276158,52.15224286361578,18.46282372598162,-96.72771672771673,0.09066183136899365
15:41:29.180,3.959,-7.991202346041064,-53.087478559176674,52.96782963298597,18.713450292397653,-96.72771672771673,0.09066183136899365
15:41:29.197,3.975,-7.917888563049857,-54.03087478559176,53.96465790666062,18.796992481203006,-96.72771672771673,0.09066183136899365
15:41:29.214,3.992,-7.771260997067458,-54.97427101200686,55.05210693248753,18.796992481203006,-96.67887667887668,0.09066183136899365
15:41:29.230,4.009,-7.697947214076251,-55.917667238421956,56.04893520616221,18.88053467000836,-96.48351648351648,0.09066183136899365
15:41:29.247,4.025,-7.624633431085044,-56.77530017152659,57.22700498414136,18.88053467000836,-96.28815628815629,0.09066183136899365
15:41:29.264,4.042,-7.624633431085044,-57.718696397941684,58.49569551427277,18.964076858813698,-96.09279609279609,0.09066183136899365
15:41:29.281,4.059,-7.551319648093852,-58.57632933104631,59.673765292251915,19.04761904761905,-95.995115995116,0.09066183136899365
15:41:29.297,4.076,-7.551319648093852,-59.348198970840485,60.76121431807883,19.54887218045114,-95.995115995116,0.09066183136899365
15:41:29.314,4.092,-7.551319648093852,-60.20583190394511,61.667421839601275,20.21720969089391,-95.995115995116,0.09066183136899365
15:41:29.331,4.109,-7.551319648093852,-61.06346483704974,62.664250113275955,21.3032581453634,-95.995115995116,0.09066183136899365
15:41:29.347,4.126,-7.478005865102645,-61.83533447684391,63.47983688264614,22.556390977443613,-96.04395604395604,0.09066183136899365
15:41:29.364,4.142,-7.478005865102645,-62.692967409948544,64.38604440416856,24.060150375939855,-96.14163614163614,0.09066183136899365
15:41:29.381,4.159,-7.478005865102645,-63.7221269296741,65.292251925691,25.563909774436098,-96.23931623931624,0.09066183136899365
15:41:29.397,4.176,-7.478005865102645,-64.75128644939966,66.1984594472134,27.234753550543033,-96.23931623931624,0.09066183136899365
15:41:29.414,4.192,-7.478005865102645,-65.69468267581476,67.01404621658361,28.822055137844615,-96.38583638583638,0.09066183136899365
15:41:29.431,4.209,-7.404692082111438,-66.46655231560891,67.6483914816493,30.57644110275689,-96.63003663003663,0.09066183136899365
15:41:29.447,4.226,-7.331378299120246,-67.06689536878216,68.28273674671499,32.33082706766916,-96.82539682539682,0.09066183136899365
15:41:29.464,4.242,-7.258064516129039,-67.75300171526587,68.73584050747621,33.91812865497076,-97.02075702075702,0.09066183136899365
15:41:29.481,4.259,-7.184750733137832,-68.26758147512865,69.27956502038967,35.505430242272354,-97.21611721611721,0.09066183136899365
15:41:29.497,4.276,-7.111436950146626,-68.69639794168096,69.64204802899866,36.92564745196324,-97.4114774114774,0.09066183136899365
15:41:29.514,4.293,-7.038123167155433,-69.12521440823328,70.18577254191209,38.26232247284881,-97.65567765567765,0.09066183136899365
15:41:29.531,4.309,-6.89149560117302,-69.2967409948542,70.36701404621658,39.849624060150376,-97.94871794871796,0.09066183136899365
15:41:29.548,4.326,-6.818181818181827,-69.38250428816467,70.36701404621658,41.60401002506268,-98.2905982905983,0.09066183136899365
15:41:29.564,4.343,-6.7448680351906205,-69.38250428816467,70.27639329406435,43.441938178780276,-98.58363858363859,0.09066183136899365
15:41:29.581,4.359,-6.7448680351906205,-69.2967409948542,70.09515178975985,45.363408521303256,-98.87667887667888,0.09066183136899365
15:41:29.598,4.376,-6.598240469208221,-69.21097770154374,70.00453103760762,47.03425229741018,-99.07203907203908,0.09066183136899365
15:41:29.614,4.393,-6.5249266862170145,-69.03945111492281,69.91391028545536,48.454469507101095,-99.26739926739927,0.09066183136899365
15:41:29.631,4.409,-6.378299120234615,-68.95368782161235,69.91391028545536,49.79114452798663,-99.36507936507937,0.09066183136899365
15:41:29.648,4.426,-6.231671554252188,-68.78216123499142,69.82328953330313,50.793650793650784,-99.51159951159951,0.09066183136899365
15:41:29.664,4.443,-6.011730205278582,-68.43910806174958,69.73266878115086,51.796157059314964,-99.56043956043956,0.09066183136899365
15:41:29.681,4.460,-5.791788856304976,-68.01029159519726,69.64204802899866,52.63157894736844,-99.65811965811966,0.09066183136899365
15:41:29.698,4.476,-5.57184750733137,-67.58147512864494,69.5514272768464,53.1328320802005,-99.70695970695971,0.09066183136899365
15:41:29.715,4.493,-5.278592375366571,-66.98113207547169,69.3701857725419,53.38345864661653,-99.70695970695971,0.09066183136899365
15:41:29.731,4.510,-4.912023460410552,-66.20926243567753,69.09832351608517,53.38345864661653,-99.70695970695971,0.09066183136899365
15:41:29.748,4.526,-4.47214076246334,-65.3516295025729,68.73584050747621,52.96574770258982,-99.70695970695971,0.09066183136899365
15:41:29.765,4.543,-4.032258064516128,-64.32246998284734,68.19211599456276,52.38095238095238,-99.70695970695971,0.09066183136899365
15:41:29.781,4.560,-3.592375366568916,-63.293310463121784,67.46714997734483,51.46198830409355,-99.56043956043956,0.09066183136899365
15:41:29.798,4.576,-3.1524926686217043,-62.264150943396224,66.47032170367012,50.37593984962405,-99.51159951159951,0.09066183136899365
15:41:29.815,4.593,-2.712609970674478,-60.97770154373928,65.292251925691,49.206349206349216,-99.46275946275946,0.09066183136899365
15:41:29.831,4.610,-2.2727272727272663,-59.60548885077187,63.75169913910287,47.86967418546365,-99.46275946275946,0.09066183136899365
15:41:29.848,4.626,-1.8328445747800544,-58.147512864494,62.21114635251473,46.44945697577276,-99.46275946275946,0.09066183136899365
15:41:29.865,4.643,-1.3929618768328424,-56.689536878216124,60.308110557317605,45.02923976608187,-99.41391941391942,0.09066183136899365
15:41:29.881,4.660,-0.9530791788856305,-55.317324185248715,58.22383325781604,43.60902255639098,-99.41391941391942,0.09066183136899365
15:41:29.898,4.677,-0.5865102639296254,-53.85934819897084,56.04893520616221,42.35588972431077,-99.41391941391942,0.09066183136899365
15:41:29.915,4.693,-0.2932551319648127,-52.487135506003426,53.60217489805166,41.60401002506268,-99.41391941391942,0.09066183136899365
15:41:29.932,4.710,-0.07331378299120672,-51.11492281303602,51.06479383778887,41.019214703425234,-99.46275946275946,0.09066183136899365
15:41:29.948,4.727,0.14662756598239923,-49.82847341337907,48.34617127322156,40.68504594820382,-99.56043956043956,0.09066183136899365
15:41:29.965,4.743,0.3665689149560052,-48.713550600343055,45.53692795650204,40.43441938178779,-99.65811965811966,0.09066183136899365
15:41:29.982,4.760,0.5865102639296254,-47.684391080617495,42.90892614408699,40.18379281537176,-99.75579975579976,0.09066183136899365
15:41:29.998,4.777,0.8064516129032313,-46.82675814751286,40.3715450838242,39.849624060150376,-100.0,0.09066183136899365
15:41:30.015,4.794,0.9530791788856305,-46.140651801029165,38.10602628001814,39.26482873851296,99.85347985347985,0.09066183136899365
15:41:30.032,4.810,1.1730205278592365,-45.626072041166374,36.11236973266878,38.68003341687552,99.65811965811966,0.09066183136899365
15:41:30.048,4.827,1.3929618768328424,-45.36878216123499,34.39057544177618,37.76106934001672,99.51159951159951,0.09066183136899365
15:41:30.065,4.844,1.6129032258064484,-45.19725557461407,32.940643407340275,36.75856307435254,99.41391941391942,0.09066183136899365
15:41:30.082,4.860,1.8328445747800544,-45.1114922813036,31.76257362936113,35.67251461988303,99.41391941391942,0.09066183136899365
15:41:30.099,4.877,1.9794721407624678,-45.19725557461407,30.946986859990943,34.586466165413555,99.41391941391942,0.09066183136899365
15:41:30.115,4.894,2.1994134897360738,-45.45454545454546,30.403262347077487,33.24979114452799,99.41391941391942,0.09066183136899365
15:41:30.132,4.910,2.4193548387096797,-45.883361921097766,30.13140009062073,31.996658312447778,99.41391941391942,0.09066183136899365
15:41:30.149,4.927,2.565982404692079,-46.483704974271014,30.040779338468525,30.65998329156224,99.41391941391942,0.09066183136899365
15:41:30.165,4.944,2.6392961876832857,-47.16981132075472,30.040779338468525,29.490392648287383,99.41391941391942,0.09066183136899365
15:41:30.182,4.961,2.785923753665685,-48.02744425385935,30.13140009062073,28.571428571428584,99.41391941391942,0.09066183136899365
15:41:30.199,4.977,2.8592375366568916,-48.885077186963976,30.312641594925225,27.73600668337511,99.36507936507937,0.09066183136899365
15:41:30.215,4.994,3.005865102639291,-49.74271012006861,30.584503851381953,26.90058479532165,99.26739926739927,0.09066183136899365
15:41:30.232,5.011,3.0791788856304976,-50.60034305317324,30.85636610783868,26.232247284878866,99.16971916971917,0.09066183136899365
15:41:30.249,5.027,3.225806451612897,-51.54373927958834,31.309469868599905,25.563909774436098,99.12087912087912,0.09066183136899365
15:41:30.266,5.044,3.2991202346041035,-52.487135506003426,31.85319438151336,24.812030075187977,99.12087912087912,0.09066183136899365
15:41:30.282,5.061,3.3724340175953103,-53.43053173241852,32.48753964657908,23.893065998329163,99.12087912087912,0.09066183136899365
15:41:30.299,5.077,3.5190615835777095,-54.45969125214408,33.3937471681015,22.807017543859658,99.12087912087912,0.09066183136899365
15:41:30.316,5.094,3.592375366568916,-55.48885077186964,34.39057544177618,21.470342522974107,99.12087912087912,0.09066183136899365
15:41:30.332,5.111,3.592375366568916,-56.43224699828473,35.65926597190756,19.96658312447785,99.12087912087912,0.09066183136899365
15:41:30.349,5.127,3.6656891495601087,-57.54716981132076,36.92795650203897,18.46282372598162,99.26739926739927,0.09066183136899365
15:41:30.366,5.144,3.7390029325513154,-58.57632933104631,38.19664703217035,17.042606516290732,99.31623931623932,0.09066183136899365
15:41:30.382,5.161,3.7390029325513154,-59.77701543739279,39.55595831445402,15.45530492898915,99.41391941391942,0.09066183136899365
15:41:30.399,5.177,3.8856304985337147,-60.72041166380789,40.8246488445854,13.951545530492893,99.46275946275946,0.09066183136899365
15:41:30.416,5.194,3.8856304985337147,-61.663807890222984,42.093339374716834,12.614870509607343,99.56043956043956,0.09066183136899365
15:41:30.433,5.211,3.8856304985337147,-62.521440823327616,43.27140915269595,11.445279866332498,99.60927960927961,0.09066183136899365
15:41:30.449,5.228,3.8856304985337147,-63.293310463121784,44.26823742637066,10.5263157894737,99.70695970695971,0.09066183136899365
15:41:30.466,5.244,3.8856304985337147,-63.97941680960549,45.08382419574082,9.607351712614872,99.70695970695971,0.09066183136899365
15:41:30.482,5.261,3.8856304985337147,-64.6655231560892,45.899410965111,8.939014202172089,99.70695970695971,0.09066183136899365
15:41:30.499,5.278,3.8856304985337147,-65.26586620926244,46.624376982328954,8.27067669172932,99.70695970695971,0.09066183136899365
15:41:30.516,5.294,3.8856304985337147,-65.86620926243567,47.258722247394644,7.769423558897245,99.70695970695971,0.09066183136899365
15:41:30.533,5.311,3.8856304985337147,-66.38078902229846,47.71182600815587,7.268170426065154,99.70695970695971,0.09066183136899365
15:41:30.549,5.328,3.8856304985337147,-66.80960548885076,48.255550521069324,6.8504594820384455,99.70695970695971,0.09066183136899365
15:41:30.566,5.345,3.8856304985337147,-67.15265866209262,48.618033529678314,6.432748538011708,99.70695970695971,0.09066183136899365
15:41:30.583,5.361,3.8856304985337147,-67.40994854202401,48.88989578613504,6.015037593984957,99.70695970695971,0.09066183136899365
15:41:30.599,5.378,3.8856304985337147,-67.6672384219554,49.16175804259174,5.680868838763573,99.70695970695971,0.09066183136899365
15:41:30.616,5.395,3.8856304985337147,-67.83876500857633,49.252378794744004,5.430242272347542,99.70695970695971,0.09066183136899365
15:41:30.633,5.411,3.8856304985337147,-67.9245283018868,49.34299954689624,5.263157894736835,99.70695970695971,0.09066183136899365
15:41:30.650,5.428,3.8856304985337147,-67.9245283018868,49.43362029904847,5.0960735171261575,99.70695970695971,0.09066183136899365
15:41:30.666,5.445,3.8856304985337147,-68.01029159519726,49.43362029904847,5.0960735171261575,99.70695970695971,0.09066183136899365
15:41:30.683,5.461,3.8856304985337147,-68.01029159519726,49.43362029904847,5.0960735171261575,99.70695970695971,0.09066183136899365
15:41:30.700,5.478,3.8856304985337147,-68.01029159519726,49.43362029904847,5.0960735171261575,99.70695970695971,0.09066183136899365
15:41:30.716,5.495,3.8856304985337147,-68.01029159519726,49.43362029904847,5.0960735171261575,99.70695970695971,0.09066183136899365
15:41:30.733,5.511,3.8856304985337147,-67.9245283018868,49.43362029904847,5.0960735171261575,99.70695970695971,0.09066183136899365
15:41:30.750,5.528,3.9589442815249214,-67.9245283018868,49.43362029904847,5.0960735171261575,99.70695970695971,0.09066183136899365
15:41:30.766,5.545,3.9589442815249214,-67.9245283018868,49.52424105120073,5.0960735171261575,99.70695970695971,0.09066183136899365
15:41:30.783,5.561,4.032258064516128,-67.9245283018868,49.614861803352966,5.0960735171261575,99.70695970695971,0.09066183136899365
15:41:30.800,5.578,4.032258064516128,-67.9245283018868,49.614861803352966,5.0960735171261575,99.75579975579976,0.09066183136899365
15:41:30.816,5.595,4.032258064516128,-67.9245283018868,49.70548255550523,5.0960735171261575,99.75579975579976,0.09066183136899365
15:41:30.833,5.612,4.032258064516128,-67.9245283018868,49.79610330765746,5.0960735171261575,99.8046398046398,0.09066183136899365
15:41:30.850,5.628,4.032258064516128,-67.9245283018868,49.79610330765746,5.0960735171261575,99.8046398046398,0.09066183136899365
15:41:30.866,5.645,4.032258064516128,-67.83876500857633,49.79610330765746,5.0960735171261575,99.8046398046398,0.09066183136899365
15:41:30.883,5.662,4.032258064516128,-67.75300171526587,49.79610330765746,5.0960735171261575,99.8046398046398,0.09066183136899365
15:41:30.900,5.678,4.105571847507321,-67.75300171526587,49.79610330765746,5.012531328320804,99.8046398046398,0.09066183136899365
15:41:30.917,5.695,4.105571847507321,-67.6672384219554,49.79610330765746,5.012531328320804,99.8046398046398,0.09066183136899365
15:41:30.933,5.712,4.105571847507321,-67.6672384219554,49.79610330765746,4.928989139515451,99.8046398046398,0.09066183136899365
15:41:30.950,5.729,4.105571847507321,-67.58147512864494,49.79610330765746,4.845446950710112,99.8046398046398,0.09066183136899365
15:41:30.967,5.745,4.105571847507321,-67.58147512864494,49.79610330765746,4.67836257309942,99.8046398046398,0.09066183136899365
15:41:30.983,5.762,4.105571847507321,-67.58147512864494,49.79610330765746,4.511278195488728,99.8046398046398,0.09066183136899365
15:41:31.000,5.779,4.105571847507321,-67.49571183533448,49.79610330765746,4.344193817878022,99.75579975579976,0.09066183136899365
15:41:31.017,5.795,4.105571847507321,-67.49571183533448,49.79610330765746,4.093567251461991,99.70695970695971,0.09066183136899365
15:41:31.034,5.812,4.105571847507321,-67.49571183533448,49.79610330765746,3.84294068504596,99.60927960927961,0.09066183136899365
15:41:31.050,5.829,4.032258064516128,-67.40994854202401,49.79610330765746,3.5923141186299006,99.60927960927961,0.09066183136899365
15:41:31.067,5.845,3.9589442815249214,-67.40994854202401,49.79610330765746,3.2581453634085165,99.56043956043956,0.09066183136899365
15:41:31.084,5.862,3.8856304985337147,-67.32418524871355,49.79610330765746,2.7568922305764403,99.46275946275946,0.09066183136899365
15:41:31.100,5.879,3.812316715542522,-67.32418524871355,49.70548255550523,2.339181286549703,99.41391941391942,0.09066183136899365
15:41:31.117,5.896,3.7390029325513154,-67.32418524871355,49.614861803352966,2.088554720133672,99.36507936507937,0.09066183136899365
15:41:31.134,5.912,3.6656891495601087,-67.32418524871355,49.43362029904847,1.9214703425229658,99.26739926739927,0.09066183136899365
15:41:31.150,5.929,3.592375366568916,-67.32418524871355,49.16175804259174,1.9214703425229658,99.21855921855922,0.09066183136899365
15:41:31.167,5.946,3.4457478005865028,-67.23842195540308,48.79927503398278,1.9214703425229658,99.21855921855922,0.09066183136899365
15:41:31.184,5.962,3.3724340175953103,-67.15265866209262,48.43679202537382,1.9214703425229658,99.16971916971917,0.09066183136899365
15:41:31.200,5.979,3.225806451612897,-67.06689536878216,47.983688264612596,1.9214703425229658,99.16971916971917,0.09066183136899365
15:41:31.217,5.996,3.0791788856304976,-66.80960548885076,47.43996375169914,1.9214703425229658,99.16971916971917,0.09066183136899365
15:41:31.234,6.012,2.8592375366568916,-66.46655231560891,46.80561848663345,1.9214703425229658,99.16971916971917,0.09066183136899365
15:41:31.251,6.029,2.6392961876832857,-66.12349914236707,46.0806524694155,1.9214703425229658,99.16971916971917,0.09066183136899365
15:41:31.267,6.046,2.4193548387096797,-65.69468267581476,45.17444494789308,2.25563909774435,99.21855921855922,0.09066183136899365
15:41:31.284,6.062,2.126099706744867,-65.26586620926244,44.26823742637066,2.5898078529657482,99.31623931623932,0.09066183136899365
15:41:31.301,6.079,1.906158357771261,-64.75128644939966,43.18078840054375,3.0075187969924855,99.36507936507937,0.09066183136899365
15:41:31.317,6.096,1.7595307917888476,-64.06518010291595,42.093339374716834,3.3416875522138696,99.41391941391942,0.09066183136899365
15:41:31.334,6.112,1.5395894428152417,-63.55060034305317,40.8246488445854,3.84294068504596,99.41391941391942,0.09066183136899365
15:41:31.351,6.129,1.3929618768328424,-62.692967409948544,39.55595831445402,4.344193817878022,99.46275946275946,0.09066183136899365
15:41:31.367,6.146,1.1730205278592365,-61.83533447684391,37.92478477571365,4.928989139515451,99.46275946275946,0.09066183136899365
15:41:31.384,6.163,0.9530791788856305,-60.891938250428815,36.20299048482104,5.5973266499582195,99.46275946275946,0.09066183136899365
15:41:31.401,6.179,0.7331378299120246,-59.86277873070326,34.02809243316719,6.766917293233092,99.41391941391942,0.09066183136899365
15:41:31.417,6.196,0.4398826979472119,-58.74785591766724,31.671952877208867,8.354218880534674,99.36507936507937,0.09066183136899365
15:41:31.434,6.213,0.07331378299120672,-57.718696397941684,29.134571816946078,10.359231411862993,99.26739926739927,0.09066183136899365
15:41:31.451,6.229,-0.2932551319648127,-56.5180102915952,26.597190756683275,12.364243943191312,99.21855921855922,0.09066183136899365
15:41:31.468,6.246,-0.5865102639296254,-55.317324185248715,23.969188944268225,14.285714285714278,99.21855921855922,0.09066183136899365
15:41:31.484,6.263,-0.7331378299120246,-54.03087478559176,21.431807884005423,15.705931495405181,99.16971916971917,0.09066183136899365
15:41:31.501,6.280,-0.8064516129032313,-52.74442538593482,19.07566832804713,16.457811194653303,99.12087912087912,0.09066183136899365
15:41:31.518,6.296,-0.8797653958944238,-51.54373927958834,16.900770276393303,16.791979949874687,99.12087912087912,0.09066183136899365
15:41:31.534,6.313,-0.8797653958944238,-50.17152658662092,14.907113729043942,16.87552213868004,99.12087912087912,0.09066183136899365
15:41:31.551,6.330,-0.8797653958944238,-48.885077186963976,12.732215677390116,17.042606516290732,99.12087912087912,0.09066183136899365
15:41:31.568,6.346,-0.8797653958944238,-47.684391080617495,10.466696873584056,17.293233082706763,99.12087912087912,0.09066183136899365
15:41:31.585,6.363,-0.9530791788856305,-46.39794168096055,8.110557317625734,17.96157059314953,99.12087912087912,0.09066183136899365
15:41:31.601,6.380,-0.9530791788856305,-45.36878216123499,5.663797009515179,18.964076858813698,99.02319902319903,0.09066183136899365
15:41:31.618,6.396,-0.9530791788856305,-44.16809605488851,3.307657453556857,20.050125313283203,98.87667887667888,0.09066183136899365
15:41:31.635,6.413,-0.9530791788856305,-43.138936535162955,0.7702763932940542,21.219715956558076,98.73015873015873,0.09066183136899365
15:41:31.651,6.430,-1.0263929618768373,-42.10977701543739,-1.676483914816501,22.38930659983292,98.53479853479854,0.09066183136899365
15:41:31.668,6.446,-1.0263929618768373,-41.080617495711834,-4.123244222927042,23.391812865497073,98.3882783882784,0.09066183136899365
15:41:31.685,6.463,-1.0263929618768373,-40.05145797598628,-6.38876302673313,24.310776942355886,98.2905982905983,0.09066183136899365
15:41:31.703,6.481,-0.9530791788856305,-39.108061749571185,-8.382419574082462,24.979114452798655,98.24175824175825,0.09066183136899365
15:41:31.724,6.503,-0.9530791788856305,-38.164665523156096,-10.28545536927956,25.480367585630745,98.24175824175825,0.09066183136899365
15:41:31.740,6.519,-0.9530791788856305,-37.221269296741,-12.460353420933387,26.065162907268174,98.24175824175825,0.09066183136899365
15:41:31.757,6.535,-0.9530791788856305,-36.535162950257295,-13.910285455369277,26.64995822890559,98.24175824175825,0.09066183136899365
15:41:31.773,6.552,-0.8797653958944238,-35.84905660377359,-15.450838241957413,27.318295739348358,98.14407814407815,0.09066183136899365
15:41:31.790,6.569,-0.8797653958944238,-35.33447684391081,-16.81014952424104,28.070175438596493,97.997557997558,0.09066183136899365
15:41:31.807,6.585,-0.8064516129032313,-34.90566037735849,-17.80697779791572,28.65497076023391,97.94871794871796,0.09066183136899365
15:41:31.824,6.602,-0.8064516129032313,-34.64837049742711,-18.441323062981425,29.156223893066,97.89987789987791,0.09066183136899365
15:41:31.840,6.619,-0.8064516129032313,-34.47684391080618,-18.985047575894882,29.490392648287383,97.89987789987791,0.09066183136899365
15:41:31.857,6.635,-0.8064516129032313,-34.39108061749572,-19.166289080199363,29.65747702589806,97.85103785103786,0.09066183136899365
15:41:31.874,6.652,-0.7331378299120246,-34.39108061749572,-19.25690983235161,29.741019214703414,97.85103785103786,0.09066183136899365
15:41:31.890,6.669,-0.7331378299120246,-34.39108061749572,-19.25690983235161,29.741019214703414,97.85103785103786,0.09066183136899365
15:41:31.907,6.685,-0.7331378299120246,-34.39108061749572,-19.07566832804713,29.741019214703414,97.85103785103786,0.09066183136899365
15:41:31.924,6.702,-0.7331378299120246,-34.56260720411663,-18.894426823742634,29.741019214703414,97.85103785103786,0.09066183136899365
15:41:31.940,6.719,-0.7331378299120246,-34.64837049742711,-18.622564567285906,29.741019214703414,97.85103785103786,0.09066183136899365
15:41:31.957,6.736,-0.7331378299120246,-34.81989708404802,-18.350702310829178,29.741019214703414,97.85103785103786,0.09066183136899365
15:41:31.974,6.752,-0.7331378299120246,-34.90566037735849,-18.169460806524697,29.741019214703414,97.85103785103786,0.09066183136899365
15:41:31.990,6.769,-0.7331378299120246,-35.077186963979415,-17.897598550067954,29.741019214703414,97.85103785103786,0.09066183136899365
15:41:32.007,6.786,-0.7331378299120246,-35.16295025728988,-17.716357045763473,29.741019214703414,97.85103785103786,0.09066183136899365
15:41:32.024,6.802,-0.7331378299120246,-35.24871355060034,-17.62573629361124,29.741019214703414,97.85103785103786,0.09066183136899365
15:41:32.041,6.819,-0.7331378299120246,-35.33447684391081,-17.44449478930676,29.741019214703414,97.85103785103786,0.09066183136899365
15:41:32.057,6.836,-0.7331378299120246,-35.33447684391081,-17.44449478930676,29.824561403508767,97.85103785103786,0.09066183136899365
15:41:32.074,6.852,-0.7331378299120246,-35.42024013722127,-17.353874037154498,29.824561403508767,97.85103785103786,0.09066183136899365
15:41:32.091,6.869,-0.7331378299120246,-35.42024013722127,-17.353874037154498,29.90810359231412,97.85103785103786,0.09066183136899365
15:41:32.107,6.886,-0.7331378299120246,-35.42024013722127,-17.353874037154498,30.075187969924798,97.85103785103786,0.09066183136899365
15:41:32.124,6.903,-0.7331378299120246,-35.42024013722127,-17.353874037154498,30.242272347535504,97.85103785103786,0.09066183136899365
15:41:32.141,6.919,-0.7331378299120246,-35.42024013722127,-17.353874037154498,30.40935672514621,97.85103785103786,0.09066183136899365
15:41:32.158,6.936,-0.6598240469208179,-35.42024013722127,-17.353874037154498,30.65998329156224,97.85103785103786,0.09066183136899365
15:41:32.174,6.953,-0.6598240469208179,-35.506003430531734,-17.353874037154498,31.161236424394332,97.85103785103786,0.09066183136899365
15:41:32.191,6.969,-0.6598240469208179,-35.506003430531734,-17.353874037154498,31.746031746031747,97.85103785103786,0.09066183136899365
15:41:32.208,6.986,-0.7331378299120246,-35.506003430531734,-17.44449478930676,32.58145363408522,97.85103785103786,0.09066183136899365
15:41:32.224,7.003,-0.7331378299120246,-35.506003430531734,-17.535115541458993,33.583959899749374,97.85103785103786,0.09066183136899365
15:41:32.241,7.019,-0.8064516129032313,-35.506003430531734,-17.62573629361124,34.75355054302423,97.85103785103786,0.09066183136899365
15:41:32.258,7.036,-0.8797653958944238,-35.5917667238422,-17.62573629361124,35.83959899749374,97.85103785103786,0.09066183136899365
15:41:32.274,7.053,-0.8797653958944238,-35.5917667238422,-17.535115541458993,37.09273182957392,97.85103785103786,0.09066183136899365
15:41:32.291,7.070,-0.9530791788856305,-35.67753001715266,-17.353874037154498,38.34586466165413,97.85103785103786,0.09066183136899365
15:41:32.308,7.086,-0.9530791788856305,-35.67753001715266,-17.172632532850017,39.598997493734345,97.85103785103786,0.09066183136899365
15:41:32.324,7.103,-0.9530791788856305,-35.76329331046311,-16.991391028545536,40.93567251461988,97.85103785103786,0.09066183136899365
15:41:32.341,7.120,-0.9530791788856305,-35.76329331046311,-16.62890801993656,42.18880534670009,97.85103785103786,0.09066183136899365
15:41:32.358,7.136,-0.9530791788856305,-35.84905660377359,-16.17580425917535,43.35839598997492,97.85103785103786,0.09066183136899365
15:41:32.374,7.153,-0.9530791788856305,-35.84905660377359,-15.632079746261894,44.27736006683375,97.85103785103786,0.09066183136899365
15:41:32.391,7.170,-0.9530791788856305,-35.84905660377359,-14.907113729043957,45.112781954887225,97.85103785103786,0.09066183136899365
15:41:32.408,7.186,-0.8797653958944238,-35.934819897084054,-14.182147711826005,45.9482038429407,97.85103785103786,0.09066183136899365
15:41:32.425,7.203,-0.8064516129032313,-35.934819897084054,-13.275940190303587,46.532999164578115,97.85103785103786,0.09066183136899365
15:41:32.441,7.220,-0.7331378299120246,-36.020583190394504,-12.550974173085635,47.20133667502088,97.85103785103786,0.09066183136899365
15:41:32.458,7.236,-0.6598240469208179,-36.020583190394504,-11.73538740371545,47.953216374269005,97.85103785103786,0.09066183136899365
15:41:32.474,7.253,-0.5865102639296254,-36.106346483704975,-10.829179882193017,48.53801169590645,97.85103785103786,0.09066183136899365
15:41:32.491,7.270,-0.5131964809384186,-36.106346483704975,-10.013593112822832,49.206349206349216,97.85103785103786,0.09066183136899365
15:41:32.508,7.287,-0.4398826979472119,-36.106346483704975,-9.107385591300414,49.874686716791985,97.85103785103786,0.09066183136899365
15:41:32.525,7.303,-0.4398826979472119,-36.106346483704975,-8.201178069777981,50.54302422723475,97.85103785103786,0.09066183136899365
15:41:32.541,7.320,-0.4398826979472119,-36.106346483704975,-7.385591300407796,51.21136173767752,97.85103785103786,0.09066183136899365
15:41:32.558,7.337,-0.4398826979472119,-36.106346483704975,-6.479383778885364,51.87969924812029,97.85103785103786,0.09066183136899365
15:41:32.575,7.353,-0.4398826979472119,-36.106346483704975,-5.482555505210698,52.46449456975773,97.85103785103786,0.09066183136899365
15:41:32.592,7.370,-0.4398826979472119,-36.106346483704975,-4.576347983688265,52.96574770258982,97.85103785103786,0.09066183136899365
15:41:32.608,7.387,-0.3665689149560052,-36.020583190394504,-3.579519710013585,53.467000835421885,97.85103785103786,0.09066183136899365
15:41:32.625,7.403,-0.3665689149560052,-35.84905660377359,-2.7639329406434143,54.0517961570593,97.85103785103786,0.09066183136899365
15:41:32.642,7.420,-0.3665689149560052,-35.67753001715266,-1.7671046669687343,54.72013366750207,97.85103785103786,0.09066183136899365
15:41:32.658,7.437,-0.3665689149560052,-35.42024013722127,-0.8608971454463017,55.388471177944865,97.85103785103786,0.09066183136899365
15:41:32.675,7.454,-0.3665689149560052,-35.16295025728988,0.13593112822836417,55.889724310776955,97.85103785103786,0.09066183136899365
15:41:32.692,7.470,-0.3665689149560052,-34.90566037735849,1.2233801540552776,56.47451963241437,97.89987789987791,0.09066183136899365
15:41:32.708,7.487,-0.3665689149560052,-34.56260720411663,2.2202084277299434,56.97577276524646,97.997557997558,0.09066183136899365
15:41:32.725,7.504,-0.4398826979472119,-34.30531732418525,3.488898957861352,57.39348370927317,98.04639804639805,0.09066183136899365
15:41:32.742,7.520,-0.5131964809384186,-33.9622641509434,4.848210240144994,57.64411027568923,98.0952380952381,0.09066183136899365
15:41:32.758,7.537,-0.5131964809384186,-33.704974271012006,6.207521522428621,57.89473684210526,98.0952380952381,0.09066183136899365
15:41:32.775,7.554,-0.5865102639296254,-33.447684391080614,7.748074309016758,58.14536340852129,98.0952380952381,0.09066183136899365
15:41:32.792,7.570,-0.6598240469208179,-33.19039451114922,9.379247847757142,58.39598997493732,98.14407814407815,0.09066183136899365
15:41:32.808,7.587,-0.6598240469208179,-32.93310463121783,11.010421386497498,58.39598997493732,98.1929181929182,0.09066183136899365
15:41:32.825,7.604,-0.6598240469208179,-32.76157804459692,12.822836429542363,58.39598997493732,98.24175824175825,0.09066183136899365
15:41:32.842,7.620,-0.6598240469208179,-32.504288164665525,14.725872224739462,58.312447786132,98.24175824175825,0.09066183136899365
15:41:32.859,7.637,-0.6598240469208179,-32.24699828473413,16.81014952424104,58.06182121971594,98.2905982905983,0.09066183136899365
15:41:32.875,7.654,-0.6598240469208179,-31.98970840480274,18.894426823742634,57.727652464494554,98.2905982905983,0.09066183136899365
15:41:32.892,7.671,-0.5865102639296254,-31.73241852487135,21.06932487539646,57.22639933166249,98.3882783882784,0.09066183136899365
15:41:32.909,7.687,-0.5865102639296254,-31.56089193825042,23.51608518350703,56.64160401002508,98.53479853479854,0.09066183136899365
15:41:32.926,7.704,-0.5131964809384186,-31.389365351629507,26.144086995922052,55.97326649958231,98.82783882783883,0.09066183136899365
15:41:32.942,7.721,-0.4398826979472119,-31.21783876500858,28.681468056184855,55.388471177944865,99.07203907203908,0.09066183136899365
15:41:32.959,7.737,-0.4398826979472119,-31.04631217838765,31.12822836429544,54.887218045112775,99.26739926739927,0.09066183136899365
15:41:32.976,7.754,-0.3665689149560052,-30.874785591766724,33.48436792025373,54.55304928989139,99.41391941391942,0.09066183136899365
15:41:32.992,7.771,-0.3665689149560052,-30.617495711835332,35.47802446760309,54.46950710108604,99.65811965811966,0.09066183136899365
15:41:33.009,7.787,-0.3665689149560052,-30.36020583190394,37.47168101495242,54.46950710108604,99.95115995115995,0.09066183136899365
15:41:33.026,7.804,-0.3665689149560052,-30.102915951972548,39.37471681014952,54.636591478696744,-99.8046398046398,0.09066183136899365
15:41:33.042,7.821,-0.3665689149560052,-29.759862778730707,41.18713185319439,54.887218045112775,-99.51159951159951,0.09066183136899365
15:41:33.059,7.838,-0.4398826979472119,-29.41680960548885,42.90892614408699,54.97076023391813,-99.21855921855922,0.09066183136899365
15:41:33.076,7.854,-0.4398826979472119,-29.073756432246995,44.54009968282736,54.887218045112775,-99.02319902319903,0.09066183136899365
15:41:33.092,7.871,-0.4398826979472119,-28.559176672384226,46.17127322156773,54.55304928989139,-98.77899877899878,0.09066183136899365
15:41:33.109,7.888,-0.4398826979472119,-28.130360205831906,47.8024467603081,54.21888053467001,-98.48595848595849,0.09066183136899365
15:41:33.126,7.904,-0.4398826979472119,-27.701543739279586,49.34299954689624,53.968253968253975,-98.1929181929182,0.09066183136899365
15:41:33.143,7.921,-0.3665689149560052,-27.272727272727266,50.70231082917988,53.968253968253975,-97.7045177045177,0.09066183136899365
15:41:33.159,7.938,-0.2932551319648127,-26.929674099485425,51.880380607159054,53.88471177944862,-97.06959706959707,0.09066183136899365
15:41:33.176,7.954,-0.14662756598239923,-26.672384219554033,53.149071137290434,53.88471177944862,-96.48351648351648,0.09066183136899365
15:41:33.193,7.971,0.0,-26.329331046312177,54.145899410965114,53.968253968253975,-95.995115995116,0.09066183136899365
15:41:33.209,7.988,0.14662756598239923,-25.986277873070335,55.142727684639794,54.0517961570593,-95.6043956043956,0.09066183136899365
15:41:33.226,8.004,0.21994134897360595,-25.728987993138944,55.95831445400995,54.13533834586465,-95.16483516483517,0.09066183136899365
15:41:33.243,8.021,0.3665689149560052,-25.385934819897088,56.59265971907567,54.21888053467001,-94.82295482295483,0.09066183136899365
15:41:33.259,8.038,0.4398826979472119,-25.21440823327616,57.136384231989126,54.385964912280684,-94.57875457875458,0.09066183136899365
15:41:33.276,8.055,0.5865102639296254,-24.957118353344768,57.68010874490258,54.46950710108604,-94.33455433455434,0.09066183136899365
15:41:33.293,8.071,0.6598240469208179,-24.871355060034304,58.04259175351157,54.55304928989139,-94.13919413919415,0.09066183136899365
15:41:33.310,8.088,0.6598240469208179,-24.78559176672384,58.49569551427277,54.55304928989139,-93.99267399267399,0.0
15:41:33.326,8.105,0.7331378299120246,-24.699828473413376,58.767557770729496,54.55304928989139,-93.94383394383394,0.0
15:41:33.343,8.121,0.7331378299120246,-24.614065180102912,59.039420027186225,54.46950710108604,-93.94383394383394,0.0
15:41:33.360,8.138,0.7331378299120246,-24.614065180102912,59.130040779338486,54.30242272347536,-93.94383394383394,0.0
15:41:33.376,8.155,0.7331378299120246,-24.614065180102912,59.22066153149069,54.13533834586465,-93.94383394383394,0.0
15:41:33.393,8.171,0.7331378299120246,-24.614065180102912,59.31128228364295,54.0517961570593,-93.94383394383394,0.0
15:41:33.410,8.188,0.7331378299120246,-24.52830188679245,59.31128228364295,54.0517961570593,-93.94383394383394,0.0
15:41:33.426,8.205,0.7331378299120246,-24.52830188679245,59.31128228364295,53.968253968253975,-93.94383394383394,0.0
15:41:33.443,8.222,0.8064516129032313,-24.52830188679245,59.31128228364295,53.88471177944862,-93.94383394383394,0.0
15:41:33.460,8.238,0.8064516129032313,-24.52830188679245,59.31128228364295,53.717627401837916,-93.94383394383394,0.0
15:41:33.477,8.255,0.8797653958944238,-24.52830188679245,59.31128228364295,53.55054302422724,-93.94383394383394,0.0
15:41:33.493,8.271,0.9530791788856305,-24.442538593481984,59.31128228364295,53.38345864661653,-93.94383394383394,0.0
15:41:33.510,8.288,1.0263929618768373,-24.442538593481984,59.31128228364295,53.1328320802005,-93.94383394383394,0.0
15:41:33.527,8.305,1.0997067448680298,-24.442538593481984,59.31128228364295,52.96574770258982,-93.94383394383394,0.0
15:41:33.543,8.322,1.1730205278592365,-24.442538593481984,59.31128228364295,52.79866332497912,-93.94383394383394,0.0
15:41:33.560,8.338,1.2463343108504432,-24.356775300171535,59.22066153149069,52.548036758563086,-93.94383394383394,0.0
15:41:33.577,8.355,1.2463343108504432,-24.356775300171535,59.22066153149069,52.38095238095238,-93.94383394383394,0.0
15:41:33.593,8.372,1.3196480938416357,-24.271012006861056,59.130040779338486,52.2138680033417,-93.94383394383394,0.0
15:41:33.610,8.388,1.3929618768328424,-24.271012006861056,59.039420027186225,52.046783625730995,-93.94383394383394,0.0
15:41:33.627,8.405,1.4662756598240492,-24.185248713550607,58.94879927503399,51.96324143692564,-93.94383394383394,0.0
15:41:33.643,8.422,1.4662756598240492,-24.185248713550607,58.767557770729496,51.796157059314964,-93.94383394383394,0.0
15:41:33.660,8.439,1.5395894428152417,-24.185248713550607,58.67693701857726,51.71261487050961,-93.94383394383394,0.0
15:41:33.677,8.455,1.5395894428152417,-24.185248713550607,58.586316266425,51.71261487050961,-93.94383394383394,0.0
15:41:33.693,8.472,1.6129032258064484,-24.185248713550607,58.49569551427277,51.71261487050961,-93.94383394383394,0.0
15:41:33.710,8.489,1.6129032258064484,-24.185248713550607,58.405074762120535,51.71261487050961,-93.94383394383394,0.0
15:41:33.727,8.505,1.6129032258064484,-24.099485420240143,58.31445400996827,51.71261487050961,-93.94383394383394,0.0
15:41:33.743,8.522,1.6129032258064484,-24.099485420240143,58.31445400996827,51.71261487050961,-93.94383394383394,0.0
15:41:33.760,8.539,1.6129032258064484,-24.099485420240143,58.31445400996827,51.71261487050961,-93.94383394383394,0.0
15:41:33.777,8.555,1.6129032258064484,-24.099485420240143,58.31445400996827,51.62907268170426,-93.99267399267399,0.0
15:41:33.794,8.572,1.6129032258064484,-24.099485420240143,58.31445400996827,51.62907268170426,-93.99267399267399,0.0
15:41:33.810,8.589,1.6129032258064484,-24.099485420240143,58.405074762120535,51.545530492898905,-93.99267399267399,0.0
15:41:33.827,8.605,1.6129032258064484,-24.099485420240143,58.49569551427277,51.46198830409355,-93.99267399267399,0.0
15:41:33.844,8.622,1.6129032258064484,-24.099485420240143,58.586316266425,51.3784461152882,-93.99267399267399,0.0
15:41:33.860,8.639,1.6129032258064484,-24.185248713550607,58.67693701857726,51.294903926482874,-93.99267399267399,0.0
15:41:33.877,8.655,1.6129032258064484,-24.185248713550607,58.767557770729496,51.21136173767752,-93.99267399267399,0.0
15:41:33.894,8.672,1.6129032258064484,-24.185248713550607,58.767557770729496,51.12781954887217,-93.99267399267399,0.0
15:41:33.910,8.689,1.6129032258064484,-24.185248713550607,58.767557770729496,51.12781954887217,-93.99267399267399,0.0
15:41:33.927,8.706,1.6862170087976551,-24.185248713550607,58.767557770729496,51.12781954887217,-93.99267399267399,0.0
15:41:33.944,8.722,1.6862170087976551,-24.185248713550607,58.85817852288173,51.12781954887217,-93.99267399267399,0.0
15:41:33.960,8.739,1.6862170087976551,-24.185248713550607,58.85817852288173,51.12781954887217,-93.99267399267399,0.0
15:41:33.977,8.756,1.6862170087976551,-24.185248713550607,58.85817852288173,51.12781954887217,-93.99267399267399,0.0
15:41:33.994,8.772,1.6862170087976551,-24.185248713550607,58.85817852288173,51.044277360066815,-93.99267399267399,0.0
15:41:34.011,8.789,1.6862170087976551,-24.185248713550607,58.85817852288173,50.96073517126149,-93.99267399267399,0.0
15:41:34.027,8.806,1.6862170087976551,-24.185248713550607,58.85817852288173,50.793650793650784,-93.99267399267399,0.0
15:41:34.044,8.823,1.6862170087976551,-24.271012006861056,58.85817852288173,50.4594820384294,-93.99267399267399,0.0
15:41:34.061,8.839,1.6862170087976551,-24.356775300171535,58.67693701857726,50.04177109440266,-93.99267399267399,0.0
15:41:34.077,8.856,1.6862170087976551,-24.356775300171535,58.405074762120535,49.62406015037595,-94.04151404151403,0.0
15:41:34.094,8.873,1.6862170087976551,-24.442538593481984,57.95197100135931,49.12280701754386,-94.0903540903541,0.0
15:41:34.111,8.889,1.6862170087976551,-24.52830188679245,57.31762573629362,48.705096073517126,-94.13919413919415,0.0
15:41:34.127,8.906,1.6862170087976551,-24.614065180102912,56.59265971907567,48.37092731829574,-94.13919413919415,0.0
15:41:34.144,8.923,1.6862170087976551,-24.614065180102912,55.59583144540099,48.03675856307436,-94.13919413919415,0.0
15:41:34.161,8.939,1.6862170087976551,-24.699828473413376,54.32714091526961,47.86967418546365,-94.13919413919415,0.0
15:41:34.177,8.956,1.6129032258064484,-24.699828473413376,53.0584503851382,47.53550543024227,-94.1880341880342,0.0
15:41:34.194,8.973,1.6129032258064484,-24.699828473413376,51.6085183507023,47.20133667502088,-94.28571428571429,0.0
15:41:34.211,8.989,1.5395894428152417,-24.699828473413376,50.15858631626642,46.61654135338347,-94.48107448107449,0.0
15:41:34.228,9.006,1.5395894428152417,-24.699828473413376,48.70865428183052,45.9482038429407,-94.57875457875458,0.0
15:41:34.244,9.023,1.4662756598240492,-24.699828473413376,47.07748074309018,45.27986633249793,-94.62759462759463,0.0
15:41:34.261,9.039,1.4662756598240492,-24.614065180102912,45.44630720434978,44.69507101086049,-94.62759462759463,0.0
15:41:34.278,9.056,1.4662756598240492,-24.52830188679245,43.81513366560944,43.859649122807014,-94.72527472527473,0.0
15:41:34.294,9.073,1.3929618768328424,-24.442538593481984,42.093339374716834,42.85714285714286,-94.92063492063492,0.0
15:41:34.311,9.090,1.3196480938416357,-24.442538593481984,40.64340734028093,41.85463659147871,-95.11599511599512,0.0
15:41:34.328,9.106,1.2463343108504432,-24.442538593481984,39.01223380154056,40.85213032581453,-95.26251526251527,0.0
15:41:34.345,9.123,1.2463343108504432,-24.442538593481984,37.56230176710466,39.76608187134502,-95.26251526251527,0.0
15:41:34.361,9.140,1.1730205278592365,-24.442538593481984,36.02174898051652,38.68003341687552,-95.36019536019536,0.0
15:41:34.378,9.157,1.0997067448680298,-24.442538593481984,34.48119619392841,37.51044277360066,-95.55555555555556,0.0
15:41:34.394,9.173,1.0263929618768373,-24.442538593481984,33.12188491164477,36.42439431913115,-95.7997557997558,0.0
15:41:34.411,9.190,0.9530791788856305,-24.442538593481984,31.76257362936113,35.33834586466165,-95.94627594627595,0.0
15:41:34.428,9.207,0.9530791788856305,-24.442538593481984,30.49388309922972,34.085213032581464,-95.94627594627595,0.0
15:41:34.445,9.223,0.9530791788856305,-24.442538593481984,29.22519256909831,32.7485380116959,-95.995115995116,0.0
15:41:34.461,9.240,0.9530791788856305,-24.52830188679245,28.137743543271398,31.411862990810363,-95.995115995116,0.0
15:41:34.478,9.257,0.9530791788856305,-24.52830188679245,26.95967376529225,30.40935672514621,-95.995115995116,0.0
15:41:34.495,9.273,0.8797653958944238,-24.699828473413376,25.78160398731309,29.490392648287383,-96.14163614163614,0.0
15:41:34.511,9.290,0.8797653958944238,-24.78559176672384,24.603534209333944,28.571428571428584,-96.38583638583638,0.0
15:41:34.528,9.307,0.8064516129032313,-24.957118353344768,23.425464431354783,27.9030910609858,-96.53235653235653,0.0
15:41:34.545,9.323,0.8064516129032313,-25.128644939965696,22.33801540552787,27.40183792815371,-96.63003663003663,0.0
15:41:34.562,9.340,0.8064516129032313,-25.385934819897088,21.341187131853204,26.817042606516296,-96.92307692307692,0.0
15:41:34.578,9.357,0.8064516129032313,-25.643224699828465,20.34435885817851,26.39933166248956,-97.26495726495726,0.0
15:41:34.595,9.373,0.8064516129032313,-25.986277873070335,19.52877208880834,26.148705096073527,-97.7045177045177,0.0
15:41:34.612,9.390,0.7331378299120246,-26.41509433962264,18.713185319438153,25.647451963241423,-98.14407814407815,0.0
15:41:34.628,9.407,0.7331378299120246,-26.929674099485425,18.26008155867693,24.979114452798655,-98.53479853479854,0.0
15:41:34.645,9.423,0.7331378299120246,-27.530017152658658,17.988219302220216,24.060150375939855,-98.82783882783883,0.0
15:41:34.662,9.440,0.7331378299120246,-28.21612349914237,17.897598550067954,23.141186299081042,-99.07203907203908,0.0
15:41:34.678,9.457,0.7331378299120246,-28.816466552315617,17.897598550067954,22.055137844611522,-99.16971916971917,0.0
15:41:34.695,9.474,0.7331378299120246,-29.502572898799315,17.897598550067954,21.136173767752723,-99.31623931623932,0.0
15:41:34.712,9.490,0.7331378299120246,-30.188679245283026,17.988219302220216,20.21720969089391,-99.46275946275946,0.0
15:41:34.729,9.507,0.7331378299120246,-30.874785591766724,18.26008155867693,19.298245614035082,-99.60927960927961,0.0
15:41:34.745,9.524,0.7331378299120246,-31.73241852487135,18.53194381513366,18.37928153717627,-99.8046398046398,0.0
15:41:34.762,9.540,0.7331378299120246,-32.504288164665525,18.894426823742634,17.627401837928147,-100.0,0.0
15:41:34.778,9.557,0.7331378299120246,-33.19039451114922,19.166289080199377,17.126148705096085,99.9023199023199,0.0
15:41:34.795,9.574,0.7331378299120246,-33.876500857632934,19.256909832351596,16.791979949874687,99.75579975579976,0.0
15:41:34.812,9.590,0.6598240469208179,-34.56260720411663,19.43815133665609,16.541353383458656,99.51159951159951,0.0
15:41:34.829,9.607,0.6598240469208179,-35.24871355060034,19.52877208880834,16.290726817042597,99.21855921855922,0.0
15:41:34.845,9.624,0.5865102639296254,-35.76329331046311,19.619392840960572,16.12364243943192,99.07203907203908,0.0
15:41:34.862,9.641,0.5865102639296254,-36.36363636363637,19.619392840960572,16.040100250626566,98.97435897435898,0.0
15:41:34.879,9.657,0.4398826979472119,-36.79245283018868,19.619392840960572,16.040100250626566,98.87667887667888,0.0
15:41:34.895,9.674,0.3665689149560052,-37.13550600343053,19.71001359311282,16.040100250626566,98.87667887667888,0.0
15:41:34.912,9.691,0.2932551319648127,-37.47855917667239,19.800634345265067,16.12364243943192,98.87667887667888,0.0
15:41:34.929,9.707,0.14662756598239923,-37.735849056603776,19.800634345265067,16.290726817042597,98.87667887667888,0.0
15:41:34.945,9.724,0.07331378299120672,-37.9073756432247,19.891255097417314,16.541353383458656,98.92551892551893,0.0
15:41:34.962,9.741,0.0,-37.99313893653517,19.981875849569548,16.62489557226398,98.97435897435898,0.0
15:41:34.979,9.757,-0.07331378299120672,-38.078902229845625,20.163117353874043,16.62489557226398,99.07203907203908,0.0
15:41:34.995,9.774,-0.07331378299120672,-38.164665523156096,20.25373810602629,16.62489557226398,99.07203907203908,0.0
15:41:35.012,9.791,-0.07331378299120672,-38.164665523156096,20.34435885817851,16.62489557226398,99.07203907203908,0.0
15:41:35.029,9.807,-0.07331378299120672,-38.164665523156096,20.525600362483004,16.62489557226398,99.07203907203908,0.0
15:41:35.046,9.824,-0.07331378299120672,-38.25042881646655,20.706841866787485,16.62489557226398,99.07203907203908,0.0
15:41:35.062,9.841,-0.07331378299120672,-38.25042881646655,20.797462618939733,16.62489557226398,99.12087912087912,0.0
15:41:35.079,9.858,-0.07331378299120672,-38.25042881646655,20.978704123244228,16.62489557226398,99.12087912087912,0.0
15:41:35.096,9.874,-0.07331378299120672,-38.25042881646655,21.15994562754871,16.62489557226398,99.12087912087912,0.0
15:41:35.112,9.891,-0.07331378299120672,-38.25042881646655,21.341187131853204,16.62489557226398,99.12087912087912,0.0
15:41:35.129,9.908,-0.07331378299120672,-38.25042881646655,21.52242863615767,16.62489557226398,99.12087912087912,0.0
15:41:35.146,9.924,-0.07331378299120672,-38.25042881646655,21.70367014046218,16.62489557226398,99.12087912087912,0.0
15:41:35.162,9.941,-0.07331378299120672,-38.25042881646655,21.884911644766646,16.62489557226398,99.12087912087912,0.0
15:41:35.179,9.958,0.0,-38.33619210977701,21.975532396918894,16.62489557226398,99.12087912087912,0.0
15:41:35.196,9.974,0.0,-38.33619210977701,22.156773901223374,16.62489557226398,99.12087912087912,0.0
15:41:35.212,9.991,0.0,-38.33619210977701,22.247394653375622,16.62489557226398,99.12087912087912,0.0
15:41:35.229,10.008,0.0,-38.33619210977701,22.428636157680117,16.62489557226398,99.12087912087912,0.0
15:41:35.246,10.024,0.0,-38.33619210977701,22.609877661984584,16.62489557226398,99.12087912087912,0.0
15:41:35.263,10.041,0.0,-38.33619210977701,22.70049841413683,16.62489557226398,99.12087912087912,0.0
15:41:35.279,10.058,0.0,-38.33619210977701,22.791119166289093,16.62489557226398,99.12087912087912,0.0
15:41:35.296,10.075,0.0,-38.33619210977701,22.791119166289093,16.62489557226398,99.12087912087912,0.0
15:41:35.313,10.091,0.0,-38.42195540308748,22.881739918441312,16.62489557226398,99.12087912087912,0.0
15:41:35.329,10.108,0.0,-38.42195540308748,22.97236067059356,16.62489557226398,99.12087912087912,0.0
15:41:35.346,10.125,0.0,-38.42195540308748,22.97236067059356,16.62489557226398,99.12087912087912,0.0
15:41:35.363,10.141,0.0,-38.42195540308748,23.062981422745807,16.62489557226398,99.12087912087912,0.0
15:41:35.380,10.159,-0.07331378299120672,-38.42195540308748,23.153602174898054,16.62489557226398,99.12087912087912,0.0
15:41:35.398,10.177,-0.07331378299120672,-38.507718696397944,23.153602174898054,16.62489557226398,99.12087912087912,0.0
15:41:35.416,10.195,-0.07331378299120672,-38.507718696397944,23.153602174898054,16.62489557226398,99.12087912087912,0.0
15:41:35.433,10.211,-0.07331378299120672,-38.507718696397944,23.244222927050288,16.62489557226398,99.12087912087912,0.0
15:41:35.449,10.228,-0.07331378299120672,-38.507718696397944,23.244222927050288,16.62489557226398,99.12087912087912,0.0
15:41:35.466,10.245,-0.07331378299120672,-38.507718696397944,23.334843679202535,16.62489557226398,99.12087912087912,0.0
15:41:35.485,10.266,-0.07331378299120672,-38.5934819897084,23.334843679202535,16.62489557226398,99.12087912087912,0.0
15:41:35.502,10.281,-0.07331378299120672,-38.5934819897084,23.334843679202535,16.62489557226398,99.12087912087912,0.0
15:41:35.517,10.296,-0.07331378299120672,-38.5934819897084,23.425464431354783,16.62489557226398,99.12087912087912,0.0
15:41:35.534,10.313,-0.07331378299120672,-38.5934819897084,23.425464431354783,16.62489557226398,99.12087912087912,0.0
15:41:35.551,10.329,-0.07331378299120672,-38.67924528301887,23.425464431354783,16.62489557226398,99.12087912087912,0.0
15:41:35.567,10.346,-0.07331378299120672,-38.67924528301887,23.425464431354783,16.62489557226398,99.12087912087912,0.0
15:41:35.584,10.363,-0.07331378299120672,-38.67924528301887,23.425464431354783,16.62489557226398,99.12087912087912,0.0
15:41:35.601,10.379,-0.07331378299120672,-38.67924528301887,23.425464431354783,16.62489557226398,99.12087912087912,0.0
15:41:35.617,10.396,-0.07331378299120672,-38.76500857632933,23.425464431354783,16.62489557226398,99.16971916971917,0.0
15:41:35.634,10.413,-0.07331378299120672,-38.76500857632933,23.425464431354783,16.62489557226398,99.16971916971917,0.0
15:41:35.651,10.429,-0.07331378299120672,-38.76500857632933,23.425464431354783,16.62489557226398,99.21855921855922,0.0
15:41:35.667,10.446,-0.07331378299120672,-38.8507718696398,23.425464431354783,16.62489557226398,99.26739926739927,0.0
15:41:35.684,10.463,-0.07331378299120672,-38.8507718696398,23.425464431354783,16.62489557226398,99.26739926739927,0.0
15:41:35.701,10.480,-0.07331378299120672,-38.8507718696398,23.425464431354783,16.62489557226398,99.31623931623932,0.0
15:41:35.718,10.496,-0.07331378299120672,-38.93653516295026,23.51608518350703,16.62489557226398,99.31623931623932,0.0
15:41:35.734,10.513,-0.07331378299120672,-39.02229845626072,23.60670593565925,16.62489557226398,99.31623931623932,0.0
15:41:35.751,10.530,-0.07331378299120672,-39.02229845626072,23.69732668781151,16.62489557226398,99.31623931623932,0.0
15:41:35.768,10.547,-0.07331378299120672,-39.108061749571185,23.878568192116006,16.62489557226398,99.36507936507937,0.0
15:41:35.784,10.563,-0.14662756598239923,-39.19382504288165,23.969188944268225,16.62489557226398,99.36507936507937,0.0
15:41:35.801,10.580,-0.14662756598239923,-39.19382504288165,24.15043044857272,16.62489557226398,99.41391941391942,0.0
15:41:35.818,10.597,-0.14662756598239923,-39.36535162950258,24.3316719528772,16.62489557226398,99.41391941391942,0.0
15:41:35.835,10.613,-0.14662756598239923,-39.451114922813034,24.512913457181696,16.62489557226398,99.46275946275946,0.0
15:41:35.851,10.630,-0.21994134897360595,-39.5368782161235,24.694154961486163,16.62489557226398,99.46275946275946,0.0
15:41:35.868,10.647,-0.21994134897360595,-39.62264150943396,24.784775713638425,16.62489557226398,99.46275946275946,0.0
15:41:35.885,10.664,-0.21994134897360595,-39.708404802744425,24.96601721794292,16.708437761069334,99.46275946275946,0.0
15:41:35.902,10.680,-0.2932551319648127,-39.708404802744425,25.147258722247386,16.708437761069334,99.46275946275946,0.0
15:41:35.918,10.697,-0.2932551319648127,-39.87993138936535,25.237879474399634,16.708437761069334,99.46275946275946,0.0
15:41:35.935,10.714,-0.3665689149560052,-39.87993138936535,25.32850022655188,16.708437761069334,99.46275946275946,0.0
15:41:35.952,10.730,-0.3665689149560052,-39.96569468267581,25.509741730856362,16.708437761069334,99.46275946275946,0.0
15:41:35.968,10.747,-0.3665689149560052,-39.96569468267581,25.60036248300861,16.708437761069334,99.46275946275946,0.0
15:41:35.985,10.764,-0.3665689149560052,-40.05145797598628,25.690983235160857,16.708437761069334,99.46275946275946,0.0
15:41:36.002,10.780,-0.4398826979472119,-40.13722126929674,25.78160398731309,16.708437761069334,99.51159951159951,0.0
15:41:36.018,10.797,-0.4398826979472119,-40.13722126929674,25.872224739465338,16.708437761069334,99.51159951159951,0.0
15:41:36.035,10.814,-0.4398826979472119,-40.2229845626072,25.962845491617585,16.708437761069334,99.56043956043956,0.0
15:41:36.052,10.830,-0.4398826979472119,-40.30874785591767,26.053466243769833,16.708437761069334,99.56043956043956,0.0
15:41:36.068,10.847,-0.4398826979472119,-40.30874785591767,26.144086995922052,16.708437761069334,99.60927960927961,0.0
15:41:36.085,10.864,-0.5131964809384186,-40.30874785591767,26.144086995922052,16.708437761069334,99.60927960927961,0.0
15:41:36.102,10.880,-0.5131964809384186,-40.39451114922813,26.2347077480743,16.708437761069334,99.60927960927961,0.0
15:41:36.118,10.897,-0.5131964809384186,-40.39451114922813,26.2347077480743,16.708437761069334,99.60927960927961,0.0
15:41:36.135,10.914,-0.5131964809384186,-40.39451114922813,26.325328500226547,16.708437761069334,99.60927960927961,0.0
15:41:36.152,10.930,-0.5131964809384186,-40.39451114922813,26.325328500226547,16.708437761069334,99.65811965811966,0.0
15:41:36.169,10.947,-0.5131964809384186,-40.39451114922813,26.325328500226547,16.708437761069334,99.65811965811966,0.0
15:41:36.185,10.964,-0.5131964809384186,-40.39451114922813,26.415949252378795,16.708437761069334,99.65811965811966,0.0
15:41:36.202,10.981,-0.5865102639296254,-40.39451114922813,26.415949252378795,16.708437761069334,99.65811965811966,0.0
15:41:36.219,10.997,-0.5865102639296254,-40.48027444253859,26.415949252378795,16.708437761069334,99.65811965811966,0.0
15:41:36.235,11.014,-0.5865102639296254,-40.48027444253859,26.415949252378795,16.708437761069334,99.65811965811966,0.0
15:41:36.252,11.031,-0.5865102639296254,-40.48027444253859,26.506570004531028,16.708437761069334,99.70695970695971,0.0
15:41:36.269,11.047,-0.5865102639296254,-40.48027444253859,26.506570004531028,16.708437761069334,99.70695970695971,0.0
15:41:36.286,11.064,-0.5865102639296254,-40.48027444253859,26.506570004531028,16.791979949874687,99.70695970695971,0.0
15:41:36.302,11.081,-0.5865102639296254,-40.48027444253859,26.506570004531028,16.791979949874687,99.70695970695971,0.0
15:41:36.319,11.097,-0.5865102639296254,-40.48027444253859,26.506570004531028,16.791979949874687,99.70695970695971,0.0
15:41:36.336,11.114,-0.5865102639296254,-40.56603773584906,26.506570004531028,16.791979949874687,99.70695970695971,0.0
15:41:36.352,11.131,-0.6598240469208179,-40.56603773584906,26.597190756683275,16.791979949874687,99.70695970695971,0.0
15:41:36.369,11.148,-0.6598240469208179,-40.56603773584906,26.597190756683275,16.791979949874687,99.70695970695971,0.0
15:41:36.386,11.164,-0.6598240469208179,-40.56603773584906,26.687811508835523,16.791979949874687,99.75579975579976,0.0
15:41:36.402,11.181,-0.6598240469208179,-40.56603773584906,26.687811508835523,16.791979949874687,99.75579975579976,0.0
15:41:36.419,11.198,-0.7331378299120246,-40.651801029159515,26.77843226098777,16.791979949874687,99.75579975579976,0.0
15:41:36.436,11.214,-0.7331378299120246,-40.651801029159515,26.77843226098777,16.791979949874687,99.8046398046398,0.0
15:41:36.453,11.231,-0.7331378299120246,-40.737564322469986,26.869053013140004,16.791979949874687,99.8046398046398,0.0
15:41:36.469,11.248,-0.7331378299120246,-40.737564322469986,26.869053013140004,16.791979949874687,99.8046398046398,0.0
15:41:36.486,11.264,-0.7331378299120246,-40.737564322469986,26.95967376529225,16.791979949874687,99.8046398046398,0.0
15:41:36.503,11.281,-0.7331378299120246,-40.82332761578045,26.95967376529225,16.791979949874687,99.8046398046398,0.0
15:41:36.519,11.298,-0.8064516129032313,-40.82332761578045,27.0502945174445,16.791979949874687,99.85347985347985,0.0
15:41:36.536,11.315,-0.8064516129032313,-40.82332761578045,27.0502945174445,16.791979949874687,99.85347985347985,0.0
15:41:36.553,11.331,-0.8797653958944238,-40.90909090909091,27.140915269596746,16.791979949874687,99.85347985347985,0.0
15:41:36.569,11.348,-0.8797653958944238,-40.90909090909091,27.231536021748965,16.87552213868004,99.85347985347985,0.0
15:41:36.586,11.365,-0.9530791788856305,-40.99485420240138,27.231536021748965,16.95906432748538,99.9023199023199,0.0
15:41:36.603,11.381,-0.9530791788856305,-41.080617495711834,27.322156773901213,17.126148705096085,99.9023199023199,0.0
15:41:36.619,11.398,-1.0263929618768373,-41.080617495711834,27.322156773901213,17.209690893901424,99.9023199023199,0.0
15:41:36.636,11.415,-1.0997067448680298,-41.16638078902229,27.41277752605346,17.293233082706763,99.9023199023199,0.0
15:41:36.653,11.431,-1.1730205278592365,-41.16638078902229,27.503398278205708,17.376775271512116,99.9023199023199,0.0
15:41:36.669,11.448,-1.1730205278592365,-41.25214408233276,27.59401903035794,17.543859649122822,99.9023199023199,0.0
15:41:36.686,11.465,-1.2463343108504432,-41.337907375643226,27.68463978251019,17.627401837928147,99.9023199023199,0.0
15:41:36.703,11.481,-1.3196480938416357,-41.42367066895368,27.775260534662436,17.794486215538853,99.9023199023199,0.0
15:41:36.720,11.498,-1.3929618768328424,-41.509433962264154,27.865881286814684,17.96157059314953,99.9023199023199,0.0
15:41:36.736,11.515,-1.3929618768328424,-41.509433962264154,27.956502038966917,18.21219715956559,99.9023199023199,0.0
15:41:36.753,11.532,-1.5395894428152417,-41.68096054888508,28.137743543271398,18.46282372598162,99.9023199023199,0.0
15:41:36.770,11.548,-1.5395894428152417,-41.68096054888508,28.22836429542366,18.713450292397653,99.9023199023199,0.0
15:41:36.787,11.565,-1.6862170087976551,-41.76672384219554,28.409605799728126,18.964076858813698,99.9023199023199,0.0
15:41:36.803,11.582,-1.7595307917888476,-41.852487135506,28.681468056184855,19.214703425229757,99.9023199023199,0.0
15:41:36.820,11.598,-1.8328445747800544,-42.02401372212693,28.86270956048935,19.381787802840435,99.9023199023199,0.0
15:41:36.837,11.615,-1.906158357771261,-42.10977701543739,29.134571816946078,19.71595655806182,99.9023199023199,0.0
15:41:36.853,11.632,-1.9794721407624678,-42.281303602058316,29.49705482555504,20.133667502088556,99.9023199023199,0.0
15:41:36.870,11.649,-2.126099706744867,-42.36706689536878,29.768917082011768,20.551378446115294,99.9023199023199,0.0
15:41:36.887,11.665,-2.1994134897360738,-42.53859348198971,30.040779338468525,21.136173767752723,99.9023199023199,0.0
15:41:36.903,11.682,-2.346041055718473,-42.62435677530018,30.312641594925225,21.80451127819549,99.8046398046398,0.0
15:41:36.920,11.699,-2.4193548387096797,-42.710120068610635,30.49388309922972,22.556390977443613,99.75579975579976,0.0
15:41:36.937,11.715,-2.4926686217008722,-42.79588336192109,30.765745355686448,23.391812865497073,99.65811965811966,0.0
15:41:36.953,11.732,-2.6392961876832857,-42.96740994854203,31.037607612143177,24.39431913116124,99.65811965811966,0.0
15:41:36.970,11.749,-2.712609970674478,-42.96740994854203,31.309469868599905,25.229741019214714,99.65811965811966,0.0
15:41:36.987,11.765,-2.8592375366568916,-43.053173241852484,31.671952877208867,26.232247284878866,99.60927960927961,0.0
15:41:37.003,11.782,-2.8592375366568916,-43.138936535162955,31.943815133665595,27.234753550543033,99.56043956043956,0.0
15:41:37.020,11.799,-3.005865102639291,-43.138936535162955,32.30629814227456,28.153717627401846,99.41391941391942,0.0
15:41:37.037,11.815,-3.0791788856304976,-43.138936535162955,32.75940190303578,29.156223893066,99.26739926739927,0.0
15:41:37.053,11.832,-3.1524926686217043,-43.22469982847341,33.12188491164477,30.15873015873015,99.16971916971917,0.0
15:41:37.070,11.849,-3.225806451612897,-43.22469982847341,33.48436792025373,31.244778613199685,99.07203907203908,0.0
15:41:37.087,11.866,-3.2991202346041035,-43.22469982847341,33.84685092886269,32.414369256474515,98.92551892551893,0.0
15:41:37.104,11.882,-3.4457478005865028,-43.22469982847341,34.20933393747168,33.66750208855473,98.87667887667888,0.0
15:41:37.120,11.899,-3.5190615835777095,-43.22469982847341,34.571816946080645,35.00417710944026,98.82783882783883,0.0
15:41:37.137,11.916,-3.592375366568916,-43.22469982847341,34.93429995468961,36.257309941520475,98.77899877899878,0.0
15:41:37.154,11.932,-3.6656891495601087,-43.22469982847341,35.2967829632986,37.59398496240601,98.73015873015873,0.0
15:41:37.170,11.949,-3.812316715542522,-43.22469982847341,35.74988672405982,38.76357560568087,98.73015873015873,0.0
15:41:37.187,11.966,-3.8856304985337147,-43.22469982847341,36.20299048482104,39.93316624895573,98.73015873015873,0.0
15:41:37.204,11.982,-3.8856304985337147,-43.22469982847341,36.74671499773447,41.019214703425234,98.73015873015873,0.0
15:41:37.220,11.999,-4.032258064516128,-43.22469982847341,37.29043951064796,41.93817878028406,98.73015873015873,0.0
15:41:37.237,12.016,-4.032258064516128,-43.22469982847341,37.834164023561385,42.60651629072683,98.73015873015873,0.0
15:41:37.254,12.032,-4.105571847507321,-43.22469982847341,38.468509288627104,43.2748538011696,98.73015873015873,0.0
15:41:37.271,12.049,-4.105571847507321,-43.22469982847341,39.102854553692794,43.859649122807014,98.73015873015873,0.0
15:41:37.287,12.066,-4.178885630498527,-43.22469982847341,39.64657906660625,44.360902255639076,98.73015873015873,0.0
15:41:37.304,12.083,-4.252199413489734,-43.22469982847341,40.28092433167197,44.862155388471194,98.82783882783883,0.0
15:41:37.321,12.099,-4.252199413489734,-43.22469982847341,40.91526959673766,45.27986633249793,98.92551892551893,0.0
15:41:37.337,12.116,-4.252199413489734,-43.22469982847341,41.54961486180335,45.69757727652464,98.92551892551893,0.0
15:41:37.354,12.133,-4.325513196480941,-43.22469982847341,42.00271862256457,46.11528822055138,98.97435897435898,0.0
15:41:37.371,12.149,-4.398826979472133,-43.31046312178388,42.455822383325795,46.61654135338347,98.97435897435898,0.0
15:41:37.387,12.166,-4.398826979472133,-43.31046312178388,42.999546896239224,47.11779448621553,98.97435897435898,0.0
15:41:37.404,12.183,-4.47214076246334,-43.39622641509434,43.362029904848214,47.702589807852945,99.02319902319903,0.0
15:41:37.421,12.199,-4.545454545454547,-43.39622641509434,43.724512913457176,48.37092731829574,99.07203907203908,0.0
15:41:37.437,12.216,-4.618768328445739,-43.39622641509434,44.086995922066166,48.87218045112783,99.07203907203908,0.0
15:41:37.454,12.233,-4.692082111436946,-43.39622641509434,44.358858178522866,49.28989139515457,99.07203907203908,0.0
15:41:37.471,12.249,-4.765395894428153,-43.39622641509434,44.63072043497962,49.5405179615706,99.07203907203908,0.0
15:41:37.488,12.266,-4.765395894428153,-43.39622641509434,44.90258269143635,49.70760233918128,99.07203907203908,0.0
15:41:37.504,12.283,-4.765395894428153,-43.39622641509434,45.17444494789308,49.79114452798663,99.07203907203908,0.0
15:41:37.521,12.300,-4.765395894428153,-43.39622641509434,45.44630720434978,49.79114452798663,99.07203907203908,0.0
15:41:37.538,12.316,-4.765395894428153,-43.39622641509434,45.718169460806536,49.79114452798663,99.07203907203908,0.0
15:41:37.554,12.333,-4.765395894428153,-43.39622641509434,45.899410965111,49.79114452798663,99.07203907203908,0.0
15:41:37.571,12.350,-4.692082111436946,-43.39622641509434,45.990031717263264,49.79114452798663,99.07203907203908,0.0
15:41:37.588,12.366,-4.692082111436946,-43.39622641509434,46.17127322156773,49.79114452798663,99.12087912087912,0.0
15:41:37.604,12.383,-4.618768328445739,-43.39622641509434,46.352514725872226,49.79114452798663,99.12087912087912,0.0
15:41:37.621,12.400,-4.618768328445739,-43.39622641509434,46.352514725872226,49.79114452798663,99.16971916971917,0.0
15:41:37.638,12.416,-4.618768328445739,-43.39622641509434,46.53375623017669,49.79114452798663,99.21855921855922,0.0
15:41:37.654,12.433,-4.545454545454547,-43.39622641509434,46.624376982328954,49.79114452798663,99.26739926739927,0.0
15:41:37.671,12.450,-4.545454545454547,-43.39622641509434,46.71499773448119,49.79114452798663,99.26739926739927,0.0
15:41:37.688,12.466,-4.47214076246334,-43.39622641509434,46.89623923878568,49.79114452798663,99.31623931623932,0.0
15:41:37.704,12.483,-4.47214076246334,-43.39622641509434,46.986859990937916,49.79114452798663,99.31623931623932,0.0
15:41:37.721,12.500,-4.47214076246334,-43.39622641509434,47.07748074309018,49.79114452798663,99.31623931623932,0.0
15:41:37.738,12.517,-4.398826979472133,-43.39622641509434,47.258722247394644,49.62406015037595,99.31623931623932,0.0
15:41:37.755,12.533,-4.325513196480941,-43.39622641509434,47.43996375169914,49.45697577276525,99.31623931623932,0.0
15:41:37.771,12.550,-4.252199413489734,-43.39622641509434,47.621205256003606,49.28989139515457,99.31623931623932,0.0
15:41:37.788,12.567,-4.178885630498527,-43.39622641509434,47.8024467603081,49.03926482873851,99.31623931623932,0.0
15:41:37.805,12.583,-4.032258064516128,-43.39622641509434,47.983688264612596,48.705096073517126,99.31623931623932,0.0
15:41:37.821,12.600,-3.9589442815249214,-43.31046312178388,48.16492976891709,48.28738512949039,99.31623931623932,0.0
15:41:37.838,12.617,-3.7390029325513154,-43.31046312178388,48.34617127322156,47.7861319966583,99.31623931623932,0.0
15:41:37.855,12.633,-3.592375366568916,-43.22469982847341,48.52741277752605,47.284878863826236,99.31623931623932,0.0
15:41:37.872,12.650,-3.4457478005865028,-43.138936535162955,48.70865428183052,46.70008354218879,99.31623931623932,0.0
15:41:37.888,12.667,-3.225806451612897,-43.053173241852484,48.88989578613504,45.9482038429407,99.31623931623932,0.0
15:41:37.905,12.684,-3.005865102639291,-42.88164665523156,48.980516538287276,45.19632414369258,99.31623931623932,0.0
15:41:37.922,12.700,-2.785923753665685,-42.79588336192109,49.16175804259174,44.52798663324978,99.31623931623932,0.0
15:41:37.938,12.717,-2.565982404692079,-42.53859348198971,49.34299954689624,43.69256474519631,99.41391941391942,0.0
15:41:37.955,12.734,-2.2727272727272663,-42.36706689536878,49.52424105120073,42.940685045948214,99.51159951159951,0.0
15:41:37.972,12.750,-2.0527859237536603,-42.10977701543739,49.614861803352966,42.18880534670009,99.56043956043956,0.0
15:41:37.988,12.767,-1.906158357771261,-41.76672384219554,49.70548255550523,41.269841269841265,99.70695970695971,0.0
15:41:38.005,12.784,-1.6129032258064484,-41.42367066895368,49.79610330765746,40.35087719298244,99.75579975579976,0.0
15:41:38.022,12.800,-1.3929618768328424,-40.90909090909091,49.79610330765746,39.26482873851296,99.8046398046398,0.0
15:41:38.038,12.817,-1.1730205278592365,-40.39451114922813,49.79610330765746,38.178780284043455,99.9023199023199,0.0
15:41:38.055,12.834,-0.9530791788856305,-39.708404802744425,49.70548255550523,36.84210526315789,99.95115995115995,0.0
15:41:38.072,12.850,-0.7331378299120246,-39.02229845626072,49.70548255550523,35.505430242272354,100.0,0.0
15:41:38.088,12.867,-0.5131964809384186,-38.25042881646655,49.52424105120073,34.085213032581464,100.0,0.0
15:41:38.105,12.884,-0.3665689149560052,-37.39279588336192,49.252378794744004,32.7485380116959,100.0,0.0
15:41:38.122,12.901,-0.21994134897360595,-36.449399656946824,48.79927503398278,31.411862990810363,100.0,0.0
15:41:38.139,12.917,0.0,-35.506003430531734,48.16492976891709,30.325814536340857,100.0,0.0
15:41:38.155,12.934,0.14662756598239923,-34.47684391080618,47.43996375169914,29.323308270676677,100.0,0.0
15:41:38.172,12.951,0.21994134897360595,-33.36192109777015,46.352514725872226,28.65497076023391,100.0,0.0
15:41:38.189,12.967,0.3665689149560052,-32.16123499142367,45.17444494789308,28.2372598162072,100.0,0.0
15:41:38.205,12.984,0.4398826979472119,-30.960548885077188,43.724512913457176,28.070175438596493,100.0,0.0
15:41:38.222,13.001,0.5131964809384186,-29.759862778730707,42.18396012686904,28.070175438596493,100.0,0.0
15:41:38.239,13.018,0.6598240469208179,-28.559176672384226,40.64340734028093,28.070175438596493,100.0,0.0
15:41:38.256,13.034,0.7331378299120246,-27.272727272727266,39.01223380154056,28.070175438596493,100.0,0.0
15:41:38.272,13.051,0.8064516129032313,-25.900514579759857,37.29043951064796,28.070175438596493,100.0,0.0
15:41:38.289,13.068,0.9530791788856305,-24.52830188679245,35.568645219755325,27.98663324979114,100.0,0.0
15:41:38.306,13.084,1.0263929618768373,-23.156089193825053,33.84685092886269,27.98663324979114,100.0,0.0
15:41:38.322,13.101,1.0997067448680298,-21.869639794168094,32.12505663797009,27.98663324979114,99.95115995115995,0.0
15:41:38.339,13.118,1.1730205278592365,-20.58319039451115,30.584503851381953,27.98663324979114,99.9023199023199,0.0
15:41:38.356,13.134,1.2463343108504432,-19.21097770154374,28.86270956048935,27.98663324979114,99.85347985347985,0.0
15:41:38.372,13.151,1.2463343108504432,-17.924528301886795,27.140915269596746,27.98663324979114,99.8046398046398,0.0
15:41:38.389,13.168,1.3196480938416357,-16.552315608919386,25.509741730856362,27.98663324979114,99.8046398046398,0.0
15:41:38.406,13.184,1.3929618768328424,-15.180102915951977,23.878568192116006,27.98663324979114,99.8046398046398,0.0
